P2 600 600 255
2 2 2 2 2 2 3 2 3 2 3 3 2 3 2 2 3 2 3 2 2 2 3 3 3 3 3 3 2 2 3 2 3 2 2 3 2 2 2 3 2 3 3 3 2 2 2 3 2 2 3 2 3 3 2 3 3 3 3 2 3 2 2 2 2 3 3 3 3 3 3 2 2 3 2 3 2 2 3 2 2 2 2 3 3 3 3 2 3 3 3 3 3 3 3 3 2 3 2 3 3 3 2 3 3 3 3 3 3 3 3 3 3 3 3 3 3 3 3 2 2 3 3 3 3 3 3 3 3 3 3 2 3 3 3 2 3 3 2 3 3 3 3 2 2 3 3 3 2 3 3 3 3 2 3 3 3 3 3 3 3 3 3 3 3 3 3 3 3 3 3 3 3 3 2 3 3 3 3 3 3 3 3 3 3 3 3 3 3 3 3 3 3 3 3 3 3 3 3 3 3 3 3 3 3 3 3 3 3 3 3 3 3 3 3 3 3 3 3 3 3 3 3 3 3 3 3 3 3 3 3 3 3 3 3 3 3 3 2 3 3 3 3 3 3 3 3 3 3 3 3 3 3 3 3 3 3 3 3 3 3 3 3 3 3 3 3 3 3 3 3 3 3 3 3 3 3 3 3 3 3 3 3 3 3 3 3 3 3 3 3 3 4 3 3 3 3 3 3 3 3 4 3 3 3 3 3 3 3 3 3 3 3 3 3 3 3 4 3 3 3 3 3 3 3 4 3 3 3 3 4 3 3 3 3 3 3 4 3 3 3 3 3 3 3 3 3 3 3 3 3 3 3 3 3 3 3 3 3 3 3 3 3 3 3 3 3 3 3 3 3 3 3 3 3 3 3 3 3 3 3 3 3 3 3 3 4 3 3 3 3 3 3 3 3 3 3 3 3 4 3 3 3 3 3 3 3 3 3 3 3 3 3 3 3 3 3 3 4 3 3 3 3 3 3 3 3 3 3 3 3 3 3 3 3 3 3 3 3 3 3 3 3 3 3 3 3 3 3 3 3 3 3 3 3 3 3 3 3 3 3 3 3 3 3 3 3 3 3 3 3 3 3 3 3 3 3 3 3 3 3 3 3 2 3 3 3 3 3 3 3 3 3 3 4 3 3 3 3 3 3 3 3 3 3 3 3 3 3 3 3 3 3 3 3 3 3 2 3 3 3 3 3 3 3 3 3 3 3 3 3 3 3 3 3 3 3 3 2 3 3 3 2 3 3 3 3 3 3 3 3 2 3 2 3 3 2 3 2 2 3 3 2 2 2 3 3 2 3 3 2 2 3 3 3 2 3 2 2 3 3 3 2 3 2 3 2 3 3 2 2 3 2 3 2 2 3 2 2 0 
5 6 5 5 6 5 5 6 5 5 6 5 5 5 5 5 6 5 5 6 5 5 6 5 5 5 6 5 6 5 6 5 5 5 5 5 5 6 5 5 5 5 5 6 5 6 5 5 5 5 5 6 6 6 6 5 6 5 5 5 6 5 6 6 6 6 5 5 6 6 6 6 6 5 6 6 5 6 6 6 5 6 5 6 6 5 5 5 5 6 5 6 6 6 5 6 6 5 6 5 6 6 6 5 6 6 5 6 6 6 6 6 5 6 6 6 6 6 5 6 5 6 6 6 6 6 6 6 6 6 5 6 6 6 6 6 7 6 6 6 6 6 6 6 6 6 6 6 6 6 6 6 6 6 6 6 6 6 6 6 6 6 6 6 6 6 6 6 5 6 6 6 6 6 6 7 6 6 6 6 6 6 7 7 6 6 6 6 7 7 6 6 6 7 6 6 6 6 7 6 7 6 6 6 6 6 6 6 6 6 6 7 6 7 7 6 7 6 6 6 6 6 7 7 7 7 6 7 6 7 6 7 6 7 6 6 7 6 6 7 7 6 6 7 6 6 7 6 7 6 7 6 7 7 7 7 6 6 6 7 6 7 6 7 7 7 7 7 7 6 6 7 7 7 7 6 7 6 6 7 7 6 6 7 6 7 7 7 7 7 7 7 7 7 7 7 7 7 6 7 7 7 8 7 7 7 7 7 6 7 7 7 7 7 7 7 7 8 7 7 7 7 7 7 6 7 7 7 7 7 7 7 7 7 7 7 7 7 7 7 7 7 7 7 7 7 7 7 7 7 7 7 7 7 7 7 7 6 7 7 7 7 7 7 7 6 7 7 7 7 8 7 7 7 7 6 7 7 7 6 7 6 7 7 7 7 7 7 6 7 7 7 7 6 7 7 7 7 7 7 7 6 6 6 7 6 6 7 7 7 7 6 7 7 7 7 7 6 7 7 7 7 7 7 7 7 6 6 6 7 7 7 6 7 7 7 7 7 7 7 6 7 7 6 6 7 7 7 7 6 7 7 6 6 6 7 6 6 6 6 7 6 7 6 6 7 7 6 7 7 6 7 6 6 6 6 6 6 7 7 6 7 6 6 6 6 7 7 7 6 6 6 6 6 6 6 7 6 6 6 6 6 6 7 6 6 6 6 7 6 6 6 6 6 6 6 6 6 6 6 6 7 6 6 5 6 6 6 6 6 6 6 6 6 6 6 6 6 6 6 5 6 6 6 6 6 6 6 6 6 6 6 6 6 6 6 5 6 6 6 6 6 6 6 6 6 6 6 6 6 6 5 6 6 6 6 5 6 5 6 6 5 5 5 6 6 6 5 6 6 6 5 6 5 5 6 5 6 6 0 
5 6 6 5 5 5 6 5 5 6 5 5 5 5 6 6 5 5 5 6 5 5 5 6 5 5 5 5 6 5 6 5 5 6 5 6 6 6 6 6 6 5 6 5 5 5 6 6 5 6 6 6 6 6 5 5 5 6 5 6 5 5 6 6 6 6 6 6 5 5 5 5 5 5 5 5 6 6 6 5 5 5 5 6 5 6 5 6 6 6 6 5 6 5 6 6 6 6 5 6 6 6 6 6 6 6 6 6 6 6 5 6 6 6 6 6 6 5 6 5 6 6 6 6 5 6 6 7 6 6 5 6 6 6 7 6 6 6 6 6 6 6 6 6 6 6 6 6 6 6 6 6 6 6 6 6 6 6 6 6 6 6 7 6 6 6 6 6 6 6 6 6 6 6 7 6 6 6 6 6 7 6 6 7 6 6 6 6 6 6 6 7 6 6 6 6 7 6 6 6 7 6 6 6 6 6 7 6 6 7 6 6 6 7 6 7 6 6 7 6 6 7 7 6 6 7 7 6 7 7 6 6 7 7 7 7 6 6 7 6 7 7 6 7 6 7 7 7 7 7 7 7 6 6 7 6 6 7 7 7 7 6 7 6 7 7 6 7 7 7 7 7 7 6 7 7 6 7 7 7 6 7 7 7 7 7 8 7 6 6 7 6 7 7 7 7 6 6 7 7 7 6 7 7 7 6 7 7 7 7 7 7 7 7 7 7 7 7 7 7 6 7 7 7 7 7 7 7 7 7 7 7 7 7 7 7 7 6 7 7 7 7 7 7 7 7 7 6 7 7 7 7 7 7 6 8 8 7 7 7 7 7 7 7 7 7 7 7 7 7 7 7 7 6 7 7 8 6 7 7 7 7 7 7 7 6 7 7 6 7 7 7 7 7 7 6 7 7 7 7 6 6 7 6 6 7 7 7 7 7 6 7 7 6 6 7 7 7 7 7 7 7 7 6 7 7 7 6 6 7 7 7 7 7 7 7 7 6 7 7 7 7 7 6 6 7 7 6 6 6 7 7 6 7 6 6 6 6 7 7 6 7 7 6 6 6 6 7 6 7 7 6 6 6 6 7 6 6 6 6 6 6 6 6 6 7 6 6 6 6 7 6 6 6 6 6 7 6 7 6 6 6 6 6 6 6 7 6 6 6 6 6 6 6 6 6 6 6 6 6 6 6 6 6 6 6 6 6 6 6 6 6 6 5 6 6 6 6 6 5 6 6 6 6 6 6 6 6 6 6 6 6 6 6 6 6 6 5 6 6 6 6 6 6 6 6 6 6 6 6 6 5 6 5 6 5 6 6 5 6 6 6 5 5 6 6 6 5 6 6 5 6 6 5 6 5 6 6 5 0 
5 6 5 5 5 5 5 5 5 5 6 5 5 5 5 6 5 6 6 5 5 5 5 5 5 6 6 6 5 5 5 5 5 5 6 5 6 5 5 5 5 6 5 5 5 5 5 5 6 5 6 5 5 5 6 6 6 5 5 5 5 5 6 6 5 6 5 5 5 5 5 5 5 5 6 6 6 6 5 6 5 6 5 6 6 6 6 6 6 6 5 5 6 6 5 6 5 6 6 6 6 5 6 6 6 6 6 5 5 5 6 6 6 6 5 6 6 6 6 5 6 6 6 6 6 6 6 6 6 6 6 6 5 6 6 6 6 6 6 6 6 6 6 5 5 6 6 6 6 6 7 6 6 6 6 6 6 6 6 6 6 6 6 6 6 6 6 6 6 6 6 6 6 6 6 6 6 6 6 6 6 6 6 6 7 6 6 6 6 7 7 6 6 7 6 6 7 6 6 6 6 6 6 7 6 7 6 6 6 7 6 6 7 6 7 6 6 6 6 6 6 7 6 6 6 6 6 7 6 7 6 6 7 6 6 6 7 6 7 6 7 7 7 6 7 7 7 7 7 6 6 6 6 7 6 6 6 6 7 7 6 7 7 7 7 7 7 7 7 7 7 6 6 6 6 8 7 6 7 7 7 7 7 6 7 6 7 7 7 6 7 7 7 6 7 7 6 7 7 7 7 7 7 7 7 7 7 7 6 7 7 7 7 7 7 7 7 7 7 7 6 7 6 7 6 7 7 7 7 7 7 7 7 7 7 6 7 7 6 7 7 7 7 7 7 7 7 7 7 7 7 7 7 7 7 8 7 8 7 7 7 7 7 7 7 7 7 6 7 7 7 7 7 6 6 7 7 7 7 7 6 7 7 7 7 6 7 7 7 7 7 6 7 7 7 7 7 7 7 7 7 7 6 7 6 7 7 7 7 7 7 7 7 7 6 7 6 7 7 6 7 7 7 6 7 6 7 6 7 7 6 6 7 7 7 6 7 7 7 6 7 7 7 6 7 6 7 7 6 7 6 7 7 6 7 6 6 7 6 6 7 7 6 6 7 6 6 6 7 6 6 6 6 6 6 6 6 6 7 7 6 7 6 6 6 6 6 6 6 6 6 6 6 6 6 6 7 6 6 6 5 6 6 7 6 6 6 6 6 6 6 6 7 6 6 6 7 6 6 6 6 6 6 6 6 6 6 6 6 6 6 6 6 6 6 5 6 7 7 6 6 6 5 6 6 6 5 5 6 6 6 6 7 6 6 6 6 6 6 6 6 5 6 6 6 5 6 6 5 6 6 6 5 6 6 6 6 6 5 6 6 6 5 6 6 5 6 5 6 6 6 5 6 6 6 6 6 5 6 0 
5 5 6 6 5 5 5 6 5 5 5 6 5 5 5 5 5 5 5 6 6 5 5 5 5 5 6 6 5 5 6 5 5 6 6 5 5 6 5 5 5 5 6 6 5 6 5 5 5 6 6 6 5 5 6 6 6 5 6 5 6 6 6 5 5 6 6 6 5 5 6 6 6 5 6 6 6 6 6 6 5 5 6 6 6 6 6 6 6 6 6 6 6 6 6 6 6 6 5 6 6 6 6 6 6 6 6 6 6 6 5 5 6 6 6 5 6 6 6 6 6 6 6 6 6 6 6 6 6 6 7 6 6 6 6 6 6 5 6 6 6 6 7 6 6 6 6 6 5 7 6 6 6 6 7 6 6 7 6 6 6 6 6 6 6 6 6 6 6 6 6 6 6 7 6 6 6 7 6 7 6 6 6 6 7 6 7 6 6 6 6 6 6 6 6 6 6 6 6 6 6 6 6 7 7 6 6 6 6 6 7 6 7 7 6 7 6 6 6 7 7 6 6 6 7 6 7 7 6 7 7 6 7 7 7 7 6 7 7 7 6 6 7 6 7 7 7 6 6 6 7 6 6 6 6 7 7 7 6 7 7 7 7 7 6 7 7 7 6 7 6 7 7 6 7 7 6 7 6 7 7 7 7 7 7 7 6 7 6 7 7 6 7 7 6 7 7 7 6 7 7 7 7 6 6 7 6 6 7 7 7 7 7 7 7 7 7 7 7 7 7 7 7 7 7 7 7 8 7 7 7 6 7 7 7 6 7 7 7 7 7 7 7 7 7 7 7 7 7 7 6 7 7 7 7 6 7 7 7 7 7 7 7 7 6 7 7 7 7 7 6 7 7 7 7 7 6 7 7 7 7 7 7 7 7 7 7 7 7 7 7 7 7 7 6 7 7 7 7 7 7 7 7 7 7 7 7 7 6 7 7 7 7 7 7 7 7 7 6 7 7 7 7 6 7 7 7 6 7 6 6 7 6 7 7 6 7 7 6 7 6 7 6 7 7 7 6 7 7 7 7 7 6 7 7 6 6 7 6 7 6 6 6 6 6 6 6 7 6 6 6 6 6 6 7 7 6 6 6 7 7 6 7 6 7 6 6 6 6 6 6 7 7 6 6 6 6 6 6 6 7 6 6 6 6 6 6 6 6 6 6 7 7 6 7 6 6 6 6 6 6 6 6 6 6 6 6 6 6 6 6 6 6 6 6 6 6 6 6 6 6 6 6 6 6 6 6 7 6 6 6 5 6 6 6 6 5 6 6 6 6 5 6 6 5 6 6 5 6 6 6 6 5 6 6 5 6 6 6 5 6 6 6 6 5 6 5 6 6 5 6 5 6 6 6 6 6 6 6 0 
5 5 5 5 5 5 6 6 5 5 5 5 5 6 5 6 6 5 5 5 5 6 5 6 6 5 5 5 5 5 5 5 6 5 6 6 5 6 5 5 5 5 5 5 6 6 5 5 5 6 6 5 5 5 5 6 5 5 6 6 5 5 5 6 6 5 5 6 6 6 5 5 5 6 6 6 5 6 5 5 6 5 5 6 6 6 6 6 6 6 6 5 5 6 6 6 6 5 6 6 6 6 6 6 5 6 6 6 6 5 5 6 5 6 6 5 6 6 7 6 5 6 6 6 6 6 5 6 6 6 6 6 6 6 6 6 6 7 6 6 6 6 6 6 6 6 6 6 7 6 6 6 6 6 6 7 6 6 6 6 6 6 6 6 6 6 6 6 6 6 7 6 6 6 6 6 6 6 6 7 6 6 7 6 6 6 6 7 6 6 6 6 6 6 6 6 6 6 6 6 7 6 7 6 6 7 6 7 7 6 6 6 7 6 6 6 6 6 7 6 6 6 6 7 6 6 6 7 7 6 7 7 6 6 6 7 6 6 7 7 7 7 7 7 7 6 6 6 6 7 7 6 7 7 7 7 7 7 7 6 7 7 7 7 7 7 7 7 6 7 7 7 6 7 7 7 7 7 8 7 7 6 7 7 7 7 7 6 8 7 6 6 6 7 7 7 7 7 7 7 7 7 7 7 7 7 6 7 7 7 7 7 7 7 6 7 7 8 7 7 6 7 7 7 7 6 6 7 8 7 7 7 6 8 7 7 7 7 7 7 7 7 7 7 7 6 7 7 7 7 7 7 7 7 6 7 7 7 7 7 7 7 7 7 6 7 7 7 7 8 7 7 7 7 6 7 7 7 7 7 7 7 7 7 7 7 8 7 7 7 7 7 7 7 7 7 7 7 7 8 7 7 7 7 7 7 6 7 6 7 7 7 7 7 6 7 6 7 6 7 7 7 7 6 6 7 7 6 7 7 7 6 6 6 7 7 7 6 7 7 6 7 6 7 7 7 7 7 7 7 7 6 6 7 7 7 6 7 7 6 7 6 6 6 7 6 7 7 7 7 7 6 6 6 6 6 6 6 7 6 6 7 6 6 6 7 7 7 6 7 6 7 6 6 6 7 6 6 6 7 7 6 6 6 6 6 6 6 6 6 7 6 7 6 7 6 6 6 6 6 6 7 6 6 6 6 6 6 6 6 6 6 6 6 6 6 6 6 6 6 6 6 6 6 6 6 5 6 6 6 6 6 6 6 6 6 6 6 6 6 6 5 6 6 6 6 6 6 5 6 6 6 6 6 6 5 5 6 6 6 6 6 6 5 5 6 6 6 6 5 6 5 6 5 5 6 6 6 6 0 
5 5 5 5 6 5 5 5 5 5 5 5 5 5 6 5 5 5 6 5 6 6 6 5 5 5 6 5 6 5 6 5 5 5 6 5 5 6 6 6 5 6 6 6 5 6 5 5 5 5 5 6 5 5 5 6 6 6 6 6 5 5 6 5 5 5 6 5 6 6 5 6 6 5 6 6 6 6 7 6 6 6 6 6 5 6 5 5 6 6 6 6 6 6 6 6 6 6 6 6 5 6 6 6 6 6 6 6 6 6 6 6 6 6 6 6 6 6 6 6 6 6 6 6 6 6 6 6 6 6 6 6 5 6 6 6 6 6 7 6 6 6 7 6 6 6 6 6 6 6 6 6 6 6 6 6 6 6 6 6 6 6 6 6 6 7 6 6 7 6 7 6 6 6 7 6 7 6 6 7 6 6 6 6 6 6 6 7 7 6 7 6 6 6 7 6 7 5 6 6 6 6 6 6 6 7 6 6 6 7 8 6 7 7 7 6 6 6 6 7 6 6 7 6 6 6 7 7 7 7 7 7 6 7 7 7 6 7 6 7 7 6 6 6 6 7 6 7 7 6 7 7 7 7 7 6 7 7 7 7 6 6 7 7 7 7 7 6 7 6 7 6 6 7 6 7 6 7 7 7 7 7 6 7 7 7 7 7 7 6 7 7 7 6 8 7 7 7 7 7 7 7 7 7 6 7 7 7 7 7 7 7 8 8 7 7 7 7 7 7 6 6 7 7 7 7 7 6 7 7 8 7 7 6 7 7 7 7 7 6 7 7 7 7 7 8 7 7 7 6 7 7 7 7 7 7 7 7 7 7 7 7 7 6 8 7 6 6 7 6 7 7 7 8 7 7 7 7 7 7 7 6 7 7 7 6 7 6 7 7 7 7 7 7 7 7 6 7 7 7 7 7 8 7 7 6 7 6 6 7 6 7 7 7 6 6 7 6 6 7 7 7 7 6 7 7 7 8 7 7 7 7 7 6 7 6 7 7 7 7 7 7 7 6 7 7 7 7 7 6 7 6 7 6 7 7 7 7 7 6 7 6 7 7 7 6 6 6 7 7 6 7 6 7 6 7 6 6 6 7 6 6 6 6 6 7 6 6 7 6 6 7 6 6 7 5 6 6 6 7 6 6 7 6 6 6 6 7 6 6 6 5 6 6 6 6 6 6 6 6 6 6 6 6 6 6 6 6 6 6 6 6 6 5 6 6 6 7 6 6 6 6 6 6 6 6 5 6 6 6 6 6 6 6 6 6 6 5 6 6 6 6 6 5 6 6 6 6 5 5 5 5 6 6 5 6 6 6 6 6 6 6 6 6 6 6 6 5 6 6 5 5 6 6 6 5 5 5 6 0 
5 6 5 5 5 5 5 5 5 5 5 5 5 5 5 6 6 6 6 6 6 5 5 6 6 5 5 6 6 5 5 5 5 5 5 5 6 5 6 5 5 6 5 5 6 5 5 5 5 6 5 6 5 6 5 6 6 6 5 6 6 6 5 5 6 6 5 6 5 6 5 5 6 6 6 6 6 6 5 5 5 5 5 6 6 5 6 6 6 6 6 5 6 6 5 6 6 5 5 6 6 5 6 5 6 6 6 6 6 6 6 6 6 6 6 6 6 6 5 5 6 6 6 6 6 6 5 6 6 6 5 6 6 6 6 6 6 6 6 5 6 6 6 6 6 6 6 6 6 6 6 6 6 6 6 6 6 6 6 6 7 6 6 7 6 6 6 6 6 6 6 6 6 6 6 6 7 7 7 6 6 6 6 6 6 7 6 6 6 6 6 7 6 6 6 6 6 6 6 7 6 7 7 6 6 6 6 6 6 6 7 6 6 6 6 7 6 7 7 7 7 7 7 7 7 6 7 7 6 7 7 6 6 7 7 7 7 7 6 7 6 6 6 7 7 6 6 7 6 6 6 7 7 7 7 6 6 7 7 6 7 7 7 6 7 7 6 7 7 7 6 7 7 7 7 7 7 7 7 7 8 6 7 6 7 7 7 6 7 7 6 7 7 6 8 6 7 7 7 7 7 7 7 7 7 7 6 7 7 7 7 7 7 7 6 7 8 7 7 7 8 7 7 7 6 8 7 7 7 8 7 7 7 7 7 7 7 7 7 6 7 7 7 7 7 7 7 7 7 7 7 7 7 7 7 7 7 7 7 7 7 7 8 7 7 7 7 7 7 7 6 7 7 7 7 7 7 7 7 7 7 6 7 7 7 7 7 7 7 7 7 7 7 7 7 7 7 7 7 6 7 7 7 6 7 7 7 7 7 7 7 6 7 7 6 6 7 7 7 6 7 7 6 6 7 7 7 7 7 7 7 7 7 7 6 7 7 6 7 6 6 7 7 6 7 7 6 7 7 6 7 7 7 7 7 6 7 6 6 7 7 6 7 6 7 6 7 7 6 7 7 6 6 7 6 6 7 7 6 7 6 6 6 6 7 6 6 6 7 6 6 7 6 7 7 6 6 6 6 7 6 6 6 6 6 7 7 6 6 6 6 6 7 6 6 6 6 6 6 6 6 6 6 6 6 7 7 6 6 6 6 7 6 6 6 7 6 6 6 6 6 6 6 6 6 6 7 6 6 7 6 6 6 6 5 6 6 6 6 6 6 6 5 6 6 6 5 6 5 6 6 5 6 6 6 5 6 6 6 5 6 6 5 5 6 6 6 6 5 6 5 6 6 6 6 6 5 5 6 0 
5 5 6 5 5 5 5 5 5 6 5 5 5 5 5 5 5 5 5 5 5 5 6 6 5 5 6 6 5 6 5 5 5 6 5 5 5 5 6 6 6 5 6 5 5 6 5 5 6 6 6 6 5 6 6 6 5 5 6 6 6 5 5 6 5 5 5 6 6 6 6 6 5 6 6 6 6 6 6 5 6 6 6 6 6 6 6 5 6 6 6 6 6 5 5 6 6 6 6 6 6 6 5 6 6 6 6 6 6 6 6 6 6 6 6 6 6 6 5 6 6 6 6 5 6 6 6 6 6 6 5 6 6 6 6 6 6 6 6 6 6 6 6 6 6 6 6 6 6 6 6 7 6 6 6 6 6 6 7 6 6 6 6 6 6 6 5 6 6 7 6 6 6 6 6 6 7 6 6 6 6 6 6 6 6 7 6 6 6 7 7 6 7 6 7 6 6 7 6 6 7 6 7 7 6 6 7 7 6 7 6 7 7 6 6 7 6 6 7 6 7 6 6 6 6 6 7 7 6 6 6 6 7 6 7 6 7 7 6 7 7 7 7 7 7 7 7 7 7 6 7 6 7 7 7 7 7 7 7 7 6 7 7 6 7 7 7 7 7 7 7 6 7 6 7 6 6 7 7 7 7 7 7 7 7 7 7 7 7 7 7 7 6 7 7 7 7 7 7 7 7 7 7 7 7 7 7 7 7 8 7 7 7 7 8 7 7 7 7 8 7 7 7 7 7 7 7 7 7 8 7 7 7 7 7 7 8 7 7 7 7 7 7 7 7 7 7 7 7 7 7 7 7 7 7 7 7 7 7 7 7 7 8 7 6 7 7 7 7 7 7 7 7 7 7 7 7 7 7 7 7 7 7 7 7 7 6 7 7 7 7 7 7 7 7 8 7 7 7 7 6 7 7 7 7 7 7 6 7 7 7 7 7 7 7 7 7 7 6 7 7 6 7 7 6 7 7 6 7 7 7 7 7 6 6 7 7 7 7 7 7 7 6 7 7 7 7 7 7 6 7 7 7 6 6 6 7 7 6 7 7 6 7 6 6 7 6 7 6 7 6 6 7 6 7 7 6 6 6 6 7 6 7 6 6 6 7 7 7 6 7 6 6 6 6 6 6 7 7 6 6 5 6 7 6 6 6 6 6 6 5 6 6 7 7 6 6 6 6 6 6 6 6 7 5 7 6 6 6 7 6 6 6 6 7 6 6 6 6 6 6 6 6 6 6 5 5 6 6 6 6 6 6 5 6 6 6 6 6 6 6 6 5 6 6 6 5 5 6 6 6 6 6 6 6 6 6 6 5 6 6 6 6 6 6 5 5 5 6 6 6 6 6 6 5 6 6 5 5 0 
5 5 5 5 5 5 5 5 5 5 6 5 5 6 5 5 5 6 5 5 6 5 6 5 5 6 5 5 6 5 6 6 5 6 5 5 5 6 5 5 6 5 6 5 5 6 6 5 6 6 6 5 5 5 5 5 6 6 6 6 5 6 5 5 6 6 5 6 6 5 5 6 6 6 5 6 6 6 6 6 6 6 6 5 6 6 6 6 5 6 6 6 6 6 5 6 6 5 6 6 6 5 6 6 6 6 6 6 6 6 6 6 6 5 6 6 6 6 6 6 5 6 5 6 6 6 6 6 6 6 6 6 6 6 7 6 6 6 6 5 6 6 6 6 6 6 6 6 6 6 6 6 6 6 6 7 6 6 6 6 6 6 6 6 6 6 6 6 6 6 6 6 6 6 6 6 7 7 7 6 6 6 6 6 6 6 6 7 7 6 6 7 6 6 6 6 6 6 7 6 6 6 6 7 6 7 6 7 7 7 6 6 6 7 7 7 7 7 7 6 6 6 6 7 7 6 6 6 7 7 6 7 6 6 7 6 7 6 6 7 7 6 7 7 6 7 6 7 7 7 6 7 6 7 7 7 7 7 6 7 7 7 7 7 7 7 7 7 7 6 7 7 7 7 7 7 7 7 7 7 7 7 7 7 6 7 7 7 6 7 7 6 7 7 7 6 6 7 7 6 8 7 7 7 7 7 7 7 7 7 7 7 7 7 7 7 7 6 7 6 7 7 7 7 7 7 7 7 7 7 7 8 7 7 7 7 7 7 7 8 7 7 8 7 7 7 7 7 7 7 7 6 7 7 7 7 7 7 7 7 8 6 7 7 7 7 7 7 7 7 7 6 7 7 7 7 8 7 7 7 7 7 7 7 7 7 7 7 7 7 7 7 7 7 7 7 6 7 7 7 7 6 7 7 7 7 7 7 7 7 7 6 7 7 7 6 7 7 6 7 7 7 6 6 7 7 7 7 7 6 6 7 7 7 7 7 7 7 7 6 7 7 7 6 7 7 6 7 7 7 6 8 7 6 7 6 6 6 7 7 7 6 7 7 7 7 7 7 7 6 7 7 7 6 6 6 7 7 7 7 6 7 7 6 7 6 7 6 6 6 6 7 7 6 6 6 7 6 6 6 6 6 6 6 7 7 7 7 6 7 6 6 6 6 6 6 6 6 6 6 6 6 7 6 6 6 6 6 6 6 6 6 6 7 6 6 6 5 6 7 6 6 6 6 6 6 6 6 6 6 5 6 6 6 6 6 6 6 6 6 6 6 5 6 6 6 6 6 6 6 6 6 6 6 6 6 6 6 5 6 5 5 5 5 6 6 6 6 5 6 6 6 6 6 6 6 5 6 6 0 
5 5 6 5 5 5 5 6 6 5 5 5 5 5 5 5 5 5 5 6 5 5 6 6 5 6 5 5 6 5 6 5 5 5 6 5 5 6 5 5 5 6 5 6 6 5 6 5 5 6 6 6 6 5 6 6 5 6 6 5 5 6 5 6 5 5 6 6 6 6 6 6 6 6 5 5 6 6 5 6 6 6 6 6 6 6 6 6 6 5 5 5 5 5 5 6 6 6 6 6 6 6 5 6 6 6 6 6 6 6 6 6 6 6 6 6 6 6 6 6 6 6 6 6 6 6 6 6 6 6 6 6 6 6 5 7 7 6 7 6 6 6 6 6 6 6 6 6 6 7 7 6 6 6 7 6 6 6 5 6 6 6 6 6 7 6 6 6 6 6 6 7 6 6 7 6 7 7 6 6 6 6 6 5 6 7 6 6 6 6 6 7 7 7 6 6 7 7 7 6 7 7 6 6 6 7 7 6 6 6 7 7 7 6 7 6 6 7 7 6 7 6 6 7 6 7 7 7 7 7 7 7 7 6 7 6 7 7 7 6 6 7 6 7 7 7 7 7 6 6 7 7 7 7 7 7 7 6 7 7 6 6 7 7 7 6 7 7 6 7 7 7 7 7 7 7 7 7 7 7 7 7 7 7 7 7 7 7 7 7 7 7 7 7 7 7 7 7 7 7 7 7 7 7 7 6 7 7 6 7 6 7 7 7 7 7 7 7 7 7 7 7 7 7 7 7 7 7 7 8 7 7 7 7 7 7 7 7 7 7 7 7 6 7 7 7 7 7 7 8 7 7 7 7 7 7 7 7 7 7 7 7 7 7 7 8 7 7 7 7 7 7 7 7 7 7 7 7 7 7 7 7 7 7 7 7 7 7 8 8 7 7 7 7 7 7 7 7 7 7 8 6 6 7 7 7 7 7 6 7 8 7 6 7 6 7 7 7 7 7 7 7 7 7 7 7 7 7 7 7 7 7 7 7 6 7 7 7 7 6 7 6 7 7 7 7 7 7 7 7 7 6 7 7 7 7 6 7 7 7 7 7 7 6 6 7 7 6 7 7 7 7 6 7 6 7 7 7 7 6 7 7 6 7 7 7 7 7 7 6 6 6 6 6 7 6 6 6 6 6 7 7 7 6 6 6 6 6 6 6 6 7 6 6 6 6 6 6 6 6 6 6 7 6 7 7 6 6 6 6 6 6 6 6 6 6 6 6 6 6 6 6 6 6 6 6 6 5 6 6 6 6 5 5 6 6 6 6 6 6 5 5 5 7 6 5 6 6 5 6 6 6 6 6 5 6 6 6 6 6 6 6 6 6 5 6 6 6 6 6 6 6 6 5 6 7 5 6 5 0 
6 6 5 6 5 5 5 5 6 6 5 5 5 6 5 6 5 5 6 5 5 5 5 6 5 5 6 5 6 5 6 6 5 5 6 6 5 6 6 6 6 6 5 5 5 5 5 6 5 5 5 5 6 6 6 5 6 6 5 6 6 6 6 6 5 5 5 6 6 6 5 5 5 6 6 6 6 5 6 6 6 6 6 6 5 6 6 6 6 6 6 6 6 6 6 6 6 6 5 5 5 6 6 6 6 6 6 6 6 6 6 6 6 6 6 6 6 6 6 6 6 6 6 6 6 5 6 6 6 6 6 6 6 6 6 6 6 6 6 6 6 6 6 7 6 6 6 7 6 7 6 7 6 6 6 6 6 6 6 6 6 6 6 6 6 6 6 7 6 6 6 6 6 6 6 5 6 6 6 6 6 6 7 6 6 6 6 7 6 6 6 7 6 6 6 7 7 6 6 6 6 6 6 6 7 6 6 7 6 6 6 7 6 7 7 7 6 6 8 6 7 7 6 7 7 7 6 7 7 6 7 7 6 6 7 6 7 7 7 7 6 7 7 7 7 7 7 7 7 7 7 7 6 6 7 7 7 7 7 6 6 7 6 7 6 7 7 7 7 7 7 7 6 6 7 6 7 6 7 7 7 6 6 7 7 7 7 7 7 7 7 7 7 6 7 7 7 6 7 7 8 7 7 7 7 7 6 7 8 7 7 7 7 6 7 7 7 6 7 7 7 7 7 8 7 7 7 7 8 7 7 7 7 7 7 7 7 7 7 7 8 8 7 8 7 7 7 7 7 7 7 7 8 7 7 7 7 7 7 7 7 7 7 7 7 7 7 7 7 7 7 7 7 8 7 7 7 7 7 7 7 8 7 7 8 7 7 8 7 7 8 7 7 7 7 7 7 7 7 7 8 7 6 7 7 8 7 7 8 6 7 7 7 7 7 7 7 6 7 7 7 6 7 7 7 7 7 7 7 7 7 7 7 7 7 7 7 7 6 7 6 7 6 6 7 7 6 7 7 7 7 6 7 7 7 6 6 7 7 7 7 7 7 7 6 7 6 7 7 7 7 7 6 6 7 6 7 6 6 7 6 6 7 6 6 7 7 6 7 6 6 7 6 7 7 6 6 6 6 6 6 6 6 6 7 6 6 6 6 6 6 6 6 6 6 6 6 6 6 6 7 6 6 6 6 7 6 6 6 6 6 6 6 6 6 6 6 6 6 6 6 6 6 5 6 6 6 6 6 7 5 6 6 6 6 6 6 6 6 6 6 6 6 6 6 6 6 6 6 6 6 5 6 6 6 6 6 6 5 6 5 6 5 6 6 6 6 6 6 6 5 6 6 5 6 6 6 5 6 0 
5 5 5 5 5 5 5 5 5 5 5 5 6 6 5 6 6 6 6 5 5 6 5 5 5 6 6 6 5 5 6 5 6 6 5 5 5 5 6 6 5 6 5 6 5 6 6 6 5 6 5 6 6 5 5 6 5 5 6 6 6 6 5 5 5 6 5 5 5 6 5 6 5 6 5 5 5 6 6 5 5 5 5 6 5 5 5 5 5 6 6 6 6 6 6 6 6 5 6 6 6 5 6 6 6 6 5 6 6 6 6 6 6 6 6 6 6 6 6 6 6 5 6 6 6 5 6 6 6 6 6 6 6 6 6 6 6 6 6 6 6 6 6 6 6 6 6 6 6 6 6 6 6 6 6 7 6 6 6 5 6 6 6 6 6 6 6 6 6 6 6 6 6 6 6 6 6 6 6 6 6 7 7 7 6 6 6 6 6 7 6 6 7 6 6 7 7 7 6 7 6 6 6 7 6 7 7 6 7 7 7 6 7 7 7 6 6 6 6 7 6 6 7 7 7 7 7 7 7 7 6 7 7 6 6 7 7 7 6 7 7 7 6 7 7 7 7 6 7 7 7 7 6 7 7 7 7 7 7 7 7 7 7 6 7 7 7 7 7 6 7 7 7 7 7 7 7 7 7 7 7 7 7 6 8 7 7 8 7 7 7 7 7 7 8 6 7 7 7 7 7 7 7 7 7 7 7 7 6 7 7 7 7 7 7 7 7 7 7 7 7 7 7 7 7 7 7 7 7 7 7 7 7 7 7 7 7 7 7 7 7 7 7 7 7 7 7 7 8 7 7 7 7 7 7 7 8 7 7 8 7 7 7 7 7 7 7 8 7 7 7 7 6 7 7 7 7 6 8 7 7 7 7 7 7 7 7 7 8 7 7 7 7 7 7 7 7 7 7 7 7 6 7 7 7 7 7 7 7 7 7 7 7 7 7 7 7 7 7 6 6 7 6 7 7 7 7 7 7 7 7 7 7 6 6 6 7 7 6 6 7 7 7 7 7 7 7 7 7 7 7 6 6 7 7 6 7 7 7 6 7 7 6 6 7 7 6 7 7 7 7 7 6 6 6 7 7 6 6 6 7 7 7 6 6 6 6 7 7 6 6 7 6 6 6 7 7 6 6 6 6 6 6 6 7 6 7 7 6 7 6 6 6 6 6 6 7 6 6 6 6 6 6 7 7 6 6 6 6 6 6 6 6 6 6 6 6 5 6 6 6 6 6 6 6 6 5 6 6 6 6 6 6 6 6 6 6 6 6 6 6 6 6 7 5 6 6 6 6 6 6 6 6 6 6 6 6 6 6 5 6 6 6 6 5 6 6 6 6 5 6 5 6 6 5 5 6 6 6 0 
6 5 6 6 5 5 5 5 5 5 6 6 5 5 6 6 6 6 5 6 6 5 6 6 6 6 5 6 6 5 6 6 6 5 5 5 5 5 5 5 5 5 6 6 5 6 5 5 5 5 5 6 6 5 6 6 6 6 6 6 6 6 5 5 6 6 5 6 6 5 6 5 5 6 5 6 6 5 6 5 6 5 5 6 5 6 6 5 6 6 6 6 6 6 6 5 5 7 6 6 6 6 6 6 6 6 6 5 6 6 5 5 6 6 6 7 6 6 5 6 6 6 6 6 6 5 6 6 6 7 6 6 6 6 6 6 6 6 6 6 6 6 6 5 6 6 5 6 6 6 6 6 6 7 6 6 6 6 6 6 6 6 6 6 6 6 6 6 7 6 6 7 6 6 6 7 6 6 6 6 6 6 6 6 6 6 7 6 7 6 6 7 7 6 6 6 7 6 6 7 6 6 7 6 7 7 7 7 6 7 7 6 7 7 7 7 6 6 7 6 6 6 6 7 7 7 7 6 6 6 6 7 7 7 7 7 7 7 7 7 7 7 7 6 7 7 7 7 7 7 7 7 7 7 7 7 7 7 7 6 7 7 7 7 7 7 7 7 7 7 7 7 6 7 7 7 7 7 7 7 7 7 7 7 7 7 7 7 7 8 7 7 7 7 7 7 7 7 7 7 7 7 7 7 7 7 8 7 7 6 7 7 7 7 7 7 7 7 7 8 7 7 7 7 7 7 7 7 7 7 7 8 7 7 7 7 7 7 7 7 7 7 7 6 7 7 8 7 7 7 7 7 7 7 7 7 8 7 7 7 7 7 7 8 7 7 7 8 7 7 7 7 8 7 7 8 7 8 8 7 7 8 7 7 7 7 7 7 7 7 7 6 7 7 7 7 7 7 7 7 7 7 7 7 7 7 7 7 7 7 7 7 7 7 7 7 7 7 7 7 7 7 7 7 7 7 7 6 7 7 7 7 6 8 7 7 7 6 6 7 6 7 7 7 7 7 7 6 7 7 7 7 7 7 7 6 6 7 7 7 6 7 6 7 7 7 7 6 7 7 7 6 7 6 7 7 6 7 6 6 6 6 6 6 7 6 7 6 7 7 6 6 7 7 7 6 7 6 6 6 6 6 6 6 7 7 7 6 6 6 6 7 6 6 7 6 6 6 7 6 7 5 6 6 6 6 6 7 7 6 6 6 6 6 6 6 6 6 6 6 6 6 6 6 6 6 6 6 6 6 6 6 6 6 6 6 6 6 6 6 6 6 5 6 6 6 5 6 6 6 6 6 6 7 5 6 6 6 6 6 5 5 6 6 6 6 6 6 6 6 6 5 5 5 6 5 6 5 5 0 
6 5 5 5 6 5 6 5 5 6 6 5 5 6 5 5 6 6 5 5 6 6 5 5 6 5 5 5 5 5 6 6 5 5 5 6 5 5 6 5 5 5 5 6 5 6 5 6 5 6 5 5 5 6 6 5 6 5 5 6 5 6 5 5 6 5 6 5 6 5 6 6 6 5 6 6 5 6 5 6 6 6 6 6 6 6 5 6 6 6 5 5 6 6 6 6 5 5 6 6 6 6 6 5 6 6 6 6 6 6 6 6 5 6 6 6 6 6 6 6 6 6 6 6 6 6 6 6 6 6 6 6 6 5 6 7 6 6 6 6 6 6 7 7 6 6 7 6 5 7 6 6 6 6 6 6 6 6 6 6 6 6 6 6 7 7 7 6 6 6 6 6 6 6 6 6 6 6 6 6 7 7 6 6 7 6 6 6 6 6 7 7 7 7 7 7 7 6 7 6 6 7 7 6 7 6 6 6 6 6 6 7 7 6 7 6 7 6 6 7 6 6 6 7 7 6 7 6 6 7 7 7 6 7 7 6 6 7 6 7 7 7 6 7 6 7 6 7 7 7 7 7 7 7 7 6 7 7 7 7 7 7 7 8 6 7 7 7 7 6 7 7 7 7 7 7 7 7 7 7 7 7 7 7 7 7 6 7 7 7 7 7 7 7 8 7 7 7 7 7 7 7 7 7 7 6 7 7 6 7 8 7 7 7 7 7 7 7 7 7 7 7 7 7 7 7 7 7 7 7 7 7 8 7 8 7 7 7 7 7 7 7 7 7 7 7 7 7 7 7 7 7 7 7 7 7 7 7 7 7 7 7 7 7 7 7 7 8 7 7 8 7 7 7 7 7 7 7 7 7 7 7 7 6 7 7 8 7 7 7 7 7 8 7 7 8 7 7 7 7 7 7 7 7 7 7 7 7 7 7 7 7 7 6 7 7 7 6 7 6 7 7 7 7 7 7 7 7 7 7 7 7 7 7 7 7 7 7 7 8 7 7 6 7 7 7 7 6 7 6 7 7 7 7 7 6 6 7 7 6 7 7 7 7 6 7 6 6 7 7 6 6 6 7 7 7 6 6 7 6 6 7 6 6 6 7 6 6 6 7 6 7 6 6 7 6 7 7 7 6 6 6 7 6 6 6 6 6 7 6 6 7 7 6 7 6 6 7 6 7 6 6 6 6 6 7 7 6 6 6 7 6 6 6 6 6 6 6 6 6 6 6 6 6 6 6 6 6 6 6 6 6 6 7 6 6 7 6 5 5 6 7 5 6 6 6 6 6 5 6 6 6 6 6 6 6 6 5 6 6 6 6 6 6 6 6 6 6 6 5 6 6 6 5 6 6 5 6 5 0 
5 5 5 5 6 6 5 6 5 5 5 5 5 5 6 5 5 5 5 6 5 5 5 5 5 6 6 5 5 6 5 6 6 5 5 5 6 5 5 5 6 5 6 5 5 5 6 5 6 6 5 5 6 6 6 5 6 5 6 5 6 6 6 6 6 6 5 6 6 6 6 6 6 6 6 6 5 6 5 6 6 6 5 6 6 6 6 5 6 6 5 5 7 5 6 6 5 5 5 5 6 6 6 6 6 6 6 6 6 6 6 6 6 5 5 6 6 6 6 6 6 6 6 6 5 6 6 6 6 7 6 6 6 6 6 6 5 6 6 6 6 7 6 6 6 6 6 7 5 6 7 6 6 6 6 6 6 6 6 6 6 7 7 6 6 7 6 7 6 6 7 6 6 7 7 6 6 6 6 7 6 6 6 6 6 7 7 6 6 7 7 6 6 6 6 6 6 7 6 6 6 7 6 6 6 6 7 6 7 6 7 6 6 7 6 7 6 7 6 7 6 7 6 6 6 6 6 7 7 6 6 7 7 7 7 7 7 7 7 7 7 7 8 7 7 7 7 7 7 7 7 7 6 7 7 7 7 6 7 7 6 7 6 7 7 6 7 7 8 7 7 7 7 6 6 7 7 7 7 7 7 6 7 7 7 7 7 7 7 7 7 7 7 7 7 7 7 8 7 7 7 7 7 7 7 7 7 7 7 7 7 7 7 7 7 7 7 8 7 7 8 7 7 7 7 7 7 7 7 7 7 8 7 7 7 6 7 7 7 7 7 7 7 8 7 7 7 8 7 7 7 7 7 7 7 7 7 7 7 7 7 7 8 7 7 7 7 7 7 7 7 7 7 7 6 7 7 8 7 7 7 7 7 7 7 7 7 7 8 7 7 8 7 7 7 7 8 7 7 7 7 7 7 7 7 7 7 7 7 8 7 7 7 7 7 7 7 7 7 8 7 7 7 7 7 7 7 7 6 7 7 7 7 6 7 7 7 7 7 7 6 7 7 7 6 7 7 7 7 6 7 6 7 7 7 7 7 7 7 7 7 7 7 7 7 7 7 7 7 6 7 6 6 7 6 7 6 7 7 7 7 7 7 6 6 7 7 6 6 7 6 7 7 6 7 7 6 6 7 7 6 6 6 6 6 7 6 6 6 6 6 7 6 6 6 6 6 7 6 6 7 7 6 6 6 6 5 5 6 6 6 6 6 6 7 6 6 6 6 6 6 7 6 6 6 6 6 6 6 6 6 5 6 6 6 6 6 6 6 6 6 6 6 6 6 6 6 6 6 6 6 6 6 6 6 6 6 6 5 6 6 6 6 5 6 5 6 5 6 6 5 5 6 6 5 5 6 5 6 0 
5 6 5 5 6 5 5 5 5 5 5 5 5 5 5 5 5 6 6 5 5 5 5 5 6 5 5 5 6 5 5 6 5 6 5 5 6 6 5 6 6 5 6 6 6 5 5 6 5 6 5 5 6 6 6 6 5 5 6 5 6 6 5 6 6 5 5 6 6 6 6 6 6 6 6 6 6 6 6 6 6 6 6 6 6 6 6 6 6 6 6 5 6 6 6 6 6 6 5 5 5 6 6 6 6 7 6 5 6 6 6 6 6 6 6 6 6 6 6 6 6 6 6 6 7 6 6 6 6 6 6 6 6 5 6 6 6 6 6 6 7 5 6 6 6 6 6 6 6 6 7 6 5 6 6 6 7 6 6 6 6 6 6 6 7 7 7 6 6 6 6 6 6 6 6 6 7 7 6 6 6 6 6 6 6 6 7 7 6 6 7 6 6 6 7 6 7 6 7 7 6 6 7 7 6 6 7 7 7 6 6 6 7 6 7 7 7 7 7 7 7 6 7 6 7 7 6 7 6 6 7 7 6 7 7 7 7 7 6 6 7 7 8 7 7 7 7 7 7 7 7 7 7 7 7 7 6 7 7 7 7 7 7 7 7 7 7 7 7 7 7 7 7 7 7 7 7 7 7 7 7 7 7 7 7 7 7 7 7 7 7 7 7 7 6 7 7 7 7 6 7 7 7 7 8 7 7 7 7 7 7 7 7 7 7 7 7 7 7 7 7 7 7 8 7 7 7 7 7 7 7 7 6 7 7 7 7 7 7 7 7 7 8 7 7 8 7 6 7 8 7 7 8 7 8 7 7 7 7 7 7 7 7 7 7 7 7 7 7 7 8 7 7 7 7 7 7 8 7 7 8 7 7 8 8 7 7 8 7 7 8 7 7 7 7 8 8 7 7 7 7 7 7 7 7 7 8 7 7 7 7 7 7 7 7 7 7 7 7 7 7 7 7 7 7 7 7 7 6 6 7 7 7 7 6 7 7 6 6 7 7 7 6 6 7 7 7 6 6 7 7 7 7 6 7 7 7 7 7 7 7 7 6 7 6 7 7 7 7 7 7 6 7 7 6 6 6 6 7 6 7 7 7 7 6 6 6 6 6 7 7 6 6 7 7 7 6 6 7 6 6 7 6 6 6 7 6 6 7 6 6 6 6 7 6 6 6 7 6 6 6 6 6 6 6 6 6 7 6 6 6 6 6 6 6 6 6 6 6 6 6 6 6 6 6 6 6 6 6 6 6 7 6 6 6 5 6 6 6 6 6 6 6 6 6 6 6 6 6 6 5 5 6 6 6 6 6 6 6 6 6 6 6 6 6 6 6 6 6 6 6 6 5 6 6 6 6 5 6 0 
5 5 5 6 5 5 5 6 5 5 5 5 6 5 5 6 5 6 5 6 5 5 5 6 6 6 5 5 6 6 6 5 5 5 5 6 6 6 6 5 6 5 5 5 6 6 6 5 5 6 6 6 6 6 6 6 6 5 6 6 6 5 5 6 6 5 5 6 6 6 5 5 6 5 6 5 6 6 5 6 6 5 6 6 6 6 6 6 6 6 6 6 6 5 6 6 5 6 6 5 6 6 6 5 5 6 6 6 6 5 6 6 6 5 5 6 6 6 6 6 6 6 6 6 6 7 6 6 6 6 6 6 7 6 6 6 6 6 6 6 6 6 6 6 6 6 6 6 6 6 6 6 6 6 6 6 7 6 6 6 6 6 6 6 6 6 6 6 6 6 6 6 6 7 6 6 7 6 7 6 6 6 7 6 7 6 7 7 7 6 6 6 6 7 6 7 6 7 6 6 7 7 7 7 6 7 7 6 6 7 7 7 6 6 7 6 6 7 6 7 6 6 7 6 7 7 7 7 7 6 7 7 6 6 7 7 7 7 7 7 7 7 7 7 7 7 7 7 7 7 7 7 7 7 7 7 6 7 7 7 7 7 7 6 7 7 8 6 7 7 7 7 7 7 7 6 7 7 6 7 7 7 7 7 7 7 7 7 7 7 7 7 7 7 7 7 7 7 7 7 7 7 7 8 7 7 8 7 7 7 7 8 7 7 8 7 8 7 7 8 7 8 8 7 7 7 7 7 7 7 7 8 7 7 7 7 8 7 7 7 7 8 7 8 7 7 8 7 7 7 7 7 7 7 7 6 7 7 8 7 7 7 7 7 7 8 7 7 8 8 7 7 7 7 7 7 8 7 7 7 8 7 7 8 7 8 8 7 7 7 7 8 6 7 6 7 7 7 7 7 7 7 7 7 7 7 7 7 7 8 7 7 7 7 7 7 7 7 7 7 7 7 6 7 7 7 7 7 7 7 7 7 7 7 7 7 7 7 7 7 7 7 7 6 6 7 7 6 7 7 7 7 7 7 7 7 7 7 7 6 7 7 6 6 7 6 7 7 7 7 7 6 7 7 6 7 7 6 7 7 6 7 7 6 6 6 7 7 7 7 6 6 6 7 6 7 6 6 7 6 7 6 7 7 7 6 6 7 6 6 7 7 6 6 6 6 6 6 6 6 6 6 6 7 6 7 6 6 6 6 6 7 6 6 6 6 6 6 6 6 6 6 6 6 5 6 5 6 7 6 6 6 6 6 6 6 6 6 6 6 5 6 6 5 6 6 6 6 6 6 6 6 6 6 5 6 7 6 5 6 6 5 6 6 6 5 6 6 6 6 6 6 6 6 6 6 6 6 6 0 
5 5 5 5 6 6 6 5 5 6 6 5 5 5 6 6 5 5 5 5 5 5 5 6 5 5 5 6 5 5 5 5 6 5 5 5 6 6 6 6 6 5 5 5 5 6 5 6 6 6 5 6 6 6 5 6 6 6 6 5 6 5 6 5 6 6 6 5 6 5 6 5 6 6 5 6 5 6 6 5 6 6 6 6 6 6 6 5 6 6 6 5 6 6 6 6 6 6 6 6 6 6 5 6 6 6 6 6 6 6 6 6 5 6 6 6 6 6 6 6 6 6 6 6 6 6 6 6 6 6 6 6 6 6 6 5 6 7 6 6 6 6 6 6 5 6 6 6 6 6 6 6 7 6 7 6 6 6 6 6 7 6 6 6 7 7 6 6 6 6 6 6 7 6 6 6 6 6 6 7 7 7 6 6 7 6 7 7 6 7 7 7 6 6 7 6 6 7 6 6 7 7 6 7 6 6 7 7 7 7 7 6 6 7 7 6 7 7 6 7 6 7 7 7 6 7 7 7 6 6 7 7 7 7 7 7 7 6 7 7 6 7 7 7 7 7 7 7 7 7 7 7 7 7 7 7 7 7 7 7 7 7 6 7 7 7 7 6 6 7 7 7 7 7 7 8 7 7 7 7 7 7 7 7 7 7 7 7 7 7 7 7 7 7 7 7 7 7 7 7 7 8 7 7 7 7 8 8 8 7 7 8 7 8 7 7 7 7 7 7 7 7 7 7 8 7 7 7 7 7 7 8 7 7 7 6 7 7 7 7 7 7 7 7 7 8 7 8 7 7 8 8 7 7 7 7 8 7 7 7 8 8 7 8 8 7 7 7 7 7 7 8 7 7 7 7 7 7 8 7 7 7 7 7 8 7 7 7 8 7 7 7 7 8 7 7 7 7 7 7 7 7 7 7 7 7 7 7 7 7 7 6 7 8 7 7 7 7 7 7 7 7 7 7 7 7 7 7 7 7 7 7 7 7 7 7 7 7 7 7 7 7 6 7 7 7 7 7 7 7 6 7 7 7 7 7 7 7 7 7 7 7 7 6 7 7 6 7 7 6 7 7 7 7 7 6 7 6 7 7 6 7 7 7 7 7 6 7 6 7 7 7 7 6 7 6 6 7 6 6 7 6 7 6 6 6 7 6 6 6 6 6 6 6 6 6 7 6 6 6 6 6 6 7 6 6 7 7 6 6 6 6 6 6 6 6 6 6 6 5 6 6 6 6 6 6 6 6 6 6 6 6 6 6 6 5 6 6 6 6 6 6 7 6 6 6 6 6 6 6 6 5 5 6 6 6 6 6 6 6 5 6 5 6 5 6 6 6 5 6 5 6 6 6 5 6 6 6 6 0 
5 6 5 5 5 5 5 6 5 6 6 5 6 6 5 5 6 5 5 5 5 6 6 6 6 5 6 5 5 5 6 5 6 5 6 6 6 5 6 5 6 5 5 6 6 6 5 6 5 6 6 5 5 5 6 5 6 6 6 6 6 5 6 6 6 5 6 6 5 6 6 7 5 5 6 6 6 5 6 6 6 5 6 6 6 5 6 6 6 6 6 6 6 6 6 6 6 6 6 6 6 5 6 6 6 6 6 6 6 6 6 6 6 6 6 6 6 6 6 6 6 6 7 6 6 6 6 7 6 6 6 6 6 6 6 6 6 6 6 6 6 6 6 6 6 6 6 6 6 6 6 6 6 7 7 7 6 6 6 6 6 6 6 6 6 6 6 7 6 6 6 6 6 6 6 6 6 6 7 6 6 6 6 6 6 6 6 7 7 6 7 7 6 6 7 6 7 7 7 7 7 6 7 7 7 7 7 7 7 6 6 7 7 6 8 7 7 7 7 7 6 7 7 6 6 7 7 7 7 7 7 7 7 6 7 7 6 6 6 7 6 7 7 7 7 7 7 7 7 7 7 7 7 7 7 7 7 7 7 7 7 8 7 7 7 7 7 7 8 7 6 7 7 7 7 7 7 7 8 7 7 7 6 7 7 8 7 8 7 7 7 7 7 8 7 7 7 7 7 8 8 8 7 7 7 7 8 7 7 7 7 7 7 8 8 7 8 8 7 7 7 7 7 7 7 7 8 6 7 7 7 8 7 7 7 7 7 8 7 8 7 7 7 6 8 7 7 7 7 7 7 7 7 7 7 7 7 7 7 7 7 7 7 7 8 8 7 8 7 7 8 7 7 7 6 7 8 8 7 8 7 7 6 7 8 7 7 8 7 7 7 8 8 7 7 7 7 7 7 8 8 7 7 7 7 7 8 7 7 7 7 7 8 7 7 7 7 7 7 7 8 7 7 7 7 7 7 7 6 7 7 7 7 7 7 7 7 7 7 7 7 7 7 7 7 7 7 6 6 7 7 7 7 7 7 7 7 7 7 7 6 6 7 7 7 7 7 7 6 7 7 7 7 6 7 7 7 6 7 7 6 7 7 7 6 6 7 6 7 6 7 6 7 7 6 6 6 7 7 6 6 7 6 7 6 7 6 7 6 6 7 7 6 7 6 6 6 6 6 7 7 6 7 6 6 6 6 6 6 6 6 6 6 6 6 6 6 6 6 6 6 6 6 6 6 6 7 6 7 6 5 6 7 6 6 6 6 6 6 6 6 6 6 5 5 6 6 6 6 6 6 6 6 6 6 7 6 6 7 6 6 6 6 6 6 6 6 6 6 5 5 6 6 5 6 6 6 6 6 0 
6 5 5 5 5 5 5 5 6 4 5 6 6 5 5 6 5 5 5 5 5 5 5 6 5 5 6 5 5 5 5 5 5 5 6 5 6 5 6 5 6 5 6 6 6 5 5 5 5 5 6 5 6 5 6 5 6 6 6 6 6 6 6 6 5 5 6 6 5 6 6 6 6 6 6 6 6 5 6 5 6 6 6 6 6 6 6 5 6 6 6 6 5 6 6 6 6 6 6 6 6 6 6 6 6 6 6 6 6 6 6 6 6 6 6 6 6 6 6 6 6 6 6 6 6 6 6 6 6 6 6 6 6 6 6 6 6 7 6 6 6 6 6 6 6 6 6 6 6 6 7 6 6 6 7 6 6 6 7 6 6 6 6 6 7 6 7 7 6 7 6 6 7 6 6 7 6 6 6 6 7 6 6 7 7 7 6 7 7 6 7 7 7 6 7 6 7 6 6 7 6 6 7 7 6 6 7 6 7 6 6 7 7 7 7 6 6 7 6 7 7 7 7 7 7 7 6 6 6 6 6 7 7 6 7 7 6 6 8 7 7 7 8 7 8 7 6 7 6 7 6 7 6 6 7 7 7 7 8 6 7 7 7 7 7 7 7 7 7 7 7 7 7 7 7 7 7 7 7 7 7 7 7 7 7 7 6 7 8 7 7 7 8 7 7 7 8 8 7 7 7 7 7 7 7 8 7 7 7 8 7 7 7 7 7 7 8 7 8 8 7 7 7 7 8 7 8 7 8 8 7 8 8 7 7 7 7 7 7 7 7 9 7 7 8 7 8 7 7 8 7 7 7 7 7 8 7 7 7 8 7 7 7 7 7 8 8 7 7 7 7 7 7 8 8 7 7 8 8 7 7 7 7 7 8 7 7 7 7 8 8 7 7 7 7 7 8 8 6 7 8 7 8 7 7 8 7 7 7 7 7 7 7 7 7 7 6 7 7 6 7 8 7 7 7 7 7 7 6 7 7 7 7 6 7 7 7 7 7 6 7 7 7 7 6 7 6 7 7 7 7 7 7 7 7 7 7 7 7 7 7 7 7 7 7 6 6 7 7 6 7 7 7 7 7 6 7 7 6 7 6 7 7 6 7 7 7 6 6 6 7 7 7 6 6 6 7 6 6 6 7 7 7 6 6 6 6 6 7 6 6 5 6 6 6 6 6 6 6 6 7 6 7 6 6 7 6 7 6 6 6 6 6 6 6 6 7 7 6 7 6 6 6 6 5 6 6 6 6 6 6 6 6 6 6 6 6 6 7 6 6 6 6 6 6 5 6 6 6 5 6 6 6 5 6 6 6 6 6 6 6 6 6 6 6 5 6 5 6 6 6 5 6 5 5 6 5 5 6 0 
5 5 5 6 6 6 5 5 5 5 5 5 6 5 6 5 5 5 6 5 5 6 6 5 5 5 5 5 5 6 5 6 6 6 6 5 6 6 5 6 5 6 5 5 5 6 5 5 5 6 6 6 5 5 5 6 6 6 5 6 5 6 6 6 6 6 6 6 5 6 6 5 6 6 6 6 6 5 5 6 6 6 6 6 5 6 6 6 6 6 6 6 6 5 6 6 6 6 6 6 6 6 6 6 6 6 6 6 6 6 6 6 6 6 6 6 6 6 6 6 6 6 5 6 6 6 5 6 7 6 6 6 6 6 6 6 6 6 6 6 6 6 6 6 6 6 6 6 7 6 7 6 6 7 6 7 6 6 6 6 6 6 6 6 6 6 6 6 6 6 7 6 6 6 6 6 6 7 6 7 6 6 6 7 6 6 7 7 6 7 6 7 7 7 6 7 7 7 7 7 7 6 6 7 6 6 7 7 7 6 7 7 7 7 6 7 6 7 7 7 6 7 7 6 6 7 7 7 7 7 7 7 6 6 7 7 7 7 7 7 7 8 7 7 6 7 7 7 7 7 7 7 6 7 7 7 7 7 7 8 7 7 7 7 7 7 7 7 7 6 7 7 7 7 7 7 7 7 8 8 7 7 7 7 7 7 7 7 7 7 7 7 8 7 7 7 7 7 7 7 7 7 8 7 7 7 7 7 8 7 8 7 7 7 7 8 7 7 8 7 7 7 7 7 8 7 8 7 8 8 8 7 7 7 7 7 7 7 7 8 8 7 7 7 7 8 8 7 7 8 8 8 8 7 7 7 8 7 8 7 8 7 8 7 7 7 7 8 7 7 8 7 8 8 7 7 8 8 7 7 8 7 7 7 7 8 8 7 7 8 7 7 7 7 7 7 7 7 7 7 7 8 7 7 7 7 7 7 7 8 7 7 7 7 6 7 7 7 8 8 7 7 7 7 7 7 7 7 7 7 7 7 8 7 7 7 7 7 7 7 7 7 7 7 7 7 7 7 7 7 7 7 7 7 7 7 7 7 7 7 6 7 7 6 7 7 7 7 7 7 7 6 6 7 7 7 6 7 6 7 6 6 7 7 6 6 6 6 6 7 6 7 7 7 6 6 7 7 6 7 7 6 7 6 7 6 7 6 6 6 6 6 7 6 6 6 6 6 6 7 6 6 6 6 6 6 7 7 6 6 7 6 6 6 6 6 6 6 6 7 6 6 6 6 7 6 6 6 5 6 6 6 6 6 6 6 6 6 6 5 6 6 6 7 7 6 6 6 6 6 5 6 6 6 5 5 6 6 6 6 6 6 5 6 5 5 5 5 6 5 6 6 6 6 6 6 6 6 6 0 
6 5 5 6 5 5 5 6 5 5 5 6 5 5 6 5 6 6 6 5 5 5 5 5 6 5 6 5 6 5 5 5 6 5 5 5 6 5 5 6 5 6 6 5 5 5 6 6 5 5 5 6 6 6 5 6 6 5 6 6 5 6 5 6 6 5 6 6 6 6 6 5 6 5 5 6 6 6 5 6 6 5 5 6 6 6 6 6 6 6 5 6 6 6 6 5 6 5 6 6 6 6 6 6 6 6 6 6 6 6 6 6 6 6 6 6 6 6 6 6 7 6 5 6 6 6 6 6 7 6 6 6 6 6 6 6 6 6 7 6 6 6 6 6 6 6 6 6 7 6 6 6 6 6 6 7 6 6 6 6 6 6 6 7 6 6 7 7 6 7 7 7 6 6 7 6 6 6 7 7 7 6 7 6 6 6 6 6 6 7 6 7 7 7 6 7 6 7 7 7 6 7 6 7 7 7 7 6 7 7 7 7 6 7 7 7 7 6 7 7 7 7 7 7 7 7 7 6 7 7 7 7 6 7 7 7 6 7 7 7 7 7 7 7 7 7 7 7 8 7 6 7 7 7 7 7 7 7 7 7 7 6 7 7 7 7 7 7 7 7 7 7 7 7 7 7 7 7 6 7 7 7 7 8 7 7 7 7 7 8 8 7 7 7 8 7 7 7 7 7 7 8 7 7 7 7 7 7 7 7 8 7 7 7 7 7 8 7 7 8 7 6 7 8 8 7 7 7 7 8 8 7 7 7 7 7 7 7 7 8 7 7 7 8 7 7 7 8 7 8 8 7 7 8 8 7 8 8 7 8 8 8 8 7 7 8 7 7 7 8 8 8 7 7 7 7 7 7 8 7 7 7 7 7 7 7 7 7 7 8 8 8 8 7 7 7 7 7 7 7 8 7 7 7 7 7 7 7 7 8 7 7 7 7 7 7 7 7 7 8 7 7 8 7 7 7 7 7 7 7 6 7 8 7 7 7 7 8 7 7 7 7 7 7 7 8 7 7 7 7 7 7 7 7 7 7 7 7 7 6 7 7 6 7 7 7 7 7 6 6 7 6 6 7 7 7 7 7 7 6 7 7 6 7 7 7 7 7 7 7 7 7 6 7 6 7 6 7 6 6 7 6 7 7 7 6 7 7 7 7 6 7 7 6 6 6 6 6 6 6 7 6 6 6 6 7 6 6 6 6 6 6 7 6 6 6 6 6 6 6 6 6 6 6 6 6 6 6 6 6 6 6 6 6 6 6 6 6 6 6 6 5 6 6 6 6 6 6 6 6 6 6 6 5 5 6 6 6 6 5 6 5 6 6 6 6 6 6 6 6 6 6 6 6 6 6 5 6 6 0 
5 5 5 5 5 5 5 5 5 6 6 5 5 5 5 5 5 6 5 6 6 5 5 6 5 5 6 6 6 5 6 5 6 5 6 6 5 5 6 5 5 6 6 6 6 6 5 6 5 6 6 5 6 6 6 5 5 5 6 6 5 6 5 6 6 5 6 6 6 6 6 6 6 6 6 6 6 6 6 6 6 5 6 6 6 6 5 6 6 6 6 6 6 6 6 6 6 6 6 6 6 6 7 6 6 6 6 6 6 6 6 6 6 6 6 6 6 6 6 6 5 6 6 6 6 6 6 6 6 6 6 6 6 6 6 6 6 6 7 6 6 7 6 6 6 6 7 6 6 6 6 6 6 6 6 6 6 6 6 6 6 7 6 6 6 6 7 6 6 6 7 7 7 6 6 7 6 7 6 6 7 6 7 6 7 6 7 7 6 6 6 6 6 7 6 6 6 6 6 7 7 7 6 6 7 7 6 7 7 7 7 7 6 6 6 6 7 7 7 7 7 7 7 7 7 7 6 7 7 7 7 7 7 7 7 7 6 7 7 7 7 7 6 7 7 7 7 7 7 7 7 7 7 6 7 7 7 7 7 7 7 7 8 7 8 7 7 7 7 7 7 7 7 8 7 7 7 7 8 7 7 7 7 7 7 7 7 7 7 7 7 7 8 7 7 7 7 7 7 7 7 7 8 7 7 7 7 7 7 7 7 8 7 7 8 7 8 8 8 7 7 7 8 8 7 7 7 7 7 7 7 7 8 8 8 8 7 7 8 7 7 8 7 8 7 8 7 8 7 7 7 7 8 8 8 7 7 7 7 8 7 7 7 8 8 8 7 8 7 7 8 7 7 7 7 8 8 7 7 8 8 7 8 7 7 8 7 8 7 7 8 8 8 8 7 7 7 7 7 7 8 7 7 7 8 7 7 7 7 7 8 8 7 7 7 7 7 7 7 7 7 8 8 7 7 7 7 8 8 7 7 7 7 8 7 7 7 7 7 6 7 7 7 7 8 7 7 7 7 7 7 7 6 7 7 7 6 7 6 7 6 6 6 7 6 6 7 7 6 6 7 7 7 7 7 7 7 7 7 7 6 7 6 7 7 7 6 6 7 7 6 7 7 7 6 7 7 6 6 7 6 7 6 7 7 6 7 7 6 6 7 7 6 6 6 6 6 6 6 7 6 6 6 6 6 7 6 6 6 6 6 6 6 6 6 6 6 6 6 6 6 6 6 6 6 6 6 7 6 6 6 6 6 6 6 6 6 6 6 6 6 6 6 6 6 6 6 6 6 6 6 6 6 6 6 5 6 6 6 6 6 6 6 6 6 5 6 6 6 6 6 6 6 6 6 5 6 6 6 0 
6 6 5 6 5 5 5 5 5 5 5 5 6 5 6 5 5 6 5 5 5 6 6 5 6 6 6 5 5 6 6 5 5 6 6 6 6 5 6 5 5 5 6 6 5 5 6 6 5 5 6 5 6 5 6 5 5 6 6 5 6 5 6 6 6 5 6 5 6 6 6 6 6 5 6 6 5 6 5 6 6 6 6 6 5 5 6 6 6 6 6 5 5 6 6 6 6 5 6 6 6 6 6 6 6 6 6 6 6 6 6 6 6 6 6 6 6 6 6 6 6 6 6 7 6 6 6 6 6 6 7 6 6 6 6 6 6 6 6 6 6 6 6 7 6 6 6 6 6 7 6 7 6 6 6 6 7 6 6 7 6 6 6 6 5 6 6 7 7 7 7 7 6 6 6 6 6 7 6 7 6 6 6 6 7 6 6 6 7 6 6 7 6 7 6 7 7 6 6 7 7 7 6 7 7 7 7 7 6 7 7 7 6 6 7 6 7 6 7 6 7 7 7 7 7 7 7 6 7 7 7 7 7 6 7 7 7 7 7 6 7 6 7 6 7 7 7 6 8 7 8 7 7 8 7 7 7 7 7 8 7 7 7 7 7 7 7 8 7 7 7 8 7 7 7 7 7 7 7 7 7 7 6 7 7 8 7 7 8 7 7 8 8 7 7 7 7 7 8 7 7 7 7 7 7 7 7 8 7 7 7 8 7 7 8 7 7 7 7 7 8 7 7 8 7 8 8 7 7 8 8 7 7 8 8 8 8 8 7 8 7 8 7 8 7 8 7 7 7 7 7 7 7 7 7 8 8 8 7 7 8 7 7 7 8 8 7 7 8 7 7 7 8 8 7 7 7 7 7 7 7 7 7 8 8 7 8 8 7 7 7 7 7 8 8 7 7 7 7 7 7 7 7 8 7 7 8 7 7 8 7 7 8 8 8 8 7 7 7 7 8 7 7 8 8 7 7 7 7 7 7 7 8 7 7 7 7 7 7 7 7 7 7 7 7 7 7 7 7 7 7 7 7 7 6 6 7 6 7 7 7 6 6 7 7 7 7 7 6 7 7 7 6 7 7 7 7 7 7 7 6 7 7 7 7 6 7 7 6 7 7 7 6 7 6 7 7 6 6 6 7 7 6 6 7 6 7 6 6 6 6 6 7 6 6 6 7 6 6 6 6 6 6 6 7 6 6 6 6 6 6 6 7 6 7 6 6 6 6 6 6 7 6 6 7 6 6 6 6 6 6 6 6 6 5 6 6 6 6 6 6 6 6 6 6 6 7 6 6 6 6 6 6 6 6 6 6 6 6 6 6 6 6 6 7 6 6 6 6 6 6 6 6 6 6 5 6 6 6 0 
5 6 5 5 6 5 5 6 5 5 5 6 5 6 5 5 5 6 5 5 5 6 5 6 6 5 6 6 6 6 5 6 5 5 6 5 5 6 5 5 5 5 6 6 5 6 5 5 6 5 6 5 5 6 6 5 6 5 6 6 5 5 5 6 6 6 6 5 5 6 6 6 6 6 6 6 6 5 6 6 6 6 6 6 6 5 5 6 5 6 6 6 6 5 6 6 6 6 6 6 6 5 6 6 6 6 6 6 6 6 5 6 6 6 6 6 6 6 7 6 6 6 6 6 6 6 6 6 6 6 6 6 5 6 6 6 6 6 6 7 7 6 6 6 6 6 6 6 6 6 6 6 6 6 7 7 6 6 6 7 6 7 6 6 6 6 6 6 7 6 6 7 6 6 7 6 7 7 6 6 7 6 6 7 7 7 6 7 6 6 7 7 7 7 7 7 6 7 7 7 6 6 7 7 7 6 7 7 7 7 7 6 7 7 7 7 7 7 7 7 7 7 7 7 7 7 7 7 7 7 6 7 8 6 6 7 7 7 7 6 7 7 7 7 7 7 7 7 7 7 6 7 7 7 7 7 7 7 8 7 7 7 7 7 7 7 7 7 7 8 6 7 7 7 6 7 7 7 7 7 7 7 7 8 7 7 7 7 8 7 7 8 7 7 7 7 8 7 7 7 7 7 7 7 7 7 8 8 8 7 7 8 8 8 8 7 7 7 8 8 8 7 7 7 8 8 7 7 8 7 8 8 8 8 8 8 8 7 7 7 7 7 7 7 7 7 7 7 8 8 7 7 8 7 8 8 7 8 7 8 8 7 7 7 8 8 7 8 7 7 8 7 8 7 7 8 8 7 8 8 8 7 7 8 8 7 8 7 7 7 7 7 7 8 7 7 8 7 8 8 7 7 7 7 7 7 7 7 7 7 8 7 7 8 6 7 7 7 8 8 7 7 8 7 7 7 7 7 7 7 7 7 7 7 7 7 8 7 8 7 8 7 7 8 7 7 7 7 7 6 7 7 7 6 7 7 7 7 7 7 6 7 7 6 6 7 7 6 7 7 7 7 6 7 6 7 7 7 7 6 7 7 7 7 6 7 6 7 7 7 7 6 7 7 6 7 6 6 7 7 7 6 7 6 6 6 7 7 7 6 6 6 7 6 6 6 7 6 6 6 6 6 6 7 6 7 6 6 6 7 6 6 6 6 6 6 6 6 6 6 6 6 6 6 6 7 6 6 6 6 6 6 6 6 6 6 6 5 6 7 6 6 6 6 6 5 6 6 6 5 6 6 6 6 6 6 6 6 6 6 6 6 6 6 6 5 6 5 6 6 6 6 6 6 6 6 6 5 6 0 
5 5 5 6 5 5 6 5 5 5 5 5 6 5 5 6 6 6 5 6 5 6 6 6 5 5 5 5 5 6 5 5 5 5 5 6 6 6 6 5 6 6 6 5 6 6 6 6 6 6 5 6 5 6 6 5 6 5 6 6 6 5 6 6 6 6 6 6 6 6 6 5 6 6 6 5 6 6 6 6 6 5 6 6 6 6 6 6 6 6 6 6 6 5 6 6 6 6 6 6 6 6 6 6 6 6 6 6 6 6 6 5 6 6 6 6 6 6 6 6 6 6 6 6 5 6 6 6 6 6 6 6 7 6 5 6 6 6 6 6 6 6 6 6 6 6 6 6 6 6 6 6 6 6 6 6 6 7 6 6 6 6 6 7 6 7 7 6 7 6 6 6 6 6 7 6 7 7 6 7 7 7 6 7 7 6 7 6 6 6 7 6 6 7 7 7 7 7 7 7 7 6 7 7 6 6 6 7 7 7 7 7 6 7 7 7 7 7 7 7 6 7 7 7 7 7 6 7 7 7 7 8 7 6 7 7 7 6 7 7 7 7 7 7 7 7 7 7 7 7 7 7 7 8 7 7 7 7 7 7 7 7 7 7 7 7 7 7 8 7 7 8 7 7 8 8 7 7 7 7 7 8 8 7 8 7 7 7 8 7 7 7 7 7 7 8 8 7 7 8 7 8 8 8 7 8 7 8 7 7 7 7 7 7 8 7 7 7 8 7 8 7 8 8 8 8 8 8 7 8 8 8 7 8 7 7 7 7 7 8 8 8 7 8 7 8 8 8 8 8 7 7 7 7 7 8 7 7 8 8 8 7 8 8 7 7 8 8 7 7 8 8 8 8 7 7 7 8 8 7 7 7 8 7 7 7 8 7 8 7 7 7 8 8 8 8 7 8 8 7 7 7 7 7 8 8 7 8 7 7 7 7 7 7 7 7 8 8 7 7 7 8 7 8 7 7 7 7 7 7 7 7 7 8 7 7 7 7 7 7 7 6 7 7 8 7 8 7 7 8 7 7 6 7 7 7 7 7 6 7 7 7 7 7 7 7 7 7 7 6 7 7 6 6 7 6 6 6 7 7 6 6 7 6 7 7 7 7 6 7 6 7 7 7 6 7 7 7 7 7 7 7 7 6 6 7 7 6 6 6 7 6 7 7 7 6 6 6 6 7 7 6 7 7 6 7 6 6 6 6 7 6 6 6 7 6 6 6 6 6 6 7 6 7 6 6 6 6 6 7 6 6 6 6 6 7 6 6 6 6 6 6 6 6 6 6 7 6 6 6 6 6 6 6 7 6 6 6 6 6 6 6 6 6 6 6 6 6 5 6 6 6 5 6 6 6 6 6 6 0 
5 5 5 6 5 6 5 5 5 5 5 6 5 6 6 6 5 6 6 5 5 6 5 5 5 6 6 6 6 6 5 6 5 6 6 6 5 5 6 5 5 6 5 6 5 6 6 6 6 6 6 6 6 6 6 6 6 6 6 6 6 5 5 6 6 6 6 6 6 6 6 5 6 6 6 6 6 6 5 6 6 6 6 6 6 7 6 6 6 6 5 6 6 5 5 5 5 6 6 6 6 6 6 6 6 6 6 6 7 6 6 6 6 6 6 6 6 6 7 6 6 6 7 6 6 6 7 6 6 6 6 6 6 6 7 5 7 6 6 6 7 6 6 6 6 7 6 6 6 6 6 6 7 6 7 6 6 7 7 6 6 6 6 7 6 6 7 6 6 7 6 6 6 7 6 7 7 7 7 7 7 6 7 6 7 7 7 6 6 7 6 7 6 6 7 7 6 7 7 6 6 6 6 7 7 7 7 7 7 7 7 7 6 7 7 7 7 7 6 6 7 7 7 7 7 7 7 7 7 7 7 7 7 6 7 7 7 7 7 7 6 7 7 7 7 7 7 7 7 8 7 8 7 7 8 8 8 7 7 7 7 7 7 7 7 7 7 7 7 7 7 7 7 7 8 7 7 7 7 8 7 8 8 8 8 7 8 7 8 7 7 7 7 7 7 8 7 8 8 7 7 7 8 8 7 7 7 7 8 7 7 7 8 8 8 8 7 7 8 8 8 8 7 8 7 7 7 7 8 8 7 8 8 8 7 7 8 8 7 7 7 7 7 8 8 7 8 8 8 8 8 7 8 7 8 7 7 8 7 8 8 8 8 8 7 7 7 8 7 8 7 8 8 7 8 8 8 7 7 7 7 7 8 7 7 8 8 7 7 7 7 8 8 8 7 8 8 8 8 8 8 8 8 7 8 7 7 8 7 7 8 8 7 7 7 7 7 7 8 7 7 8 7 6 7 7 7 8 7 7 7 7 8 7 7 7 7 7 7 6 7 7 7 7 7 7 7 7 7 8 7 7 7 7 7 7 6 7 7 7 7 7 7 7 6 8 6 7 7 7 7 6 6 7 7 6 8 7 6 6 7 7 7 6 6 7 7 6 7 7 7 7 7 6 6 6 6 6 6 7 7 7 7 6 7 7 7 6 6 7 7 6 7 7 6 6 7 6 6 6 7 7 7 6 6 6 6 6 6 7 7 6 7 6 6 6 7 6 6 6 6 7 6 6 6 6 6 6 6 6 6 6 6 6 6 6 6 6 6 6 6 6 6 6 6 6 6 6 6 7 6 6 6 6 6 6 6 6 6 6 6 5 6 6 6 6 6 5 6 6 6 6 6 6 5 6 6 6 6 0 
5 6 5 6 5 6 5 5 5 5 6 6 6 5 6 5 5 5 5 5 5 6 6 5 5 6 5 6 5 6 5 6 6 5 5 5 6 6 5 6 6 5 6 6 6 6 6 6 5 5 6 6 5 6 5 6 5 5 6 5 5 6 6 6 6 5 6 6 6 6 6 6 6 6 6 6 6 6 5 6 6 6 6 6 5 6 6 6 6 5 6 6 6 6 6 6 6 6 5 6 6 6 6 6 6 6 6 6 6 6 6 6 6 6 6 6 6 6 6 6 6 6 6 6 6 6 6 7 6 6 7 6 6 6 6 6 6 6 6 6 6 6 7 6 6 6 6 6 6 6 6 7 6 6 6 6 6 6 6 6 7 7 7 6 6 6 6 6 7 6 6 6 7 6 7 7 6 7 7 7 7 6 7 6 7 7 7 6 6 6 7 7 7 7 7 7 7 7 7 6 6 6 6 7 6 6 7 7 7 7 7 6 7 7 7 7 7 7 6 7 7 7 7 7 7 8 6 7 7 7 6 7 7 7 7 7 7 7 7 7 7 8 7 8 7 7 7 6 7 7 7 7 7 7 7 7 7 7 7 7 7 8 7 7 7 7 7 8 7 7 7 7 7 7 7 7 7 7 7 8 7 7 7 8 7 7 7 7 7 8 7 8 7 7 8 7 8 7 8 7 7 7 8 7 7 8 8 7 8 7 8 7 7 8 7 8 8 7 7 7 7 8 7 7 7 7 8 8 8 7 7 7 7 7 7 8 8 7 7 8 8 7 8 7 8 8 8 8 8 8 8 8 7 7 8 7 7 8 8 8 7 8 8 8 8 8 8 7 8 8 7 7 8 8 7 7 7 8 8 8 8 8 8 7 8 8 8 7 8 7 8 8 8 8 7 7 7 8 7 8 7 8 7 8 8 7 8 7 7 8 8 7 7 8 7 7 7 8 8 8 7 7 7 7 7 7 7 7 7 7 7 8 7 7 7 7 7 7 7 7 7 7 8 7 7 7 7 8 8 7 7 7 7 7 7 7 7 7 7 7 7 7 7 7 7 7 7 7 7 7 7 7 7 7 7 7 7 6 7 6 7 7 7 7 6 6 7 6 7 6 7 6 6 6 7 7 7 6 6 6 6 7 6 7 6 7 6 6 7 7 6 7 7 7 7 6 6 6 7 6 7 7 6 6 7 6 6 6 6 6 6 6 6 6 6 6 6 6 6 7 6 6 6 7 6 6 6 6 6 6 6 6 6 6 6 6 6 6 6 6 7 6 6 6 6 6 6 6 6 6 6 5 6 6 6 6 6 6 6 6 6 6 6 6 6 5 6 6 6 6 5 6 6 6 5 6 6 6 6 0 
5 6 5 5 6 5 5 5 5 5 5 6 6 5 5 6 6 5 5 5 5 5 6 5 6 6 5 6 5 6 6 5 5 5 5 5 6 6 5 5 6 6 6 6 6 6 7 5 5 6 5 6 5 6 6 6 5 5 6 6 6 6 6 6 5 5 5 6 5 6 6 6 5 6 6 6 6 6 6 6 6 6 7 6 7 6 6 6 6 5 6 6 6 6 6 6 6 6 6 6 6 6 6 5 6 6 6 6 6 6 5 5 5 6 6 6 6 6 6 6 6 6 6 6 6 6 6 6 6 6 6 6 7 6 6 6 6 6 6 6 6 6 6 6 6 6 6 6 6 6 7 6 6 6 6 6 6 6 6 6 6 6 6 6 6 7 6 7 6 6 6 6 6 6 7 6 7 6 6 7 6 7 7 7 7 7 7 7 7 6 6 7 7 7 7 6 6 6 7 6 7 6 7 7 7 7 7 7 6 7 7 7 7 7 7 7 7 7 7 7 7 7 7 6 6 7 7 7 7 7 7 7 7 7 7 7 7 7 7 6 7 7 7 7 7 8 7 7 7 8 7 7 7 7 7 7 7 7 7 7 7 7 7 7 7 7 8 7 7 8 8 7 7 7 7 7 7 7 7 7 7 7 7 8 7 8 7 7 7 8 7 8 7 8 7 7 7 7 8 7 8 8 8 7 7 8 7 8 7 8 8 7 8 8 8 8 7 8 8 7 7 7 7 8 8 8 8 8 8 7 8 7 7 8 8 8 8 7 7 7 8 8 7 8 8 8 7 8 8 8 8 8 7 8 8 8 8 8 8 8 8 7 8 8 8 8 8 7 7 8 7 8 8 7 8 8 8 8 8 7 8 8 7 7 8 8 7 8 8 8 7 8 8 8 7 8 7 7 7 7 8 7 7 8 8 7 8 7 8 7 8 7 8 8 7 7 8 8 7 7 7 8 7 7 8 7 7 7 7 7 8 7 7 7 7 7 7 7 8 7 7 8 7 7 7 7 7 7 8 7 7 7 7 8 8 7 7 8 7 7 7 7 7 7 7 7 7 7 6 7 7 7 7 7 7 7 7 7 7 7 6 6 7 7 7 7 6 7 7 7 7 7 6 6 7 6 6 7 7 6 6 7 7 7 6 6 7 7 6 7 6 6 6 6 6 6 7 6 7 6 6 7 7 6 6 7 6 6 7 7 6 7 6 6 7 6 6 6 6 7 6 6 7 7 6 6 6 6 6 6 5 6 6 6 6 7 6 7 6 6 6 6 6 6 6 6 6 6 6 6 6 6 6 6 6 7 6 6 6 6 6 6 6 5 6 6 6 6 6 6 6 5 6 6 6 5 6 6 6 0 
5 5 5 6 6 6 5 5 5 6 5 5 5 6 6 5 5 5 5 5 5 5 5 5 5 5 6 6 5 5 5 6 5 5 5 6 5 6 6 5 5 6 6 5 6 5 6 5 6 6 6 5 6 6 6 6 6 6 6 5 6 6 6 6 5 6 6 6 6 6 6 6 6 5 6 6 6 6 6 5 5 6 6 7 6 6 6 6 6 6 6 6 6 6 6 6 6 6 6 6 6 6 5 6 6 6 6 6 5 6 6 6 7 6 6 6 6 6 6 6 6 6 6 6 6 6 6 6 7 6 6 6 6 7 6 6 6 7 7 6 7 6 6 7 6 6 7 7 7 6 6 6 6 6 6 7 6 7 6 6 6 6 6 6 6 6 7 6 6 7 7 6 6 7 6 6 7 6 6 6 6 7 7 7 6 7 7 7 6 7 6 7 6 7 7 7 6 7 7 7 7 6 7 7 7 6 6 7 6 7 7 7 7 7 7 7 7 7 8 7 7 7 7 7 6 6 7 7 6 8 7 7 7 7 7 7 7 7 7 7 7 8 7 7 7 8 7 7 7 7 7 7 7 7 7 7 7 7 7 7 7 8 7 7 7 7 8 8 7 7 7 8 7 7 7 7 7 7 7 8 7 7 7 8 8 8 8 8 8 7 7 7 7 7 7 7 7 8 8 8 8 8 8 7 7 7 8 8 7 7 7 8 7 7 8 7 7 7 7 7 7 8 7 8 7 8 7 7 7 8 8 8 8 7 8 8 8 8 8 8 7 8 8 8 8 7 8 8 7 8 8 8 7 8 8 8 8 7 7 8 8 8 8 8 8 8 7 8 7 7 7 8 8 8 8 8 7 7 8 7 8 7 8 7 8 8 8 8 7 7 8 8 7 7 8 8 8 8 8 7 7 7 8 8 7 8 8 7 8 8 7 7 7 8 8 7 7 8 7 7 8 7 8 8 8 8 7 8 7 7 8 7 7 7 7 7 8 7 7 7 7 7 7 7 7 7 7 7 7 6 7 7 8 8 7 7 7 7 7 7 7 7 7 7 7 7 7 7 7 7 7 7 7 7 7 6 6 6 7 7 6 6 7 7 7 7 7 7 7 7 7 6 6 7 7 6 6 7 7 6 6 7 6 7 6 7 7 6 7 6 7 7 6 7 7 6 7 7 7 6 7 7 6 6 6 6 6 6 6 7 6 6 6 6 6 5 6 6 7 6 6 6 6 7 6 6 6 6 6 6 6 7 6 6 6 6 6 6 6 6 6 6 6 6 6 6 6 6 6 6 6 6 6 6 6 6 6 7 6 6 6 6 6 6 6 6 6 6 6 6 6 7 6 6 6 6 6 6 5 0 
5 5 5 5 6 6 5 5 5 6 6 5 6 5 5 5 5 6 5 6 6 5 6 5 5 5 6 5 6 5 6 6 6 6 6 5 6 5 6 5 5 6 5 6 6 6 6 6 5 6 5 5 6 6 5 5 6 5 6 6 6 6 6 6 6 6 6 6 6 5 6 6 6 6 6 6 6 6 6 6 5 6 6 6 6 6 6 6 6 6 6 6 7 6 6 6 6 5 6 6 5 6 6 6 6 6 6 7 6 6 7 6 5 6 6 6 5 6 6 7 7 6 6 6 6 6 6 6 6 6 6 6 6 6 6 6 6 6 7 6 6 7 6 7 6 6 6 6 6 6 6 6 7 6 7 7 7 6 6 6 6 7 6 6 7 7 7 6 6 6 7 6 6 6 6 6 6 7 7 7 7 7 6 7 6 6 6 6 6 6 7 7 7 7 7 7 7 7 6 7 6 6 7 7 7 6 7 7 7 7 7 7 7 7 7 7 7 7 7 6 6 7 7 7 7 7 6 7 7 7 7 8 7 7 7 8 7 7 7 7 6 7 7 7 8 7 7 7 7 7 7 7 7 8 7 7 7 7 8 7 7 7 7 7 7 7 7 7 8 7 7 8 7 7 7 8 8 7 7 7 8 7 8 7 7 7 7 8 7 7 8 7 8 7 7 8 7 8 7 7 7 7 8 8 8 8 8 8 8 8 8 7 7 8 7 8 7 8 8 8 8 8 8 7 8 7 7 8 8 8 8 7 8 8 8 8 7 8 7 7 8 7 8 8 8 8 7 8 7 8 7 7 8 7 7 7 8 8 7 8 8 8 8 7 8 7 8 8 7 8 8 8 8 8 8 8 8 7 7 8 8 8 9 8 8 7 8 7 8 7 8 8 7 7 8 8 8 8 7 8 8 8 7 7 7 8 8 8 7 7 7 7 8 8 8 8 8 7 7 8 8 8 8 7 8 7 8 7 8 7 7 8 8 8 7 7 8 7 7 7 7 7 7 8 7 8 7 8 8 7 7 7 7 7 7 7 7 7 7 7 7 7 7 7 7 7 7 7 7 7 7 7 7 7 7 7 7 7 6 7 6 7 7 7 6 7 7 8 6 7 7 7 7 7 6 7 7 7 6 7 7 7 6 6 7 7 7 7 6 6 7 6 6 6 7 6 6 7 6 6 7 7 6 7 6 6 6 7 6 6 6 6 6 6 6 7 7 7 6 6 6 7 6 6 6 6 6 5 6 7 6 6 6 6 6 6 6 6 7 6 6 5 6 6 6 5 6 5 6 6 6 6 6 6 6 6 6 5 6 6 6 6 5 6 5 6 5 6 6 6 5 6 6 6 5 6 6 6 6 0 
5 5 5 5 6 6 5 6 5 5 6 5 6 5 5 5 5 6 5 5 5 5 6 5 6 5 5 6 5 5 5 5 6 6 6 5 6 6 6 6 6 5 6 6 5 6 5 5 5 5 5 6 6 6 5 5 6 5 6 6 6 6 6 6 6 6 6 6 6 6 6 6 5 6 6 5 6 6 5 5 6 5 6 6 6 6 6 5 6 6 6 6 6 6 6 5 5 6 6 6 6 6 6 6 6 6 6 7 6 7 6 6 6 6 5 6 6 6 6 6 6 6 6 6 6 6 6 6 6 7 6 6 6 6 6 6 6 6 6 6 6 7 6 6 6 6 6 6 6 6 6 6 6 6 6 7 6 6 6 6 6 6 6 7 6 6 7 6 7 6 7 6 6 7 7 6 7 7 7 6 7 7 7 7 6 6 7 6 7 7 6 7 7 6 7 7 7 7 6 6 7 7 7 7 7 7 7 7 6 7 7 7 7 7 7 7 7 6 7 7 6 7 7 7 7 6 7 7 7 7 7 8 7 7 7 7 7 7 7 7 7 8 7 7 8 6 7 7 7 8 8 7 7 8 7 7 7 7 7 7 7 8 8 7 8 7 7 7 7 8 7 7 7 7 8 7 8 7 8 7 7 8 8 7 8 7 7 8 7 7 8 7 7 7 7 8 8 8 8 8 7 8 7 8 8 8 8 7 8 7 8 8 8 8 8 8 7 7 8 8 8 7 8 7 7 8 8 7 8 8 8 8 8 8 8 7 7 8 7 8 8 8 7 8 7 8 7 8 8 8 7 8 8 8 8 7 8 8 8 8 8 8 8 8 8 8 8 8 8 8 8 7 7 7 8 8 8 8 8 8 8 7 8 8 7 7 7 7 8 7 8 8 7 8 8 7 8 7 8 8 8 7 8 8 7 8 8 8 7 8 8 8 8 8 8 8 7 8 7 7 8 7 7 8 8 6 8 8 8 8 7 7 8 7 7 7 7 7 7 7 7 7 7 7 8 7 7 7 7 7 7 7 7 8 7 7 8 7 6 7 7 8 7 8 6 7 7 7 7 7 7 7 7 7 7 7 6 7 7 7 7 7 7 7 7 6 7 7 7 7 7 7 7 7 7 7 6 7 7 7 7 6 7 7 7 6 7 7 7 6 6 6 7 7 7 7 7 7 6 7 7 7 7 6 7 6 6 6 7 6 6 7 6 6 6 6 7 6 6 6 5 6 6 6 6 6 6 7 6 6 6 6 6 6 6 6 7 6 7 6 6 7 5 6 6 6 6 6 6 6 6 6 6 6 6 6 6 6 6 6 6 6 6 5 6 6 5 6 5 6 6 5 6 6 6 6 6 6 6 0 
5 5 5 5 5 5 6 6 6 5 5 5 5 5 5 5 5 6 5 6 5 5 5 5 5 6 5 5 5 5 6 5 6 5 6 5 6 6 5 5 6 5 6 5 6 6 5 5 5 5 6 6 5 6 6 6 6 6 6 6 6 6 6 6 6 6 5 5 5 6 5 6 6 6 6 6 6 6 6 6 6 6 6 6 6 6 6 6 6 6 6 6 6 6 6 6 6 6 5 6 6 6 6 6 7 6 6 6 6 6 6 6 6 6 6 6 6 6 6 7 6 6 6 6 6 7 6 6 7 6 6 6 6 6 7 6 7 6 7 6 6 6 6 7 6 7 6 7 7 6 6 6 6 6 6 7 6 6 7 6 7 7 7 6 6 6 7 7 6 7 6 7 6 7 6 7 7 6 6 7 6 6 7 7 7 7 7 7 8 7 7 6 7 6 7 7 7 6 7 7 7 7 7 6 7 6 6 6 7 7 7 7 7 7 7 7 7 7 7 7 8 7 7 7 7 7 7 7 7 7 7 7 7 7 8 7 6 7 7 6 7 8 8 7 7 7 7 7 7 8 7 7 8 8 7 7 7 7 7 7 7 7 8 8 7 7 8 7 7 7 8 7 8 8 7 7 7 8 8 8 8 8 7 7 7 7 7 7 7 8 7 8 7 8 7 8 7 7 7 7 7 7 8 8 8 7 7 7 8 8 8 8 8 8 8 8 7 7 7 7 8 8 8 7 8 8 7 7 8 8 8 8 8 7 7 8 8 8 7 7 8 8 8 8 8 8 8 8 7 8 8 8 8 8 7 8 8 8 8 8 8 8 8 8 8 8 8 8 8 7 8 8 8 8 8 8 8 8 8 8 8 8 8 8 8 7 8 8 7 8 8 8 8 8 8 8 8 8 7 7 8 8 7 8 8 7 8 8 8 8 7 7 8 8 8 7 7 8 8 7 8 7 8 8 7 8 7 8 7 7 6 7 8 8 7 7 7 8 8 8 8 8 7 7 7 7 7 7 7 7 7 7 7 7 7 8 8 8 7 7 7 7 8 7 7 7 7 7 7 7 7 7 7 6 7 7 8 7 7 7 6 7 7 7 6 6 7 7 7 7 6 7 7 6 7 8 6 7 6 7 7 6 6 7 6 7 7 6 7 7 7 7 7 7 6 6 7 7 7 6 6 7 6 6 6 6 7 6 7 7 7 6 6 6 7 6 7 6 6 6 6 6 6 6 6 6 6 6 6 6 7 6 6 6 7 6 6 6 6 5 6 6 6 6 6 6 6 5 6 6 6 6 6 6 6 6 6 6 6 6 6 6 6 6 5 6 6 5 6 6 6 6 6 6 6 6 6 6 6 0 
5 6 5 5 6 5 5 5 5 5 6 6 5 6 5 5 6 5 5 6 6 6 6 6 5 5 5 6 5 6 6 5 5 5 6 5 5 6 6 5 6 5 6 6 5 5 6 5 6 6 6 6 6 6 5 6 6 6 6 5 6 6 5 5 5 5 6 5 6 5 5 6 6 6 6 6 6 6 6 6 6 6 5 6 6 6 6 6 6 5 5 6 5 6 6 5 6 6 6 6 6 6 6 6 6 6 6 6 6 6 6 6 6 7 6 6 6 6 6 6 6 7 6 6 6 6 6 6 6 6 6 6 6 6 6 6 6 6 6 6 6 6 6 7 6 6 6 6 6 6 6 7 6 6 6 7 6 6 7 6 7 7 6 6 6 7 7 6 7 6 6 7 6 7 6 6 6 7 6 7 6 6 7 6 7 7 7 7 7 6 7 7 7 7 7 7 7 7 7 6 7 7 7 6 7 6 6 7 7 7 7 7 7 7 7 7 7 7 7 7 7 7 7 7 7 7 7 6 7 7 7 7 7 7 7 7 8 7 6 7 7 7 7 7 7 7 7 7 8 7 7 8 8 8 7 7 7 7 7 7 7 7 8 8 7 7 7 7 7 8 7 8 7 8 7 7 7 7 7 8 8 7 8 7 8 7 8 8 7 8 7 8 8 7 8 8 8 8 8 8 8 7 8 8 7 7 8 8 7 8 8 7 8 8 8 7 8 8 8 7 8 8 7 8 7 8 7 8 8 7 8 7 8 8 8 7 8 8 7 8 8 8 8 8 8 8 8 8 8 8 8 8 8 8 7 8 8 8 8 7 8 8 8 8 8 7 8 8 8 8 8 7 8 7 8 8 8 8 8 8 8 8 7 7 8 8 8 8 8 8 7 7 8 7 8 8 7 7 8 7 8 7 7 8 8 8 7 7 7 7 8 7 8 7 7 8 8 7 7 8 8 7 7 7 7 7 8 7 7 7 7 7 8 8 7 8 7 7 7 7 8 8 7 7 7 7 7 7 7 7 7 7 7 7 7 7 7 7 7 7 7 7 7 7 7 7 7 7 7 7 7 7 7 7 6 7 7 6 7 7 7 6 7 7 7 7 6 7 7 7 6 6 7 6 6 7 6 7 7 7 7 7 6 7 7 7 6 6 6 7 6 7 6 7 7 6 7 6 6 7 6 7 7 7 7 6 6 6 7 6 6 6 6 6 7 6 6 6 7 7 6 6 7 6 6 6 6 7 6 6 6 6 6 6 6 7 6 6 6 6 6 6 6 7 6 6 6 6 6 6 6 6 6 6 6 6 6 7 6 6 6 6 6 6 6 6 5 6 5 6 6 6 6 5 6 6 6 5 6 0 
5 6 5 5 5 5 5 5 6 5 5 6 5 5 5 5 5 6 6 5 6 5 5 6 5 6 5 6 6 5 5 5 6 6 5 6 5 6 6 5 5 5 5 6 6 6 6 6 6 5 6 6 5 6 6 5 5 6 5 6 6 6 6 6 6 5 6 6 6 7 5 6 5 6 6 6 6 6 6 6 5 6 6 6 6 6 6 6 6 6 6 6 6 6 6 6 6 6 6 6 7 6 6 6 6 7 6 6 6 6 6 6 6 6 6 6 6 6 6 6 6 6 6 6 6 6 6 6 6 6 6 7 6 6 6 7 6 6 5 6 6 6 6 7 6 6 6 6 6 7 6 6 7 6 7 6 6 6 6 6 6 6 6 6 6 7 7 6 7 6 6 7 7 6 6 7 7 6 7 7 6 6 6 6 7 7 7 7 7 7 7 7 7 6 7 7 7 7 7 7 7 7 7 7 7 7 6 7 7 7 7 7 7 7 7 7 7 7 7 7 7 6 7 7 7 7 7 7 7 7 7 7 7 7 7 7 7 7 7 7 7 7 6 7 7 7 7 7 7 8 8 7 7 7 7 8 8 8 8 7 8 7 7 7 7 7 7 8 7 8 8 8 8 8 7 8 7 7 8 7 7 8 8 7 7 7 8 8 7 7 7 8 8 8 8 8 8 8 7 7 8 8 8 8 8 7 8 8 8 8 8 8 7 8 8 8 7 8 8 8 7 7 8 8 8 7 8 8 7 8 8 8 8 8 8 8 8 8 8 8 8 7 8 8 8 8 8 8 8 7 7 8 8 8 8 8 8 7 9 8 8 8 8 8 8 7 8 8 8 8 8 8 8 8 8 8 7 8 8 8 8 8 8 8 7 8 8 7 8 7 8 7 7 8 8 7 8 7 8 8 7 7 8 8 8 8 8 8 7 8 8 7 7 8 8 7 7 8 8 7 7 7 7 8 7 8 8 7 8 7 8 7 8 7 8 8 7 8 8 7 7 8 7 8 8 7 7 7 8 7 7 8 7 8 7 7 7 8 8 7 8 7 7 7 6 7 8 7 7 7 7 7 7 7 7 8 7 7 7 7 7 7 7 7 7 7 7 7 7 7 7 7 7 7 7 7 7 7 6 6 6 7 7 7 7 7 7 7 6 6 7 6 6 6 6 6 6 6 7 6 6 6 7 6 6 7 7 7 7 6 6 6 6 7 7 6 6 7 6 6 6 6 6 7 6 6 6 6 6 6 6 7 6 6 6 6 6 6 6 7 6 7 6 6 6 6 6 6 6 5 6 6 6 6 6 6 6 6 7 6 6 6 6 6 6 6 6 6 6 5 6 6 6 6 6 6 5 6 6 0 
5 5 6 6 5 6 5 5 6 5 5 6 6 5 6 5 6 5 5 5 6 5 5 6 6 5 6 5 5 5 5 6 6 6 5 6 5 5 6 5 5 6 6 6 5 6 6 6 6 6 6 5 6 6 5 5 6 6 6 6 6 6 6 6 6 6 5 6 6 6 6 6 6 6 5 6 5 6 6 6 6 6 6 5 6 6 6 6 6 7 6 6 6 7 6 6 6 6 6 6 6 6 6 6 6 6 6 6 6 6 6 6 6 6 6 7 6 6 6 6 7 6 6 6 6 6 6 7 6 6 6 6 6 6 6 6 6 6 6 7 7 7 6 6 6 6 6 6 6 6 6 7 6 6 6 6 6 6 7 6 6 6 6 7 6 7 6 7 7 7 7 6 6 7 7 7 7 6 7 7 7 7 6 7 7 7 6 7 7 6 7 6 6 7 7 7 7 7 7 7 7 6 7 7 7 7 7 7 7 7 7 7 7 7 7 7 7 7 7 7 7 7 7 7 7 7 7 7 7 7 7 7 7 8 7 8 7 7 7 7 7 7 7 8 7 7 7 7 7 7 7 7 8 8 7 8 7 7 7 7 7 7 7 7 7 7 8 8 7 7 7 7 7 8 7 8 8 8 8 7 8 7 8 8 8 8 8 7 8 7 7 7 7 7 7 7 8 8 7 8 8 8 8 8 8 8 7 7 8 8 7 7 8 7 7 7 8 8 8 8 7 7 8 8 8 7 8 8 8 8 7 8 8 8 8 8 8 8 8 7 8 7 8 8 8 8 8 8 8 8 8 7 8 8 8 8 8 8 8 8 7 8 8 8 8 8 8 8 8 8 8 9 8 8 7 8 8 8 7 8 8 8 8 8 9 8 8 8 8 7 8 7 8 8 8 8 8 8 8 8 8 7 8 7 8 7 7 8 7 7 8 8 7 8 7 7 7 7 7 7 8 7 8 7 8 8 8 7 7 7 7 7 7 7 7 8 7 7 7 7 8 7 8 7 7 7 8 8 8 7 7 7 7 7 8 8 7 8 7 7 7 7 8 7 7 7 7 7 7 7 7 7 7 7 7 7 7 7 6 7 6 7 7 7 7 7 7 7 7 7 7 7 7 7 7 7 7 7 6 6 7 7 6 7 7 6 6 7 6 6 7 7 7 7 7 6 7 7 7 7 7 7 6 6 7 6 6 6 6 7 6 7 6 7 6 6 6 6 6 6 6 6 6 6 6 6 7 7 7 6 6 5 6 6 6 6 6 6 6 6 6 6 6 6 7 6 6 6 6 6 6 6 6 6 6 6 6 6 6 6 6 6 6 7 6 6 6 6 6 6 6 5 6 6 6 6 6 6 5 0 
6 5 5 5 5 5 6 5 5 5 5 5 5 5 6 6 6 5 5 6 5 6 5 5 6 6 6 6 6 6 5 5 6 5 5 5 5 6 5 6 6 6 6 6 6 6 6 6 6 6 6 6 5 5 6 5 6 6 5 5 6 6 6 6 6 6 6 6 6 6 5 6 6 6 5 6 6 6 6 6 6 6 6 6 6 5 6 6 6 6 6 6 5 6 6 6 6 6 6 6 6 6 6 6 6 6 6 6 6 6 6 6 6 6 6 6 6 6 6 6 6 7 6 6 6 6 6 6 6 6 6 6 6 6 6 6 7 6 6 6 6 6 6 6 6 6 6 6 7 6 7 6 6 6 7 6 6 6 6 6 6 6 6 7 6 7 6 7 7 6 6 6 6 6 7 6 7 7 7 6 7 6 6 6 6 7 7 7 8 7 7 7 6 7 6 7 6 7 7 7 6 7 7 7 7 6 7 6 7 7 7 7 7 7 7 7 7 7 7 7 8 7 7 8 7 7 7 7 7 8 6 8 7 7 7 8 7 8 8 7 7 6 7 8 7 7 7 7 7 7 7 7 7 7 7 7 7 7 8 7 7 7 7 7 7 8 8 8 7 8 8 7 8 7 7 8 8 8 7 8 8 8 8 8 8 7 7 8 7 8 8 7 7 8 7 8 8 8 8 8 7 7 8 8 8 8 8 8 8 8 8 8 8 8 8 7 7 7 8 7 8 8 8 8 8 8 8 8 8 8 8 8 8 8 8 8 7 8 8 8 8 9 7 8 8 8 8 7 8 8 8 8 8 8 8 9 8 8 8 7 8 8 8 8 8 8 8 8 8 8 8 7 8 8 8 8 8 8 8 8 8 8 9 8 7 8 7 8 9 8 7 8 7 8 8 8 8 8 8 8 8 8 7 8 7 8 7 8 7 8 7 8 8 8 8 7 7 7 8 7 7 7 7 8 7 8 8 7 8 8 7 7 8 7 7 8 7 7 7 7 7 7 7 7 8 8 7 7 7 8 8 7 7 7 7 7 8 7 7 7 7 7 8 7 8 7 8 7 7 6 7 7 7 7 7 7 7 6 7 7 7 6 7 7 8 7 7 7 7 7 7 7 7 6 7 6 7 7 7 6 7 7 6 7 7 7 7 6 6 7 7 6 7 6 7 7 6 6 7 7 7 7 6 7 7 6 7 6 7 6 6 7 7 6 7 6 6 6 6 6 6 7 6 6 6 6 6 6 6 6 7 7 6 6 6 6 6 6 6 6 6 6 6 6 6 6 6 6 6 6 6 6 6 7 6 6 6 6 6 6 6 6 6 6 6 5 6 5 6 6 6 6 6 6 6 6 6 6 6 0 
6 6 6 5 5 5 5 5 5 6 6 6 5 5 5 6 5 5 6 6 6 6 6 5 6 6 6 5 5 5 5 6 5 6 5 5 6 5 5 6 6 6 6 5 5 5 5 5 5 5 6 6 6 6 5 6 6 6 5 6 5 5 5 6 5 5 6 6 6 6 6 6 6 6 6 6 6 6 6 5 6 6 6 6 6 6 6 6 6 6 6 6 5 6 6 6 6 6 6 6 6 6 6 6 6 6 6 5 6 6 6 6 6 6 6 7 6 6 6 6 6 6 6 6 6 6 6 7 6 6 6 6 7 6 6 6 7 6 6 6 6 6 6 6 6 6 6 6 6 7 6 7 7 6 6 7 6 6 7 6 6 7 7 7 6 6 7 7 6 6 6 6 7 7 7 7 7 7 7 6 7 6 6 7 7 7 7 7 7 7 7 6 7 7 7 7 7 7 6 7 7 7 7 7 7 7 7 7 7 7 7 8 7 7 7 7 7 6 6 7 7 7 7 7 7 7 7 7 7 8 7 7 7 7 7 7 7 7 7 8 6 7 8 7 7 7 7 7 8 8 7 7 7 8 7 7 7 8 7 7 7 8 8 7 7 7 7 8 8 7 7 8 7 8 8 8 7 8 8 8 8 8 7 8 8 8 7 8 8 8 8 8 8 7 8 8 8 7 8 7 8 8 8 8 8 8 8 8 8 8 8 8 8 8 8 8 8 8 8 8 8 8 8 8 8 8 8 9 8 7 8 9 8 7 8 8 7 7 8 8 8 8 8 8 8 8 7 8 8 8 8 8 8 8 7 8 8 8 8 8 8 8 8 8 8 8 8 9 8 8 8 8 8 8 8 8 8 8 8 8 8 8 8 8 8 7 9 8 8 8 7 7 8 8 8 8 8 8 8 8 8 7 8 8 8 8 8 8 7 8 8 8 8 8 7 7 8 7 8 7 8 7 8 7 8 8 8 8 8 8 7 7 8 7 8 8 8 8 8 7 7 7 7 6 8 7 8 7 7 8 8 7 7 7 7 7 7 7 7 7 8 7 7 7 7 7 7 7 7 7 7 7 7 7 7 7 7 6 7 7 7 6 7 7 7 7 6 7 7 7 7 7 6 7 7 7 7 7 7 7 7 7 7 7 7 7 6 7 7 7 7 7 7 7 6 6 6 6 7 7 7 7 7 6 7 7 7 6 6 6 6 6 6 6 6 7 6 6 7 7 6 6 6 7 7 6 6 7 6 6 6 6 6 6 7 6 6 6 7 6 6 6 7 6 6 6 6 6 6 6 6 6 6 6 6 5 6 6 6 6 6 6 6 6 6 6 6 6 6 6 6 6 5 6 6 6 6 6 6 0 
5 6 6 5 6 6 6 6 5 5 5 5 5 6 5 6 5 6 6 6 5 6 6 6 6 6 6 5 6 5 5 5 6 6 6 5 6 6 5 6 6 6 6 5 5 5 5 6 5 6 5 6 6 5 6 6 6 6 6 6 6 6 6 6 6 6 5 5 6 5 5 6 5 6 6 6 6 6 6 6 6 6 6 6 6 6 6 6 6 6 6 6 7 6 6 7 6 6 6 6 6 6 6 6 6 6 6 6 5 7 5 6 6 6 6 7 6 6 6 6 6 6 6 6 6 6 6 6 6 6 6 7 6 6 7 6 6 7 6 6 6 7 8 6 6 6 7 7 6 7 6 6 6 7 7 6 6 7 7 7 6 7 6 6 7 7 7 7 7 7 6 6 6 7 6 7 7 7 6 7 7 6 7 7 6 7 6 7 7 7 7 7 7 7 7 6 7 7 7 6 7 7 6 7 7 7 7 7 7 7 7 7 7 7 7 7 6 7 6 7 7 7 7 7 7 7 7 7 7 7 7 7 7 7 7 7 7 7 7 8 7 7 8 8 7 8 7 7 7 7 7 7 7 7 7 8 7 7 8 7 7 7 8 7 7 7 7 8 7 8 7 7 8 8 7 8 8 8 8 7 8 7 7 8 7 7 8 8 7 8 8 8 7 7 8 8 7 7 8 8 8 8 7 7 8 8 8 8 8 7 8 8 7 8 8 7 8 8 8 8 8 8 8 7 7 8 7 7 7 8 7 8 8 8 9 8 8 8 8 7 7 9 8 8 8 7 8 8 8 8 8 8 8 8 8 8 8 8 8 8 8 8 8 8 8 8 8 9 8 8 8 8 8 8 8 8 8 9 7 8 7 8 8 8 8 7 8 8 9 8 8 7 8 8 8 8 8 8 8 8 8 7 8 7 7 8 8 8 8 8 8 8 8 8 8 7 8 7 8 9 8 8 7 7 8 7 8 8 7 8 8 7 8 7 7 7 8 7 7 7 8 8 7 8 7 7 8 8 7 7 7 8 7 7 7 7 8 7 7 7 7 7 8 7 7 7 7 7 7 7 7 8 7 7 7 7 7 7 7 7 6 7 6 8 7 7 7 7 7 7 7 7 7 6 7 7 7 7 6 7 7 7 7 6 6 7 7 7 7 7 7 7 6 6 6 7 7 6 6 7 6 7 7 6 6 6 7 6 6 7 7 6 6 7 7 6 6 7 6 6 6 7 6 6 6 6 6 6 6 6 6 6 6 6 6 6 6 6 6 6 6 6 6 6 6 6 5 6 6 6 6 6 6 6 6 6 6 6 6 6 6 6 6 6 6 6 6 6 6 6 6 6 6 6 6 5 6 6 6 0 
5 5 6 6 6 6 6 5 6 6 6 5 6 5 6 5 5 6 6 6 5 6 6 5 6 6 6 6 5 6 6 6 6 5 6 6 6 6 6 6 6 6 6 6 5 6 6 6 6 6 6 6 5 5 6 6 6 5 6 6 6 6 6 6 6 6 6 6 6 6 6 6 6 7 6 6 5 6 6 6 6 6 5 6 6 6 7 5 6 6 6 6 6 6 6 6 6 6 6 6 6 6 6 7 6 6 6 6 6 6 6 6 6 6 6 6 6 6 6 6 6 7 6 6 6 6 6 6 6 6 7 6 6 6 6 7 7 6 6 7 6 7 7 6 7 6 7 6 6 7 6 7 6 6 6 6 6 7 6 7 7 7 6 6 6 6 6 7 6 7 6 6 7 7 7 7 7 7 7 7 6 7 7 7 7 6 7 7 7 7 7 7 7 6 7 7 7 7 7 6 7 6 7 7 7 7 6 7 7 6 7 7 7 7 7 7 7 7 7 7 7 7 7 7 7 7 6 8 7 7 8 8 7 7 7 7 7 7 7 7 8 7 7 7 7 7 8 7 7 7 8 8 8 8 7 7 7 8 7 7 7 8 8 7 7 8 8 7 8 8 7 8 8 7 8 8 8 8 8 7 8 7 8 8 7 8 7 7 8 8 8 8 8 8 8 7 8 8 7 8 7 7 8 8 8 8 9 8 8 8 8 8 8 8 8 8 8 8 8 8 8 8 8 8 8 8 8 8 8 8 8 8 8 8 8 8 8 8 8 8 8 8 8 8 9 8 7 8 8 8 8 8 8 9 8 7 8 8 8 8 8 8 8 8 8 8 8 9 8 8 8 8 8 7 8 8 8 8 8 9 8 8 8 8 9 8 8 7 8 8 8 9 8 8 8 8 8 8 8 8 8 8 8 8 8 8 8 8 8 8 8 8 8 8 8 8 8 8 8 8 7 8 8 8 8 8 8 8 8 8 8 7 8 7 8 8 7 8 8 7 8 7 8 8 7 8 8 7 7 7 7 7 7 7 7 7 6 7 7 7 8 7 7 7 7 7 7 7 7 7 7 7 7 7 7 7 8 7 7 7 6 7 6 7 7 7 7 7 7 7 6 7 7 7 7 7 7 7 6 7 7 7 7 7 7 7 7 7 7 7 7 7 6 7 7 6 7 6 6 6 7 6 6 7 6 6 6 6 6 7 7 6 6 7 6 6 6 6 7 6 6 7 6 6 6 6 6 6 6 6 6 6 7 7 6 6 6 6 6 7 6 7 6 6 6 6 6 7 6 6 6 6 6 6 6 6 6 6 6 6 6 6 6 6 6 6 6 6 5 6 6 6 6 6 6 6 6 6 6 0 
5 5 6 5 5 6 6 5 6 5 5 6 5 6 5 5 5 6 6 5 6 5 5 5 6 6 5 6 6 5 5 5 5 5 5 6 5 6 5 5 5 6 5 5 6 6 5 5 6 6 6 6 6 6 6 6 6 5 6 6 5 5 6 6 5 6 6 5 5 6 6 5 6 6 6 6 6 5 6 6 6 6 6 6 6 6 6 6 6 6 6 6 6 6 6 6 6 6 6 6 6 6 6 6 6 6 6 6 6 6 6 6 6 6 6 6 6 6 6 6 6 6 6 6 6 7 6 7 7 6 6 6 6 6 6 6 6 6 6 7 7 6 6 6 6 7 7 6 6 7 6 6 6 7 7 7 7 7 6 7 7 7 6 6 6 7 7 7 7 7 7 6 5 7 6 7 7 6 7 7 6 7 7 7 7 6 7 6 7 7 7 6 7 7 7 7 7 7 6 7 7 7 7 7 7 7 7 7 7 7 7 7 8 6 7 7 7 7 7 7 7 7 7 7 7 7 7 7 7 8 7 7 7 7 7 8 7 7 8 7 7 8 7 7 8 7 7 8 8 8 8 7 7 7 7 8 7 8 7 8 7 7 8 8 8 7 7 8 8 8 7 7 8 8 8 8 7 8 8 8 8 8 7 8 8 8 8 8 8 7 8 8 8 8 7 8 7 8 8 8 8 8 8 8 7 7 8 8 8 8 8 8 8 8 9 8 8 8 8 8 8 8 8 8 8 8 8 8 8 8 8 8 8 8 8 9 8 8 7 8 8 8 8 8 8 8 8 8 8 8 8 8 8 8 8 8 8 9 8 8 8 8 8 8 8 8 8 9 8 8 8 7 8 9 8 8 8 8 8 8 8 8 8 8 8 9 7 8 7 8 8 8 8 8 8 8 7 7 8 8 8 8 8 8 8 7 8 8 8 7 8 8 8 8 8 8 8 8 8 7 8 7 8 8 7 8 7 8 8 8 7 8 7 8 8 8 7 7 8 7 8 8 8 7 8 8 7 8 7 8 7 7 7 8 7 7 7 7 7 8 7 7 7 7 7 7 7 8 8 7 7 7 8 7 7 7 7 7 7 7 6 7 7 7 7 7 7 6 7 7 7 7 6 7 7 7 6 7 7 7 7 7 7 6 7 7 7 7 7 7 7 6 7 7 6 7 6 7 7 7 6 7 6 7 6 6 7 6 7 6 7 6 6 6 6 6 6 7 7 6 6 7 6 6 6 7 7 6 6 6 6 6 7 7 6 6 6 6 6 7 6 6 6 6 6 6 6 6 6 7 6 6 6 6 6 6 6 5 6 6 7 6 6 6 6 6 6 6 6 6 6 6 5 6 6 6 6 6 6 0 
5 5 5 5 6 6 5 5 5 5 5 6 5 6 6 5 5 5 6 5 6 5 5 5 6 6 6 6 6 5 6 6 5 5 6 6 5 6 6 5 6 6 6 6 5 5 6 6 6 5 6 6 5 6 6 6 6 6 5 6 6 6 6 5 6 6 5 6 6 6 6 6 6 6 6 6 6 6 6 6 6 6 5 6 6 6 6 6 6 6 6 6 6 6 6 6 6 6 6 6 6 6 6 6 6 6 6 6 6 6 6 6 6 6 6 6 7 6 6 6 6 6 6 6 6 6 6 6 6 6 6 6 6 6 6 6 6 6 6 6 6 6 6 7 6 6 7 7 6 7 7 6 7 7 7 6 6 6 6 6 7 6 7 7 7 6 6 6 7 7 7 7 7 7 6 6 7 6 6 7 6 7 7 7 7 7 7 6 7 7 7 7 7 7 7 7 7 7 7 6 7 6 7 7 7 7 7 6 7 7 8 7 6 8 7 7 7 7 7 8 7 7 8 7 7 7 7 8 7 7 7 7 7 7 7 7 7 7 8 7 8 8 7 7 8 7 8 8 8 7 7 7 7 7 7 7 7 7 7 8 7 7 8 7 7 7 8 7 8 7 7 8 8 8 7 8 7 7 8 7 7 7 8 8 8 8 8 8 7 7 8 8 8 8 8 8 8 8 8 8 8 7 8 8 8 8 9 8 8 8 8 7 8 8 7 8 8 9 8 8 8 8 8 8 8 8 8 8 8 8 8 8 7 8 8 8 8 8 9 8 8 8 8 8 8 8 8 8 8 8 8 8 8 8 8 8 7 8 8 8 8 8 8 9 9 8 8 8 8 8 8 8 8 8 8 7 8 8 9 8 8 7 7 8 8 8 8 8 8 8 8 8 8 8 8 8 8 9 8 8 8 8 7 8 8 8 8 8 7 8 8 8 8 8 9 8 8 8 8 7 7 8 7 7 8 8 8 7 7 8 8 8 7 7 7 8 7 7 8 8 8 8 8 8 7 7 7 8 7 8 7 8 7 7 8 8 7 7 8 8 8 7 8 8 7 7 7 8 7 7 8 7 7 7 7 7 7 7 6 8 7 7 7 7 7 8 7 7 7 7 7 7 6 7 7 7 7 7 7 7 6 7 6 7 7 7 7 6 7 7 6 7 7 7 6 6 7 7 7 7 6 7 7 6 7 7 6 7 7 6 7 6 6 7 6 7 6 6 7 7 6 7 7 7 6 6 6 6 6 6 6 6 6 7 6 6 6 6 6 6 6 6 6 6 6 6 6 6 6 6 6 6 6 6 6 6 6 6 6 6 6 6 6 5 6 6 6 6 6 6 6 6 6 5 6 6 6 6 6 0 
5 6 6 6 6 5 6 5 5 6 5 6 6 6 6 6 6 6 6 5 6 5 5 5 5 6 5 6 5 5 5 6 5 6 6 6 6 5 5 6 5 5 6 6 6 6 6 6 6 5 5 6 6 6 6 6 5 6 6 6 6 6 6 6 6 6 6 5 6 6 6 6 5 6 6 6 6 6 6 6 6 6 6 6 6 6 6 6 5 6 6 6 6 7 6 6 6 6 6 6 6 6 6 7 6 6 6 6 6 6 7 6 7 6 6 6 6 6 6 6 7 6 6 7 7 6 7 6 6 6 6 7 6 7 6 7 6 6 7 6 6 6 6 6 6 7 7 6 7 7 7 7 7 6 7 6 6 6 6 6 7 6 7 7 6 7 7 7 7 6 6 7 7 7 7 7 6 7 7 7 7 7 6 7 7 7 6 7 7 7 8 7 7 7 7 7 7 7 7 7 7 7 7 7 7 7 7 7 6 6 7 7 7 7 7 7 7 7 7 7 7 6 7 7 7 8 7 8 7 7 7 8 7 7 7 7 7 8 7 7 7 8 7 7 7 7 8 7 7 7 7 8 7 7 8 7 7 8 7 7 8 8 7 7 8 8 8 8 7 8 7 8 7 7 8 7 8 7 8 8 8 8 7 7 8 8 8 8 7 8 7 8 8 8 8 8 8 8 8 8 8 9 8 8 8 8 9 8 8 8 8 8 7 8 7 8 8 8 8 8 8 8 8 8 8 8 8 8 8 9 8 8 8 7 8 8 9 8 7 8 8 8 8 9 8 8 8 8 8 7 8 8 8 8 8 8 8 9 8 8 9 8 8 8 8 8 8 9 8 9 8 8 8 8 8 8 8 8 8 9 8 8 8 8 8 9 8 8 8 8 8 9 8 8 8 8 8 8 8 8 8 8 8 8 8 8 8 8 7 8 8 8 8 7 8 8 8 8 9 8 8 8 8 8 8 8 8 8 8 8 8 8 8 8 8 8 8 7 7 7 7 7 7 8 7 7 8 7 8 7 7 7 8 7 7 9 7 8 8 7 7 8 7 7 7 7 7 8 7 7 7 7 7 7 7 7 7 7 7 7 7 7 7 7 7 7 7 7 8 8 7 7 7 7 7 7 7 7 7 7 7 7 7 7 7 7 6 7 7 7 7 6 7 7 7 7 6 7 7 7 6 7 6 6 6 6 6 6 6 6 6 6 7 6 7 7 6 6 7 7 7 6 7 7 7 7 6 6 6 6 7 7 6 6 6 6 6 6 6 6 6 6 6 6 6 6 6 6 6 6 6 6 6 6 6 6 5 6 6 6 6 6 6 6 6 6 6 6 7 6 7 6 6 6 5 6 6 6 6 0 
6 6 5 5 5 6 6 6 5 6 5 6 5 5 5 5 6 5 5 5 6 5 6 5 5 5 5 5 5 6 6 6 5 6 6 6 6 6 5 6 6 6 5 6 6 6 6 6 6 5 5 5 6 6 6 6 6 6 6 6 6 6 6 5 6 6 5 6 6 6 6 6 6 6 5 6 6 6 6 6 6 6 6 6 5 6 5 5 6 6 6 6 6 6 6 6 6 6 6 6 6 6 6 6 7 6 6 6 6 6 6 6 6 6 6 6 6 6 6 7 6 6 6 6 7 6 6 6 6 6 5 6 7 7 6 6 6 6 6 6 6 6 6 6 7 6 6 7 6 7 7 7 6 6 7 7 6 7 7 7 6 7 7 6 7 6 7 7 6 7 6 7 6 7 7 6 6 7 7 7 7 7 7 7 7 7 7 7 7 7 7 7 7 7 8 7 7 7 7 6 7 7 7 7 7 7 7 7 6 7 7 7 7 7 6 7 7 7 7 7 7 7 8 7 7 7 7 7 8 7 7 8 7 7 7 8 7 7 7 7 8 7 7 7 7 8 8 8 8 7 7 8 8 7 8 8 8 8 8 8 7 8 7 7 8 8 8 8 7 8 8 8 8 8 8 7 8 7 8 8 7 8 8 7 8 8 8 8 7 8 9 8 8 8 8 8 8 8 8 8 8 7 8 9 8 8 8 8 8 8 8 8 8 8 8 8 8 8 8 7 8 8 8 8 8 9 8 8 7 9 8 8 8 8 9 8 8 8 9 8 9 8 8 8 7 8 8 8 8 8 8 9 8 8 8 8 9 9 8 8 8 8 7 8 8 8 8 8 8 8 8 8 9 9 8 8 8 8 8 8 8 8 7 8 8 8 9 8 8 8 8 8 8 8 8 7 8 8 8 8 8 8 8 8 8 8 8 8 8 8 8 8 8 7 9 7 8 8 8 8 8 8 8 8 8 8 8 8 7 8 8 8 7 8 8 7 8 7 8 7 7 8 8 7 8 8 7 8 7 8 8 7 7 7 7 7 7 7 7 7 7 7 7 7 8 7 7 8 7 7 8 7 7 7 7 7 7 7 7 8 7 7 7 7 7 7 7 7 8 7 7 7 6 7 7 6 7 7 7 7 6 6 6 7 7 7 7 7 7 7 6 7 7 7 7 6 6 7 6 7 6 7 7 7 7 7 7 6 6 6 6 7 6 6 7 7 7 6 7 6 6 6 6 6 6 6 7 6 6 6 6 7 6 6 7 7 6 6 6 6 6 7 6 6 6 7 6 6 6 6 7 6 6 6 6 6 6 6 6 6 6 6 6 6 6 6 6 6 6 6 6 6 6 6 6 6 6 6 6 0 
6 6 6 5 5 6 6 6 5 5 6 6 5 5 6 5 5 5 5 6 6 5 5 6 6 6 5 6 5 6 6 6 6 6 5 6 6 6 5 5 5 6 6 6 5 6 6 5 6 6 6 6 5 6 6 6 6 6 6 6 6 6 6 6 6 6 6 5 6 5 6 6 6 6 6 6 6 6 5 5 6 6 6 6 6 5 6 6 6 6 6 5 6 6 6 6 6 7 6 6 6 6 6 6 7 6 6 6 6 6 7 6 6 6 6 6 7 5 6 6 6 5 6 6 6 6 6 6 7 6 6 7 6 6 6 6 6 6 6 6 6 6 6 7 7 6 7 6 6 7 7 7 7 6 7 6 6 7 7 7 7 7 6 7 6 6 6 7 6 7 7 6 7 7 7 7 6 6 7 6 7 7 7 7 7 7 7 7 7 7 7 7 7 7 7 7 7 7 7 6 7 7 7 7 7 8 7 7 6 7 7 7 7 7 7 7 7 7 7 8 7 7 7 7 7 7 7 7 7 7 7 7 8 8 7 7 7 7 7 8 8 7 7 8 8 7 7 8 7 8 7 7 7 7 8 7 8 8 8 7 8 8 8 8 8 8 8 8 7 8 8 8 8 8 8 8 8 7 8 8 8 8 7 8 8 9 8 8 8 8 8 8 8 8 8 8 8 8 8 8 8 8 8 8 8 7 8 8 8 8 7 8 9 8 8 8 8 8 8 8 8 8 8 9 8 8 8 8 8 8 8 8 8 8 8 8 8 8 8 9 9 8 9 9 8 8 8 8 8 7 8 8 8 8 8 9 8 8 8 8 9 8 8 8 8 8 9 8 8 9 8 8 8 8 8 8 8 8 9 8 8 9 8 8 8 8 7 8 8 8 8 8 8 8 8 8 8 9 7 8 9 8 8 8 8 9 8 8 8 8 8 8 8 8 8 8 8 9 8 8 8 8 8 8 8 8 8 8 7 8 7 8 8 8 8 7 8 8 8 8 9 8 7 7 8 7 8 7 7 7 8 8 8 7 7 8 7 8 7 7 7 8 7 7 8 7 7 7 7 8 7 7 7 7 7 7 7 7 7 8 7 6 6 7 7 7 7 7 7 8 7 7 7 7 7 7 7 7 7 7 7 7 7 6 7 7 7 7 6 7 7 6 7 6 7 7 6 6 6 7 6 7 7 6 6 7 7 6 7 6 7 7 6 6 7 6 6 6 7 6 7 6 6 7 6 6 7 6 5 6 6 6 7 6 6 6 6 7 6 6 6 6 7 6 7 6 7 6 6 6 6 5 6 6 6 6 6 6 6 6 6 6 6 6 6 6 7 6 6 5 6 6 6 5 6 6 6 6 6 0 
5 5 5 6 5 6 5 6 6 5 6 6 6 5 6 5 5 5 6 6 5 6 5 6 5 5 5 6 6 6 5 6 6 6 6 6 6 6 6 6 6 6 6 6 6 5 6 6 6 5 6 5 6 6 6 6 6 6 6 6 6 5 6 5 6 5 6 6 6 6 6 6 6 6 7 5 6 6 6 6 6 6 6 6 6 6 6 6 6 6 6 6 6 6 6 6 6 6 6 6 6 6 6 6 6 6 6 6 6 6 6 7 7 6 6 7 6 7 6 7 6 7 6 6 6 6 6 6 6 6 6 6 6 6 7 6 6 6 6 6 6 7 7 6 7 7 7 7 7 7 7 6 6 7 6 7 6 7 6 6 7 6 7 7 7 7 7 6 6 7 6 7 6 7 7 7 7 7 7 7 7 6 7 7 7 7 7 7 7 6 7 8 7 7 7 7 7 7 7 7 7 7 8 7 7 6 7 7 7 7 7 7 8 7 7 7 8 8 7 7 7 7 8 7 8 7 7 7 7 7 8 7 8 7 7 7 7 7 7 7 7 8 8 7 8 7 7 7 7 7 8 8 7 7 7 8 7 8 7 7 7 8 8 8 8 7 8 7 8 8 8 7 8 8 7 7 8 8 7 8 8 8 8 8 8 8 8 8 8 8 8 8 7 8 8 8 8 8 7 8 8 8 8 8 8 7 8 8 9 8 9 8 8 8 8 8 8 8 8 8 9 8 8 8 8 7 8 8 8 8 9 8 8 9 8 8 9 9 8 9 8 8 8 9 8 8 8 8 8 8 8 8 8 8 9 8 8 8 8 8 9 8 8 8 9 9 8 8 8 8 8 8 8 8 9 8 8 8 8 8 8 9 9 8 8 8 9 8 8 8 8 8 8 8 8 8 8 8 8 8 8 8 8 8 8 8 8 7 8 9 8 9 8 8 8 8 8 8 7 8 8 8 7 8 7 8 8 8 8 7 8 7 8 8 8 8 8 8 8 8 7 7 8 8 7 8 8 8 7 8 8 7 8 8 8 7 8 8 7 7 7 7 7 7 7 8 7 7 7 7 8 7 7 7 7 8 7 7 7 7 7 7 7 7 7 7 7 7 7 7 7 7 7 7 7 7 7 7 6 7 7 6 7 7 7 7 7 6 7 7 7 7 6 6 7 7 6 7 7 7 7 6 6 7 6 6 7 7 7 7 7 6 6 6 6 7 6 7 7 6 6 7 7 6 7 6 7 7 7 6 6 6 7 6 6 6 7 6 6 6 6 6 6 6 6 7 6 7 6 6 7 6 6 6 6 6 6 6 6 6 6 6 6 6 5 6 6 6 6 6 6 6 6 6 6 6 6 6 6 0 
5 6 6 6 5 6 6 5 6 6 5 6 5 6 5 5 6 5 5 6 5 6 6 5 5 5 5 6 5 5 5 6 6 6 5 5 6 5 5 5 6 6 6 5 6 6 5 5 6 5 6 6 6 6 6 5 5 5 6 6 6 6 6 6 5 6 6 6 6 6 6 6 6 6 6 7 6 6 6 6 6 6 6 6 6 6 6 6 5 6 6 6 6 6 6 6 6 6 6 6 6 6 6 6 6 6 7 6 6 6 6 7 6 6 7 6 6 6 6 6 6 6 6 7 6 7 6 6 6 6 6 6 7 6 6 6 6 7 7 7 7 6 7 6 6 7 7 7 7 6 7 6 7 7 7 6 7 6 6 7 7 7 7 7 6 7 7 7 7 6 6 7 7 7 7 7 6 7 6 6 7 7 7 6 6 7 7 7 6 7 7 7 7 7 7 7 7 7 7 7 7 7 7 7 7 7 7 7 8 7 8 7 7 8 8 7 8 8 7 7 7 7 8 7 7 7 7 7 7 8 7 7 7 7 8 8 8 7 8 8 8 7 7 7 7 8 7 7 7 7 7 8 7 8 7 8 8 8 7 8 7 7 8 8 8 7 7 7 8 7 8 7 8 8 8 8 8 8 8 8 8 8 8 8 8 8 9 8 7 8 8 8 8 8 8 8 8 8 8 8 8 8 8 8 8 8 8 8 8 8 9 8 8 8 8 9 8 7 9 9 8 9 8 8 8 8 8 9 8 8 9 8 8 8 9 8 9 8 8 8 8 8 9 8 9 9 8 8 9 9 8 9 8 8 9 8 9 8 8 8 8 8 8 8 9 8 8 8 8 8 9 8 8 9 8 8 8 8 8 8 8 8 8 8 8 8 8 9 8 9 9 8 8 8 9 8 8 8 8 8 9 8 9 8 8 8 8 8 8 9 8 8 7 8 8 8 8 8 8 8 8 9 8 8 8 8 8 9 8 9 8 8 8 8 7 7 9 7 8 8 7 8 8 8 7 8 7 7 8 8 7 7 8 8 7 8 8 7 8 7 8 8 8 7 7 8 7 7 7 7 7 7 7 8 7 7 8 7 7 7 7 7 7 7 7 7 7 8 7 7 7 8 7 7 7 6 7 8 6 7 6 7 7 7 7 7 7 7 7 7 7 7 6 7 7 6 6 7 7 6 6 6 6 7 7 6 6 6 8 7 6 6 7 6 6 6 7 6 7 7 6 6 6 6 6 6 7 6 6 7 6 6 7 6 6 7 5 7 6 6 6 6 6 7 7 6 6 7 6 6 6 6 6 6 7 6 7 6 6 6 6 6 6 6 6 6 6 6 6 6 6 6 6 6 5 6 5 6 6 0 
5 5 5 5 5 5 5 5 6 5 6 6 6 5 6 6 6 6 5 6 6 6 6 5 6 6 6 5 6 6 5 5 5 6 6 6 5 6 6 6 6 6 6 6 6 6 6 6 5 6 6 6 5 5 6 6 6 5 6 6 6 6 6 6 6 6 5 6 6 6 6 6 6 6 6 5 6 5 6 5 6 6 6 6 6 6 6 6 6 6 6 6 6 6 6 6 6 6 6 6 7 6 6 6 6 7 6 7 6 6 6 7 6 6 6 6 6 6 6 6 6 6 6 6 6 6 7 7 6 7 7 7 6 7 7 6 6 7 6 6 7 6 7 6 7 7 7 7 7 7 7 7 7 7 6 6 6 7 7 6 7 7 6 7 7 7 6 7 6 6 7 7 7 7 7 7 7 7 6 7 7 6 7 7 7 7 7 7 7 7 7 6 7 7 7 7 7 7 7 7 7 7 8 8 7 7 7 8 8 7 7 7 7 7 6 7 7 8 7 7 8 7 7 7 8 7 7 7 7 7 7 7 7 7 8 7 7 7 7 8 8 7 8 7 7 8 7 8 7 7 8 8 7 8 8 8 7 7 8 8 8 7 8 8 8 8 8 8 8 8 8 8 8 8 9 8 7 8 8 7 8 8 8 8 7 8 8 8 8 8 7 8 8 8 9 8 8 8 8 8 8 7 8 7 8 9 9 9 8 8 8 8 8 9 8 8 8 8 8 8 9 9 9 8 8 9 8 8 8 8 8 9 8 8 9 8 8 8 8 8 8 9 8 8 8 9 8 9 8 8 8 8 8 9 8 9 8 9 8 9 9 8 8 9 8 8 8 8 8 8 8 9 9 9 9 8 9 8 8 8 8 8 9 8 8 8 8 8 8 8 9 8 8 8 8 8 8 8 8 8 9 8 9 8 8 8 8 8 9 8 9 8 8 8 8 8 8 8 8 9 8 8 8 8 8 8 8 8 8 8 8 7 8 8 8 8 9 8 8 8 8 8 7 7 8 8 8 8 7 7 8 7 8 8 7 7 7 7 8 7 7 8 8 7 7 7 7 7 7 8 7 8 7 8 8 8 6 7 8 7 7 7 7 7 7 7 7 7 7 7 7 7 7 7 7 6 7 7 7 7 7 7 7 7 7 7 6 7 7 7 7 7 7 6 7 7 7 7 7 7 6 7 7 7 6 6 6 7 6 7 7 6 6 6 6 6 7 6 7 7 7 6 6 6 6 6 6 6 6 6 7 6 6 6 6 6 6 7 6 6 6 6 6 6 6 6 6 6 6 6 6 7 6 6 6 5 6 6 7 6 6 5 6 6 6 6 6 6 7 6 6 6 6 6 6 6 6 6 6 0 
5 5 6 6 5 5 6 6 5 6 5 5 5 6 5 5 5 6 5 6 6 5 6 5 6 6 6 6 6 6 5 6 6 6 5 6 6 6 5 6 5 5 5 6 6 5 6 5 5 6 6 6 6 6 6 5 6 6 6 6 5 6 6 6 6 6 6 6 5 6 6 6 6 6 6 6 5 6 6 6 6 6 6 6 6 6 6 5 6 6 7 5 6 6 6 6 6 6 6 6 6 6 6 6 6 6 6 7 7 6 6 6 6 6 6 6 6 6 7 6 6 7 6 6 6 6 6 7 6 6 6 6 6 6 6 7 6 6 7 7 6 7 7 7 7 6 7 6 7 7 6 6 6 6 6 7 7 7 7 6 7 7 7 7 7 6 7 7 7 7 7 7 6 7 7 7 7 7 7 7 7 7 7 7 7 7 7 7 7 6 7 7 7 7 7 7 7 7 7 7 7 7 7 7 7 7 7 7 8 7 7 7 7 7 7 7 7 8 7 7 7 7 7 7 8 7 8 7 7 7 7 7 7 7 7 7 7 7 7 7 7 8 7 7 7 8 7 8 8 8 7 8 7 8 8 8 8 7 8 7 8 8 7 8 7 8 7 8 8 8 8 8 8 8 8 7 8 8 8 7 8 8 8 8 8 7 8 8 8 7 9 7 7 8 8 8 9 8 8 8 8 7 8 8 8 8 8 8 8 8 8 8 8 8 8 9 9 8 8 9 8 8 8 8 9 8 9 8 8 8 8 9 8 8 8 8 8 8 8 8 8 8 9 8 9 8 9 9 8 8 8 9 8 8 8 8 8 9 8 8 9 9 8 8 9 8 8 8 9 8 8 8 9 8 8 8 9 9 8 9 8 9 8 8 8 8 8 8 8 9 9 8 8 9 8 8 8 8 9 8 8 8 8 9 9 8 8 8 8 8 9 8 8 8 8 8 8 8 8 8 8 8 8 8 8 8 8 8 8 8 8 8 8 8 8 8 8 8 7 8 8 8 8 8 7 7 8 7 7 8 8 7 8 8 7 8 8 7 8 8 8 7 8 7 7 8 7 7 7 7 8 8 7 7 7 7 7 8 7 7 7 7 7 7 7 7 8 7 7 7 7 7 7 7 7 7 7 7 8 7 7 7 7 7 8 7 7 6 7 7 7 7 7 7 7 7 6 7 7 7 6 6 6 6 7 7 7 6 6 7 6 6 6 6 6 7 7 7 6 6 8 7 6 6 7 6 6 6 6 6 6 6 7 6 6 6 6 6 7 7 6 6 7 6 6 6 7 6 6 7 6 6 7 6 6 6 6 6 6 6 7 6 6 6 6 6 6 6 6 6 6 6 6 6 6 6 6 5 5 0 
6 6 5 6 5 5 5 6 6 6 5 6 6 5 5 6 5 6 5 6 6 6 5 6 6 6 6 5 5 5 5 5 5 6 6 6 5 6 6 6 6 6 6 6 6 6 6 6 6 6 6 6 6 6 6 6 6 6 6 5 6 5 6 6 6 6 6 6 6 5 6 6 6 6 5 6 6 6 6 6 6 6 6 6 6 6 6 6 6 6 7 6 6 6 6 6 6 6 6 6 6 7 6 6 6 6 6 6 6 6 6 6 6 6 6 6 6 6 6 6 6 6 7 6 6 7 7 6 6 6 6 6 6 6 6 7 7 6 6 6 7 6 6 7 7 6 6 7 7 6 7 7 7 6 7 7 6 6 6 7 6 6 6 7 6 7 7 7 7 7 7 7 6 7 7 7 7 7 7 7 7 7 7 7 7 7 6 7 6 7 7 7 7 7 7 6 7 7 7 7 7 7 7 7 7 8 7 8 8 8 7 7 7 8 7 8 8 7 7 7 8 7 7 7 7 8 7 8 8 8 7 7 7 7 7 8 7 7 8 8 7 7 8 8 8 7 8 8 8 7 8 8 7 8 7 8 8 8 8 8 7 8 8 7 8 8 7 8 8 8 8 8 8 8 8 8 8 8 8 8 8 8 9 8 8 8 8 8 8 8 8 8 8 8 8 8 8 8 8 8 8 8 7 8 8 8 8 8 9 8 8 8 8 8 8 8 9 8 8 8 9 8 8 8 9 8 8 8 8 9 9 8 8 9 8 9 8 9 9 8 8 8 8 8 8 8 8 8 8 8 9 9 9 9 8 8 8 7 9 8 8 8 8 8 8 8 9 8 8 8 9 8 9 8 8 9 8 9 8 9 9 8 8 8 8 9 9 8 8 8 8 8 8 8 7 8 8 8 8 8 9 8 8 9 8 8 9 8 8 8 8 8 8 8 8 8 8 8 8 9 8 8 9 8 8 8 8 8 7 8 8 8 8 8 8 8 7 7 8 8 8 8 7 8 8 7 7 8 8 8 7 7 7 8 8 8 8 7 8 8 7 7 8 7 8 7 7 8 7 7 7 7 8 8 8 7 7 8 7 7 7 7 7 8 7 7 8 7 8 7 7 7 7 7 7 6 7 7 7 7 7 8 7 7 7 7 7 7 7 6 7 6 7 7 7 7 6 6 7 7 7 6 7 6 7 7 6 7 7 6 7 6 7 6 7 6 6 6 7 6 6 6 6 6 6 7 6 7 6 6 6 6 6 7 6 6 6 7 6 6 6 6 7 6 6 6 6 6 6 7 6 6 6 6 6 6 6 6 6 6 6 6 6 6 6 6 6 6 6 6 6 6 6 6 6 6 6 6 6 0 
6 5 6 6 5 5 6 6 5 5 5 6 5 5 6 5 6 6 5 5 6 6 6 6 5 6 5 6 6 6 6 6 6 5 5 5 6 6 5 6 5 5 5 6 6 6 7 6 6 6 6 5 6 6 6 6 6 5 6 6 5 7 5 6 6 6 6 6 6 6 5 6 6 5 6 6 6 6 6 6 6 6 6 6 6 6 6 6 6 7 6 6 6 6 6 6 6 6 6 6 6 6 6 6 6 6 6 6 7 6 6 6 6 6 6 6 6 7 6 6 6 7 7 6 7 6 6 6 6 6 6 6 6 6 7 6 6 6 7 6 6 6 6 7 6 7 7 7 7 6 6 6 7 7 6 7 7 7 6 7 6 7 7 6 7 6 7 7 7 7 7 7 7 7 7 7 7 7 7 6 7 7 7 6 7 7 7 7 7 7 7 6 7 7 7 7 7 7 8 7 7 7 7 7 7 7 7 7 7 8 7 8 8 8 7 7 8 7 7 7 7 7 7 8 8 7 7 7 7 7 7 7 8 8 8 8 7 8 7 8 7 7 8 7 8 8 8 8 7 8 8 8 8 7 8 8 8 8 7 8 8 8 8 8 8 8 8 7 8 8 8 8 8 8 8 8 7 8 8 8 8 8 8 8 8 8 8 8 8 8 9 8 8 8 7 8 8 8 8 8 9 9 8 8 8 8 8 8 8 8 8 8 8 8 8 8 8 8 9 9 8 8 8 8 9 8 8 9 8 8 8 8 8 9 9 8 8 8 9 8 8 9 9 8 9 9 8 8 9 8 9 9 9 9 8 9 9 9 8 8 9 9 8 8 8 9 8 9 9 9 8 8 9 8 9 8 8 9 9 8 8 8 8 8 9 9 9 9 9 8 9 9 9 8 9 8 8 8 8 8 8 9 8 8 8 9 9 8 9 8 8 8 8 8 8 8 8 8 8 8 8 8 8 8 8 8 8 8 9 8 8 8 8 7 8 8 8 7 8 8 8 7 8 8 8 8 8 7 8 7 8 8 8 8 8 8 8 8 8 8 7 7 7 7 7 7 7 7 8 7 7 7 7 7 8 7 8 7 8 7 7 7 7 7 7 7 7 7 7 8 7 7 7 7 7 6 7 7 7 7 7 7 7 7 7 7 7 7 7 7 7 7 6 6 7 6 7 7 7 7 7 7 7 7 6 7 6 6 7 6 6 7 7 7 7 6 6 7 6 6 7 6 6 6 7 7 6 7 7 7 7 7 6 6 6 6 6 7 6 6 6 6 6 7 6 6 6 6 6 6 6 6 6 6 6 6 6 7 6 6 6 6 5 6 6 6 6 6 6 6 6 6 6 6 6 6 7 6 5 0 
5 5 5 6 5 6 5 6 6 5 5 6 6 5 5 5 6 5 5 6 6 6 5 6 5 6 5 5 6 5 5 6 6 5 5 5 6 5 6 6 6 6 5 6 6 6 6 6 6 6 6 7 6 6 6 6 6 6 5 6 6 5 6 6 6 6 6 6 6 7 6 6 6 6 6 6 6 6 6 5 6 6 6 7 6 6 7 6 6 6 7 6 6 6 6 7 6 6 6 6 6 6 6 6 6 6 6 6 6 6 7 6 6 6 6 6 6 7 6 7 6 7 7 6 7 7 6 6 7 6 6 6 6 6 6 6 7 6 6 6 6 6 7 6 6 7 6 6 7 7 7 7 7 7 6 7 7 6 7 6 6 7 7 7 7 7 7 7 7 7 7 6 7 7 7 7 7 7 7 7 7 6 7 7 7 7 7 7 7 7 7 7 6 7 7 7 7 6 7 7 7 7 7 7 7 7 8 7 7 7 6 7 7 7 7 7 8 8 8 7 7 8 7 7 8 7 7 8 8 8 8 8 7 7 8 7 8 8 8 8 8 8 8 7 8 8 8 8 8 8 8 7 7 8 9 8 8 8 8 8 8 8 8 8 8 7 8 8 8 8 8 8 8 8 8 8 8 8 8 8 8 8 8 8 8 7 7 9 9 8 8 8 8 8 8 8 8 8 8 8 8 8 8 8 8 7 8 8 8 8 9 8 8 8 8 8 8 8 8 8 8 8 8 9 9 8 9 8 8 9 8 8 8 9 9 8 9 8 9 8 9 9 9 9 8 9 8 9 9 8 8 9 8 8 9 8 9 9 9 9 8 9 9 8 8 8 9 9 9 8 8 8 9 8 8 8 8 8 8 9 9 9 9 8 9 9 8 8 9 8 8 8 9 9 9 8 8 8 9 8 9 8 9 9 9 9 9 8 8 9 8 8 8 8 8 8 8 8 7 8 8 8 8 7 8 8 8 8 8 8 7 9 8 8 8 7 8 8 8 8 8 8 7 8 8 8 8 8 8 8 8 7 8 8 7 8 8 8 7 7 8 8 8 7 8 8 8 8 7 8 8 8 7 7 8 7 8 7 8 7 7 7 7 7 7 7 8 8 8 7 7 7 8 7 7 7 7 8 7 7 7 7 7 7 7 7 6 7 7 7 7 7 7 7 7 7 6 7 7 7 7 6 7 7 7 6 6 6 7 6 6 6 7 7 6 6 7 6 7 7 7 7 7 6 7 7 6 7 7 6 6 6 6 6 6 6 7 6 6 7 7 6 6 6 6 6 7 6 6 6 6 6 6 6 7 6 6 6 6 6 6 6 6 6 5 7 6 6 6 6 6 7 6 6 6 6 5 6 6 0 
5 6 6 6 6 5 5 6 5 6 5 5 6 6 5 6 6 5 6 6 5 6 5 6 6 6 6 5 6 5 6 6 6 5 6 5 6 5 6 6 6 5 6 5 6 6 6 6 6 6 6 6 6 6 6 6 5 6 6 6 6 6 6 6 5 5 6 6 6 6 6 6 6 6 6 6 6 6 6 6 6 6 6 7 6 6 6 6 6 6 6 6 6 6 6 6 6 6 6 6 6 6 6 7 6 6 5 6 6 6 6 6 6 6 6 6 6 6 6 6 6 6 6 6 6 7 6 7 6 7 7 6 6 6 6 6 6 6 7 6 7 6 7 6 6 6 7 6 7 7 7 6 7 6 7 7 7 7 6 7 6 7 6 7 6 7 6 7 7 7 7 7 6 7 6 7 7 7 7 7 7 7 6 7 7 7 7 7 7 7 7 7 7 7 7 7 7 7 7 7 7 7 7 7 7 7 7 7 7 7 8 7 7 7 7 8 8 7 7 7 7 7 7 7 8 8 8 6 8 7 7 8 7 7 7 7 7 8 8 8 7 7 8 8 8 7 7 7 7 8 8 8 8 7 7 8 8 8 8 8 8 8 7 8 8 7 9 8 8 8 8 8 8 8 8 8 8 8 8 8 8 8 8 9 8 8 8 8 8 8 8 8 8 9 9 8 8 8 9 8 8 9 8 8 9 8 8 8 8 8 8 8 8 9 9 8 8 8 8 8 8 9 8 9 8 8 9 9 8 9 8 8 8 8 9 9 9 9 8 8 9 9 9 9 8 8 9 9 8 9 9 9 9 8 9 8 8 9 8 8 9 9 8 9 9 8 9 9 8 9 9 9 8 9 9 9 9 8 9 8 9 9 8 8 9 8 9 8 9 9 8 9 9 9 8 9 8 9 9 9 8 9 8 9 9 8 9 8 8 8 9 8 8 8 9 8 8 8 8 9 8 8 8 8 8 8 8 8 8 8 8 8 9 8 8 8 8 8 8 8 8 8 8 8 8 8 8 7 9 8 8 8 8 7 8 8 8 8 7 7 8 8 8 8 7 7 8 7 7 7 7 8 8 7 8 7 8 7 7 7 8 7 7 7 7 7 7 7 7 7 7 7 7 7 7 7 7 7 7 7 7 7 7 7 7 7 7 7 7 7 6 7 7 7 7 7 6 7 7 7 7 7 7 7 7 6 7 6 7 6 7 6 7 7 6 6 6 7 6 6 7 7 6 7 6 6 7 6 6 7 6 6 6 7 6 7 6 6 6 6 7 6 7 7 6 6 6 6 6 6 7 6 6 6 6 6 6 6 6 7 6 6 6 6 6 6 6 6 6 7 6 6 6 6 6 6 6 6 6 0 
5 5 5 5 5 6 6 6 6 6 5 5 5 5 5 6 6 6 6 5 5 6 5 6 6 5 6 5 6 6 5 5 5 6 6 6 6 6 6 5 5 6 6 6 5 6 5 6 6 6 6 5 5 6 7 6 6 6 6 6 5 6 6 6 6 6 6 6 6 6 6 6 7 6 6 6 6 6 6 7 6 6 6 6 6 6 6 6 6 6 6 6 6 6 6 6 7 6 6 6 6 6 6 6 6 6 6 6 6 7 7 6 6 6 6 6 6 7 6 6 6 6 6 7 7 6 7 7 6 6 6 7 6 6 6 7 7 6 6 7 7 6 7 7 7 7 6 6 7 7 7 6 7 6 7 7 6 7 7 7 7 7 7 7 6 7 6 6 7 6 7 7 8 7 7 7 7 7 7 7 7 7 7 6 7 7 7 6 7 7 7 7 7 7 7 7 7 7 7 7 7 7 8 8 8 7 7 7 7 7 8 7 7 7 7 7 7 7 7 7 7 7 7 7 8 7 8 7 8 7 7 7 8 8 8 7 7 8 7 7 7 7 7 7 8 8 8 8 8 8 8 8 8 8 8 8 9 7 7 8 8 8 7 7 8 7 8 8 8 9 8 8 8 8 7 8 7 8 8 8 8 7 8 8 8 8 8 7 8 8 9 8 8 9 8 8 8 9 8 7 8 9 8 8 8 8 8 8 9 8 8 8 8 8 8 8 9 8 8 8 8 8 9 8 9 8 8 9 8 9 8 9 9 8 8 8 9 8 9 8 9 9 8 9 9 8 9 9 8 9 9 9 8 9 9 8 9 8 9 9 9 9 9 8 9 9 9 9 8 9 9 9 8 9 8 9 9 8 9 9 8 8 9 8 8 9 8 9 8 9 8 9 9 9 8 8 8 8 8 9 9 8 8 8 9 9 9 9 8 9 8 9 8 8 8 8 8 8 7 9 8 8 9 8 8 8 8 8 8 8 8 8 8 8 8 8 8 9 8 8 8 8 8 8 8 8 8 9 8 8 8 8 8 8 8 7 7 8 8 8 7 8 8 8 8 8 7 7 8 7 8 8 7 8 7 8 7 7 8 8 8 7 7 7 8 7 8 7 7 8 7 7 7 7 7 7 7 7 7 7 6 7 7 7 7 7 7 6 7 7 6 7 7 7 7 7 7 7 7 7 7 6 7 7 6 6 7 6 7 6 7 7 7 6 7 6 6 7 7 6 7 6 6 7 6 7 6 6 7 6 7 6 7 6 6 6 7 6 6 6 7 6 6 6 6 6 6 6 7 7 6 6 6 6 6 6 6 6 7 6 6 6 6 5 6 6 6 6 6 6 6 6 6 6 6 6 6 6 6 0 
5 5 5 5 6 6 5 6 5 6 5 5 6 6 6 6 6 6 5 6 5 6 6 6 6 5 5 5 5 5 6 6 6 5 5 6 5 6 6 6 6 6 6 6 5 5 5 6 6 6 6 6 6 6 6 6 6 6 6 6 6 6 5 6 6 6 6 6 6 6 5 6 6 6 6 7 6 6 5 6 6 6 6 6 6 6 6 6 6 6 6 6 6 6 6 7 6 6 6 6 6 6 6 6 6 6 6 6 6 6 7 6 6 6 6 6 6 6 7 7 6 7 6 6 6 7 6 6 7 6 6 7 6 6 6 6 7 7 6 6 7 7 7 6 7 7 6 7 7 7 7 7 7 6 7 6 7 7 7 7 7 7 7 6 7 7 7 7 7 7 7 7 7 6 7 7 7 7 7 7 7 7 7 7 7 7 7 7 7 7 7 8 7 7 7 7 7 7 8 7 7 7 7 7 7 7 7 7 7 7 7 7 7 7 8 7 8 8 7 8 8 7 8 7 8 8 7 8 8 8 7 7 7 7 8 8 7 8 8 8 7 7 7 7 7 8 8 8 8 8 7 7 8 7 7 8 8 8 8 8 8 8 8 8 8 8 8 8 8 8 8 9 8 7 8 7 7 8 8 8 8 8 9 8 8 9 8 8 8 8 9 8 8 8 9 9 8 9 8 9 9 9 9 8 8 8 8 8 9 9 9 9 8 9 9 8 8 9 9 8 9 8 9 9 8 8 8 9 8 9 8 8 8 9 8 9 9 8 9 9 8 9 8 9 8 9 9 8 9 9 8 9 8 8 9 8 9 9 9 8 8 9 8 9 9 9 9 9 9 9 9 9 9 9 9 8 8 9 9 9 8 9 8 9 9 9 9 9 8 9 9 9 8 8 8 9 8 9 9 9 8 8 9 9 8 8 9 9 8 8 8 8 9 9 8 8 9 8 8 8 8 7 8 8 9 9 8 8 8 8 8 9 8 8 8 8 8 8 8 8 8 8 8 8 8 8 8 8 8 8 8 8 8 8 7 8 7 9 8 8 8 8 8 7 8 8 8 8 8 8 8 8 7 8 8 7 7 7 7 7 8 7 7 7 7 7 7 8 7 7 7 7 7 8 8 7 8 8 7 7 7 8 7 8 7 6 7 7 7 7 7 7 7 7 7 7 7 7 6 7 6 6 7 7 6 6 7 7 7 7 6 7 7 6 7 7 7 6 7 6 7 6 7 6 7 7 6 7 6 7 6 6 6 6 6 7 6 6 6 6 6 6 6 7 6 6 6 6 6 6 6 6 6 6 6 6 6 6 6 6 6 6 6 6 6 6 6 6 6 6 6 6 6 6 6 5 6 5 6 0 
6 6 5 6 6 5 6 6 5 6 5 6 5 5 5 5 6 5 6 5 5 5 5 6 6 6 5 6 6 6 6 6 6 6 6 5 6 6 6 5 5 6 6 6 5 6 6 6 6 5 6 6 6 5 6 6 5 6 6 6 6 6 6 6 6 6 5 6 6 6 6 6 6 6 6 6 6 6 6 6 6 6 6 6 6 6 6 6 6 6 6 7 6 6 6 6 6 6 6 6 7 6 6 6 6 6 7 6 6 6 7 6 7 6 6 6 6 7 6 6 7 6 6 6 7 7 6 7 7 6 7 7 6 7 7 6 7 7 7 7 7 7 6 6 6 7 6 7 7 7 6 7 7 7 7 7 7 6 7 7 7 7 6 7 6 6 7 7 7 7 7 6 7 7 7 7 8 7 7 7 7 7 6 7 8 7 7 7 7 7 7 7 7 7 7 7 6 7 7 7 6 8 7 7 8 7 7 8 8 7 7 7 7 7 7 8 7 7 7 8 7 8 8 7 8 7 7 8 8 8 7 7 8 8 8 8 7 8 8 8 7 8 8 8 8 8 8 8 8 8 8 7 8 8 8 8 8 8 7 8 8 8 8 8 8 8 9 8 8 8 8 8 8 8 7 9 8 8 8 8 8 8 8 8 8 8 8 8 8 8 8 8 8 8 8 8 8 8 8 8 8 7 8 8 8 8 8 9 8 9 8 9 9 9 9 9 8 9 8 9 9 9 8 8 9 8 9 8 9 8 9 9 8 8 9 9 8 9 8 8 9 8 9 9 9 9 9 8 8 9 9 9 9 9 9 9 8 9 9 9 9 9 8 9 9 9 8 9 9 9 8 8 9 9 8 9 8 8 9 9 10 9 9 9 8 9 9 8 8 9 9 9 8 8 8 8 9 9 9 9 9 9 9 9 8 8 9 9 9 9 8 8 9 9 9 8 8 9 9 8 8 9 9 9 8 8 8 8 8 8 8 8 8 8 8 8 9 8 8 9 8 8 8 7 8 8 8 8 8 8 8 8 7 8 8 7 7 8 8 8 7 8 8 8 7 7 7 8 7 8 7 8 7 7 7 8 8 8 7 7 7 7 8 8 8 7 7 7 7 7 7 7 8 7 7 7 6 7 7 7 7 7 7 7 6 7 7 7 7 7 7 7 7 7 7 7 7 7 7 6 7 6 7 7 7 6 7 6 7 6 7 7 6 7 7 6 6 7 6 6 7 6 7 7 7 6 7 6 6 6 6 6 7 6 6 7 6 6 7 6 6 6 6 6 6 6 7 7 6 7 7 6 6 6 6 6 7 6 6 6 7 6 6 6 6 6 6 6 7 6 6 6 7 6 6 6 6 6 6 0 
5 6 5 5 5 5 5 6 6 5 6 5 6 6 6 5 5 6 6 6 6 5 6 5 6 6 5 5 6 5 5 6 6 5 6 6 5 6 6 6 6 6 6 6 6 6 5 5 6 6 6 5 6 5 6 5 5 6 6 6 6 6 6 6 5 6 6 6 6 6 6 5 6 6 6 6 6 6 6 6 6 6 6 6 6 6 6 6 6 6 7 6 6 6 6 6 6 6 7 6 6 7 6 6 6 6 7 6 6 6 6 6 6 7 6 6 6 7 7 7 6 6 6 6 6 7 6 7 6 6 7 6 6 7 6 7 7 6 7 6 6 7 6 6 7 7 7 7 6 6 7 6 7 7 7 7 6 7 7 7 7 7 7 6 7 7 7 7 7 7 7 7 7 7 8 7 6 7 7 8 7 7 7 7 7 7 8 8 7 8 8 7 7 7 7 7 7 7 7 7 7 7 7 7 7 7 8 8 7 7 8 7 8 7 7 7 8 8 7 7 7 8 8 7 8 8 8 7 7 7 8 8 8 8 8 8 8 8 8 8 8 8 8 8 8 8 7 8 8 8 7 8 7 8 8 8 8 8 7 8 8 7 8 9 8 8 8 8 8 8 8 8 8 8 8 8 8 8 8 9 8 8 8 9 8 8 8 9 8 8 8 9 8 8 7 8 9 8 8 9 8 8 9 8 8 9 8 8 9 9 9 8 9 9 8 9 8 9 8 9 8 8 9 8 8 9 8 9 9 8 8 8 8 9 8 8 9 8 9 8 9 9 9 9 8 9 9 9 9 9 9 9 8 9 9 8 9 9 9 9 8 8 9 9 8 8 9 10 8 9 9 9 9 9 9 9 10 9 9 9 9 9 8 8 9 10 8 9 8 9 9 9 9 8 9 9 9 9 9 9 8 9 9 9 8 9 9 9 9 8 9 8 8 8 8 8 9 9 8 8 9 9 9 9 8 8 8 8 8 8 8 8 8 9 8 8 8 8 8 8 8 8 8 8 8 7 8 8 8 8 7 8 8 8 8 8 8 7 8 8 8 8 8 8 7 8 7 7 8 7 8 8 7 7 8 8 7 8 8 7 7 7 7 8 7 8 8 7 7 7 7 8 6 7 8 7 7 7 7 8 8 7 7 7 7 7 7 8 7 7 7 6 7 7 6 7 8 7 7 6 7 7 7 7 6 7 6 7 7 7 7 7 7 6 7 7 7 6 7 6 7 7 6 6 7 7 7 6 6 7 6 6 6 6 7 6 7 7 6 7 6 7 6 6 6 7 7 6 6 6 7 6 6 6 6 6 7 6 6 6 6 6 6 6 6 6 6 6 6 6 6 6 6 6 6 6 6 6 6 0 
6 5 6 5 5 5 6 5 5 5 5 5 5 6 6 6 6 6 6 6 6 6 5 5 6 6 6 6 5 6 5 6 6 6 6 5 6 6 6 6 6 6 6 6 6 5 6 6 6 6 6 5 6 6 6 6 6 6 6 6 6 6 6 6 6 6 6 6 6 6 6 6 6 6 6 6 6 6 6 6 6 6 6 6 6 6 6 6 6 6 6 6 6 6 6 7 6 6 7 7 6 6 6 6 7 6 7 6 6 7 7 6 6 7 6 6 6 6 6 6 6 6 6 6 6 6 6 6 6 7 7 7 6 6 6 7 6 7 7 7 7 7 6 6 7 6 7 7 6 7 6 7 7 7 7 7 7 7 6 7 7 7 6 6 7 7 7 7 7 7 7 7 7 7 6 7 6 6 7 7 7 7 7 7 7 7 6 7 7 7 7 7 7 7 7 7 6 7 7 7 7 7 7 7 8 7 7 8 8 8 7 8 7 7 7 8 7 8 8 8 7 7 8 8 7 8 8 7 7 7 7 8 8 8 8 7 8 8 7 7 8 7 7 8 8 8 8 8 9 8 8 8 8 8 8 8 8 8 8 8 9 8 8 8 8 8 9 8 8 8 8 8 8 8 8 8 8 8 8 8 9 7 8 8 8 8 9 8 8 8 8 8 8 8 8 8 9 9 8 9 9 9 9 9 9 8 8 9 8 8 9 8 9 8 9 9 9 8 9 9 8 9 8 8 8 8 9 8 10 9 8 8 9 8 9 9 9 9 8 8 9 9 9 9 8 9 8 9 9 9 8 9 8 9 9 9 9 9 9 9 9 8 9 9 10 8 9 9 9 9 9 9 9 9 9 9 9 9 9 8 9 10 9 9 9 8 9 9 10 9 8 9 9 9 9 9 9 9 9 9 9 9 9 8 9 9 9 9 8 9 9 8 9 8 9 9 9 9 9 8 9 9 9 9 8 8 8 8 8 9 8 8 8 8 8 8 8 8 8 7 9 8 8 9 7 8 8 8 8 8 8 8 8 8 8 9 8 8 7 8 7 8 8 8 8 8 8 7 8 8 8 7 7 7 7 8 7 7 8 8 8 8 8 7 7 7 7 8 7 8 8 7 7 7 7 7 7 8 7 7 7 7 7 7 7 7 7 8 7 8 7 7 7 7 7 7 7 7 7 7 7 7 7 7 7 7 7 7 6 6 7 6 6 6 6 7 6 7 7 6 6 6 6 6 7 6 6 7 6 7 7 6 6 6 7 6 6 6 6 6 6 7 6 6 6 7 6 6 6 7 6 6 6 6 7 6 6 6 6 6 6 6 6 6 6 6 6 6 6 6 6 6 6 6 6 6 7 6 6 0 
5 5 6 5 5 5 6 6 6 6 5 5 6 6 5 6 6 5 6 5 5 6 6 5 5 5 6 6 6 5 6 6 6 6 6 5 6 6 6 6 6 5 6 5 6 6 5 6 6 6 6 6 5 6 5 6 5 6 6 6 6 5 5 6 6 6 6 6 6 6 6 6 6 6 5 6 6 6 6 6 6 6 6 6 6 6 6 6 6 6 6 6 7 7 6 6 6 6 6 6 6 6 6 6 6 6 7 6 6 6 6 6 7 6 6 6 7 6 7 7 6 6 6 6 6 7 6 7 7 6 6 6 7 7 6 6 6 7 7 6 6 6 6 6 7 7 7 7 7 7 7 6 7 7 7 7 7 7 7 6 7 7 7 7 7 7 7 7 7 7 7 7 7 7 7 7 7 7 7 7 7 7 7 7 7 7 7 7 7 8 7 7 7 7 7 7 7 7 8 7 8 7 8 7 7 7 8 7 7 7 8 7 8 7 7 7 8 8 8 8 8 7 8 8 7 8 8 8 8 8 7 7 8 7 8 8 7 9 8 8 7 8 8 8 8 7 8 8 7 8 8 7 8 8 7 8 7 8 8 8 8 8 8 8 8 8 8 8 8 8 8 8 8 8 9 9 8 8 9 9 8 9 8 8 8 8 8 8 8 8 8 8 8 8 9 8 8 8 9 8 8 9 9 8 9 9 9 9 8 8 8 9 9 8 8 9 8 9 8 9 8 9 8 9 8 9 8 9 9 9 8 9 8 9 10 9 9 8 9 9 9 10 9 8 9 9 9 9 9 9 9 9 9 9 9 9 8 10 9 9 9 10 9 9 9 9 9 9 9 9 8 9 9 9 9 9 9 9 9 9 9 10 9 9 8 9 9 9 9 9 9 9 9 9 9 9 9 8 9 8 8 8 9 9 9 9 8 9 9 9 9 8 9 9 8 8 9 8 8 8 8 9 8 9 8 9 9 9 9 9 8 9 8 8 8 8 8 9 8 9 8 8 9 8 8 8 8 8 8 8 8 8 8 8 8 8 8 7 8 8 8 8 8 9 8 8 8 7 8 8 8 8 8 7 8 8 7 7 8 8 7 8 8 8 7 7 7 7 7 7 8 7 7 7 7 7 7 7 8 8 7 7 7 7 7 7 7 7 7 7 8 8 7 6 7 7 7 6 7 7 7 6 7 6 7 7 7 8 7 7 6 6 7 7 7 6 7 7 7 6 6 6 6 7 7 7 6 6 6 7 7 6 6 7 6 7 6 6 6 7 6 6 6 7 6 6 6 6 6 6 6 6 6 6 6 6 6 6 6 6 6 7 6 6 6 6 6 6 7 6 6 6 6 6 6 6 7 6 6 0 
6 5 6 6 5 6 6 6 6 5 6 6 5 6 6 6 5 5 5 6 5 5 6 5 6 6 6 6 6 6 6 6 6 6 5 6 6 6 6 6 6 6 6 5 5 6 6 5 6 6 6 6 6 6 6 6 6 6 6 6 6 5 6 6 6 6 6 6 6 7 6 6 6 6 6 6 6 6 6 5 6 6 6 6 6 5 7 6 6 6 7 6 6 6 7 6 6 6 6 6 7 6 6 6 6 7 6 7 6 6 7 6 6 6 6 6 6 6 6 7 6 7 6 7 6 6 6 6 6 7 7 7 7 6 6 6 7 7 7 6 6 6 7 6 6 6 7 7 7 7 7 7 6 6 7 7 7 6 6 7 6 8 6 7 7 6 7 7 7 7 7 7 8 7 7 7 8 7 7 7 7 7 7 7 7 7 7 7 7 7 7 7 7 7 8 7 7 7 7 7 7 7 7 8 8 7 7 8 7 7 8 7 7 7 7 7 8 8 8 8 8 7 8 8 8 8 8 8 7 8 8 7 7 8 8 7 8 8 8 8 8 8 8 7 8 8 8 8 8 8 8 8 8 8 7 8 8 8 8 7 8 9 8 8 9 8 8 8 8 8 8 8 9 8 8 8 8 9 8 9 8 8 8 8 9 8 9 8 8 9 9 9 8 8 8 8 8 8 9 8 8 8 9 9 8 8 9 8 8 9 8 8 9 8 8 8 9 8 8 9 8 9 8 9 8 8 8 8 9 9 8 9 9 9 9 9 9 9 9 9 9 9 9 9 9 9 8 9 9 9 9 9 8 8 8 9 9 9 8 9 9 9 9 9 8 9 9 9 8 9 9 9 9 9 9 9 9 9 9 9 9 9 9 9 10 9 9 9 9 9 9 9 8 10 10 9 9 9 9 9 9 8 9 9 9 8 9 9 9 9 9 8 9 9 9 8 8 9 8 9 8 9 8 9 8 9 9 8 9 9 8 9 9 8 9 8 8 9 8 9 8 8 9 8 8 8 8 8 8 8 8 8 8 8 8 8 7 8 8 8 8 8 8 8 7 8 7 8 8 8 7 7 7 8 8 7 8 8 7 7 8 8 7 8 7 7 8 8 7 7 7 7 7 7 7 7 7 7 7 8 7 7 7 7 7 8 7 7 7 7 7 8 7 7 7 7 7 6 7 7 7 7 7 6 6 7 7 7 7 7 6 7 6 7 6 6 6 7 7 7 6 6 7 6 7 6 6 7 7 6 7 7 7 6 6 6 6 6 6 6 6 6 6 6 6 6 6 7 7 6 6 6 6 6 6 6 5 6 6 6 7 6 6 6 6 6 6 6 6 6 6 6 6 6 6 6 6 5 6 0 
6 5 6 6 5 5 6 6 6 5 6 6 5 6 6 6 5 5 6 6 6 6 6 6 5 5 6 5 6 6 6 6 6 5 6 5 6 6 6 6 6 6 6 6 6 6 6 6 6 6 5 6 6 6 6 5 6 6 6 6 6 5 6 6 6 6 6 6 6 6 6 6 6 6 6 6 6 6 7 6 6 7 6 6 6 6 6 6 6 6 6 6 6 6 6 7 6 6 6 6 6 6 7 6 6 6 6 6 6 7 7 7 6 6 7 6 6 7 6 7 7 7 6 6 6 7 6 6 6 7 7 6 7 6 6 7 7 6 6 7 7 6 6 6 7 7 7 7 7 7 7 7 7 6 7 7 7 6 6 7 7 7 7 7 7 6 8 7 7 7 7 7 7 7 7 7 7 7 7 8 7 7 7 6 7 7 6 7 8 7 7 7 7 7 8 7 7 7 7 8 7 8 7 8 7 6 7 7 7 8 8 8 8 7 8 7 7 7 7 7 7 7 8 8 7 8 8 8 8 7 8 8 8 7 8 8 8 8 8 8 8 7 8 8 8 8 8 7 8 8 8 8 8 8 8 8 8 8 8 8 8 9 8 8 8 8 8 8 9 8 8 8 8 8 9 8 8 9 9 9 8 9 8 8 8 8 8 8 8 9 8 8 8 8 9 9 9 8 8 9 9 9 8 9 8 9 9 9 9 9 8 9 9 9 9 9 9 9 9 8 9 9 9 9 9 10 9 9 8 9 9 9 9 9 9 9 9 8 9 9 9 9 9 9 9 9 9 9 10 9 10 9 9 10 9 9 9 9 10 9 9 9 9 9 9 9 9 9 9 9 9 9 9 9 9 9 9 9 9 9 10 9 10 9 9 9 9 10 9 9 9 9 9 9 9 8 9 9 9 9 9 10 9 9 8 8 8 8 9 9 8 9 9 9 9 9 9 8 8 8 8 9 9 9 8 8 9 8 9 8 9 9 8 8 9 9 9 8 8 8 8 8 9 9 8 8 8 8 8 8 8 8 8 9 8 7 8 8 8 8 8 8 8 8 7 8 8 7 8 8 8 8 8 8 8 8 8 8 8 7 8 7 7 7 8 8 7 7 7 7 7 7 7 7 7 7 7 7 7 7 7 7 7 7 7 7 7 7 7 7 7 6 7 7 7 6 7 7 7 7 7 7 7 7 7 6 7 7 6 7 6 6 7 6 7 7 6 7 7 7 6 7 6 6 6 7 7 7 6 6 6 6 6 6 6 6 6 7 7 6 7 6 6 6 6 7 6 7 7 6 6 6 7 6 6 6 6 6 6 6 6 6 6 5 6 6 6 6 6 6 6 6 6 7 6 6 6 6 6 0 
6 6 6 6 5 6 5 5 6 6 5 5 6 6 6 6 6 5 6 6 6 6 5 6 5 6 6 6 6 6 6 6 6 5 6 6 6 6 5 6 6 6 6 6 5 6 6 6 6 5 6 6 6 6 6 6 6 6 6 6 6 5 6 6 6 6 6 6 6 6 6 6 6 6 6 6 6 7 6 6 6 6 6 6 6 6 6 6 6 6 6 6 6 6 6 6 7 6 6 6 6 7 6 7 6 7 6 6 7 6 7 6 6 6 6 6 6 7 6 7 6 6 7 6 6 7 7 7 7 6 7 6 6 6 7 7 6 6 7 7 7 7 6 7 7 6 7 7 7 6 7 7 6 6 6 7 7 7 7 7 7 7 7 7 7 7 6 7 7 7 7 7 7 7 7 7 7 6 7 7 8 7 7 7 7 7 7 7 7 7 7 7 7 7 7 7 8 7 7 7 8 7 8 7 7 8 8 7 7 7 7 8 8 8 7 8 7 7 7 7 8 8 8 8 7 8 8 8 8 8 7 8 7 7 8 8 7 8 8 8 8 8 8 7 9 8 8 8 8 8 8 8 8 8 8 8 8 8 9 8 8 7 8 8 8 8 8 8 8 8 9 8 9 8 8 8 8 8 8 8 9 9 8 8 9 8 8 8 9 9 9 8 8 9 8 8 9 9 8 8 9 8 9 9 9 8 9 8 9 8 9 9 9 9 9 8 9 9 9 9 8 9 9 9 9 8 9 10 9 9 9 9 9 9 10 9 9 9 8 8 9 9 9 9 9 9 8 9 9 9 8 9 9 9 9 9 9 9 9 10 9 9 10 9 9 10 10 9 9 10 9 9 9 10 9 9 9 10 10 9 8 10 9 10 9 10 9 9 9 9 9 9 9 8 9 9 9 9 9 9 9 9 9 9 9 8 9 9 9 9 9 9 9 8 9 9 8 8 8 9 9 8 9 9 8 8 9 8 9 9 8 9 9 8 8 8 8 9 8 8 9 8 8 8 9 8 9 8 9 8 8 8 8 8 8 8 7 8 8 8 8 8 8 8 8 7 8 8 7 8 7 8 8 7 7 8 7 8 7 7 7 8 8 8 7 7 7 8 7 7 7 7 7 8 7 8 7 7 7 7 7 7 7 7 7 7 8 7 7 7 7 8 7 7 7 7 6 7 7 7 7 7 7 7 7 7 6 7 7 7 7 7 7 7 6 7 7 6 7 7 7 7 6 6 6 7 7 7 7 6 7 7 7 6 6 7 6 6 6 7 7 7 7 6 7 6 7 6 7 6 6 7 6 6 7 6 7 6 6 6 6 6 6 6 7 5 7 6 6 6 6 6 6 6 7 6 7 6 6 0 
6 6 6 5 5 5 5 6 6 6 5 5 6 6 6 6 5 5 5 6 6 6 5 6 6 6 5 6 6 6 6 6 6 5 5 6 5 6 6 6 6 6 6 6 6 6 6 5 5 5 6 5 6 5 6 6 6 6 6 6 5 6 5 6 6 6 6 6 6 6 6 6 6 6 6 6 6 6 6 7 6 6 5 7 6 6 6 7 6 6 6 6 6 6 6 6 6 7 6 6 6 6 7 6 6 6 6 6 6 6 6 7 6 6 7 6 6 6 6 6 7 7 7 7 7 7 7 6 7 7 7 6 6 7 6 7 7 7 7 7 6 6 6 7 7 7 7 7 8 6 7 6 7 7 7 7 6 7 6 7 7 7 8 7 7 7 7 7 6 7 7 7 7 7 7 7 7 7 7 7 7 7 7 7 7 7 7 8 8 6 8 6 7 7 7 7 7 7 7 7 8 8 7 8 7 8 8 7 7 8 7 7 8 8 8 8 8 7 8 8 8 8 8 8 8 8 8 7 8 8 8 8 8 7 8 8 8 8 8 8 8 8 7 9 8 8 7 8 8 8 8 8 8 7 9 8 9 8 8 9 8 8 8 8 9 9 8 8 8 9 8 8 8 8 8 8 9 8 9 8 8 9 9 9 8 9 9 8 9 8 8 9 8 9 9 8 8 8 8 8 9 8 9 9 9 9 8 8 9 9 9 8 9 9 10 9 9 9 8 9 8 9 9 9 9 10 9 8 9 9 9 9 9 9 9 9 9 9 8 10 9 10 9 9 10 10 9 9 9 9 9 10 9 9 9 9 9 9 9 9 10 9 8 9 9 10 9 9 10 8 9 10 10 9 9 9 9 9 10 9 9 9 9 9 9 9 10 9 9 9 9 9 9 9 8 9 9 9 9 10 10 9 9 8 9 9 10 9 9 8 8 8 8 9 9 8 9 9 8 9 8 8 9 8 8 9 9 9 9 8 9 9 8 9 9 9 8 8 8 9 8 8 8 9 8 9 8 8 8 8 8 8 9 8 8 8 8 8 8 8 8 8 8 8 8 8 8 9 8 8 8 7 8 8 7 8 8 7 7 7 8 8 7 7 7 7 8 7 8 7 8 7 8 7 7 7 7 7 7 8 7 7 7 7 7 7 7 7 7 7 7 7 7 7 6 6 7 7 7 7 7 7 7 7 7 7 7 6 7 6 7 6 7 7 7 7 7 7 7 7 7 7 6 6 6 7 6 6 6 7 6 6 6 6 6 6 7 7 6 7 6 7 7 7 6 6 7 6 6 6 7 6 6 6 6 6 6 6 6 7 6 6 6 6 6 6 6 6 6 6 6 6 6 6 6 6 6 6 6 0 
5 6 5 6 5 6 5 6 5 6 6 5 5 6 6 6 5 5 5 5 6 6 6 5 6 6 6 6 6 5 6 6 7 6 6 6 6 6 6 6 6 6 6 6 6 6 6 6 6 6 6 6 6 6 6 5 6 6 6 6 6 6 6 6 6 6 6 6 6 6 5 6 6 6 6 7 6 6 6 6 6 6 6 6 6 6 6 6 6 6 5 6 6 6 6 6 6 7 6 6 6 7 6 6 6 6 7 6 6 6 6 6 7 7 7 6 7 6 7 6 7 7 6 6 7 6 6 6 6 7 6 7 7 6 7 7 7 6 7 7 7 7 7 7 7 6 7 6 7 7 7 7 7 7 6 7 7 7 6 7 7 7 7 7 7 7 7 8 7 8 7 7 7 6 7 7 7 6 7 6 7 7 7 7 8 7 7 7 7 6 7 8 7 7 7 8 7 7 7 7 7 8 7 8 8 8 8 7 8 8 8 7 7 8 8 8 8 7 8 7 8 7 7 8 8 7 8 8 8 8 8 8 8 7 8 8 8 8 8 7 8 8 8 8 8 8 8 8 8 8 8 8 8 8 8 8 7 8 8 9 8 8 8 8 8 8 8 8 8 8 9 8 9 9 8 8 8 8 9 8 8 8 9 8 8 9 8 9 8 9 8 8 9 9 9 9 9 9 9 9 8 9 9 8 9 9 9 8 8 9 9 9 8 9 9 9 9 9 9 9 9 9 9 9 9 9 9 9 9 8 9 9 8 9 9 9 8 9 10 9 9 9 10 9 8 9 9 10 9 10 9 9 10 9 9 9 9 9 10 9 10 9 9 10 9 9 9 10 9 9 10 9 9 10 10 9 10 10 9 9 9 9 9 10 9 8 10 9 9 9 10 9 9 9 9 9 9 10 9 9 9 9 9 9 9 9 9 8 9 9 9 9 9 9 9 9 9 9 8 9 9 8 8 8 9 8 9 8 9 9 9 8 8 8 8 9 9 8 8 8 8 8 8 9 8 8 8 7 8 8 8 8 8 8 8 8 9 8 8 8 8 7 8 8 8 8 8 8 8 8 8 8 7 8 8 8 8 8 8 7 7 7 7 8 7 8 8 8 7 7 7 7 8 7 7 7 7 7 7 7 7 8 7 7 7 7 7 7 7 7 7 7 7 7 7 7 7 7 7 7 7 8 7 6 6 7 7 7 7 7 7 7 7 6 7 7 7 7 7 7 7 7 7 6 7 7 7 7 6 7 6 6 7 6 6 7 6 6 6 6 6 6 7 6 6 6 6 7 6 7 7 6 7 6 6 6 6 6 6 6 7 7 6 7 6 7 5 6 6 6 6 6 6 6 6 6 6 6 6 0 
5 6 5 6 5 6 6 5 6 6 5 6 6 6 5 6 5 6 6 6 6 5 6 6 6 6 5 5 6 6 6 5 6 6 6 6 6 6 6 6 6 6 6 6 6 6 6 6 6 6 5 6 6 5 6 6 6 6 6 6 5 6 6 6 6 6 6 6 6 6 6 6 6 6 6 7 6 6 6 6 6 6 7 6 6 6 6 6 7 6 6 6 6 6 6 6 7 7 6 6 6 6 7 7 7 6 6 6 6 7 6 6 6 6 7 6 6 6 6 6 7 6 6 7 7 6 7 7 7 7 6 7 7 7 7 6 7 6 7 7 7 7 7 7 7 6 7 7 7 7 7 7 7 7 7 8 7 7 7 7 7 7 7 8 7 7 7 7 7 7 7 7 7 7 7 7 7 7 8 7 7 7 7 7 7 7 7 7 8 8 7 7 7 6 7 8 7 8 7 8 7 8 7 7 8 8 7 7 8 7 7 8 8 7 7 8 7 7 7 8 8 8 8 8 7 8 8 8 8 8 8 8 8 8 8 9 8 8 9 7 7 8 8 8 7 8 8 8 8 8 8 8 8 8 8 8 8 8 8 8 9 8 9 8 8 8 9 9 8 8 9 9 8 9 8 8 8 8 9 8 8 8 9 9 9 8 8 8 9 9 9 9 9 9 9 8 8 9 9 8 9 9 9 9 9 9 8 9 9 9 9 9 9 9 9 9 9 9 9 9 9 10 9 9 9 10 9 9 8 9 10 9 9 9 9 9 10 9 9 10 9 9 9 9 9 9 9 9 9 9 9 9 10 9 9 9 9 9 9 10 10 10 10 9 9 9 9 9 9 9 10 9 9 9 9 9 10 10 10 9 10 10 9 9 9 9 9 10 10 8 10 9 9 10 9 9 10 10 9 8 10 9 9 11 9 9 9 10 9 9 9 10 9 8 9 10 8 9 9 9 9 9 9 8 9 9 9 8 8 9 8 8 8 8 9 8 9 9 8 8 8 9 9 9 8 9 8 8 7 8 8 8 9 8 9 8 8 8 8 8 8 8 8 8 8 7 8 8 8 7 8 8 7 8 8 8 8 8 8 7 8 7 8 8 7 8 8 7 7 7 7 7 7 8 7 7 8 8 7 7 8 8 7 7 7 7 7 7 8 7 7 7 7 7 7 7 7 7 7 7 6 7 7 7 7 7 7 7 6 6 7 7 7 8 6 7 7 7 6 6 7 7 6 7 6 7 7 7 7 7 6 7 7 6 7 7 7 7 6 6 6 6 7 7 6 7 7 6 6 6 6 6 6 7 6 7 6 6 6 6 6 7 6 6 6 6 6 6 6 6 6 6 7 6 6 6 6 6 6 0 
5 5 5 6 6 5 6 6 6 6 6 5 6 6 6 6 5 6 5 5 5 6 5 5 5 6 6 6 6 5 6 5 6 6 5 6 5 5 5 6 6 6 6 6 5 6 6 6 6 6 6 6 6 6 6 6 6 6 6 6 6 6 6 6 6 6 6 6 6 6 6 6 6 6 7 6 6 6 7 6 6 6 6 6 6 7 6 6 6 6 6 6 6 6 7 6 6 6 6 6 7 6 6 7 7 6 6 6 6 6 7 7 6 7 6 7 6 7 7 7 6 6 7 7 6 7 7 6 7 6 6 6 7 6 6 7 6 7 7 7 7 7 7 6 7 7 7 7 7 6 7 7 8 6 7 6 7 7 7 7 7 7 7 7 7 7 7 7 7 7 7 7 7 8 7 7 8 7 7 7 7 7 7 7 7 7 8 8 7 7 8 8 7 7 7 7 7 8 8 8 7 8 7 8 7 8 8 7 7 8 7 7 7 8 8 7 8 8 7 7 8 7 8 8 7 7 8 8 7 7 7 8 8 8 7 8 8 8 7 8 8 8 8 8 8 9 8 7 8 8 9 8 8 8 9 8 8 8 8 9 9 8 8 9 8 8 8 9 8 8 8 8 8 8 8 8 8 9 9 9 9 9 8 8 8 8 9 8 9 9 9 9 8 9 9 9 9 8 9 9 9 8 9 9 10 8 9 9 9 9 9 9 9 9 8 8 9 8 9 9 9 9 10 9 9 10 9 9 9 10 9 10 9 10 9 9 9 10 9 10 9 9 9 9 9 10 10 9 9 9 10 9 9 9 9 9 10 9 9 10 9 10 9 9 9 10 10 9 10 9 10 9 9 9 9 9 10 9 9 9 9 9 9 9 10 10 9 10 10 9 9 9 9 9 10 9 9 10 10 10 9 9 8 10 9 9 9 9 9 9 9 9 9 9 10 9 9 9 9 10 9 9 8 10 9 9 8 9 9 9 8 9 9 9 9 9 8 9 8 9 9 8 8 9 8 9 8 8 9 8 8 8 9 8 9 8 8 8 8 8 8 8 7 8 8 8 8 8 8 8 7 8 8 8 8 8 7 7 8 8 8 7 7 8 7 8 7 8 8 7 8 8 7 7 7 7 7 8 7 7 7 7 8 7 7 7 7 7 7 7 7 7 7 8 8 7 8 7 7 7 7 7 7 7 7 7 7 7 6 7 7 7 6 7 6 7 7 7 6 7 7 7 7 7 7 6 6 7 6 7 6 7 7 7 7 7 7 6 7 6 6 6 7 7 6 7 6 6 7 7 6 7 7 6 7 6 6 6 6 6 6 6 6 6 6 6 6 6 6 6 6 6 6 7 6 7 6 7 6 0 
5 5 6 6 6 5 6 6 5 6 6 6 6 5 6 6 6 6 6 6 5 5 6 6 6 6 5 6 6 6 6 5 6 6 5 6 6 6 6 6 6 6 6 6 6 6 6 6 6 6 6 6 6 6 6 5 6 6 6 6 5 6 6 6 7 6 6 6 6 5 6 6 6 6 6 6 6 6 6 6 6 6 6 6 6 6 6 6 6 6 6 6 6 6 6 7 6 7 6 6 6 7 6 7 6 6 6 7 6 7 7 7 6 6 7 6 6 6 7 7 6 7 7 7 7 6 7 7 6 7 7 7 7 7 6 7 7 7 6 7 7 6 7 6 7 7 7 6 6 7 7 6 7 7 7 7 7 7 7 7 6 7 6 7 7 7 7 7 7 7 6 7 8 7 7 7 7 7 8 7 7 7 8 7 7 7 7 7 7 8 8 7 7 8 7 7 8 7 7 8 7 7 7 8 8 7 7 8 7 7 7 8 8 7 8 8 8 8 8 8 8 8 8 8 8 8 8 8 8 8 7 8 8 8 8 8 8 7 8 8 8 8 8 9 8 8 8 8 9 8 9 8 8 8 8 8 8 8 8 8 8 8 8 8 8 9 8 8 8 8 10 9 8 8 8 8 8 9 9 8 9 9 9 9 9 8 9 10 8 9 9 9 8 8 9 9 8 10 9 9 9 9 8 9 9 8 9 9 9 9 9 8 9 9 9 9 9 9 9 9 8 9 9 9 10 9 9 9 9 9 9 9 10 9 10 10 9 10 9 10 9 9 10 10 9 9 10 9 9 9 10 9 10 10 9 9 9 9 10 10 10 10 8 10 10 9 9 9 10 9 9 10 9 10 9 9 10 10 10 9 10 10 9 10 10 9 10 9 10 9 9 10 9 9 10 9 10 10 9 9 9 9 9 9 9 9 10 9 9 9 9 10 9 9 9 9 9 9 9 10 9 8 9 9 10 10 9 9 10 8 9 9 8 9 9 9 8 9 8 8 8 9 8 8 9 8 8 8 8 8 8 9 8 8 8 8 8 8 8 8 8 8 8 8 8 8 8 7 8 8 8 8 7 8 8 7 7 8 8 7 7 8 7 8 8 7 7 8 7 7 8 7 7 7 7 7 7 8 8 8 8 8 8 7 7 8 7 8 7 7 7 7 7 6 7 8 6 7 7 7 7 7 7 7 7 7 7 7 7 7 7 7 7 6 7 6 6 6 7 7 7 7 7 7 7 7 7 7 7 6 7 7 6 6 7 6 7 6 6 6 7 7 6 6 7 7 7 7 7 7 6 6 7 6 6 6 6 6 6 6 6 6 6 6 6 6 6 6 6 6 6 6 6 6 5 6 6 6 6 0 
6 5 5 5 6 6 6 5 6 5 6 6 6 5 5 6 6 6 6 6 6 6 6 6 6 6 6 6 6 6 6 6 6 6 6 6 6 6 6 6 6 6 6 6 6 6 6 6 5 5 7 6 6 6 6 7 6 6 6 6 6 6 5 6 6 7 6 6 6 6 5 6 6 6 6 6 6 6 6 6 6 7 7 6 6 6 6 7 6 6 6 6 6 6 6 6 6 6 6 6 6 6 6 6 6 6 6 7 6 7 6 6 6 6 6 7 7 7 7 6 7 7 7 6 6 7 7 6 7 7 7 6 6 7 7 7 7 6 7 7 7 6 6 7 7 6 6 7 7 6 7 7 7 6 7 7 7 6 7 7 7 7 7 7 7 7 7 7 7 7 7 7 8 7 7 7 7 7 7 8 7 7 7 7 7 7 7 7 7 7 7 7 7 7 7 7 7 7 8 7 7 8 8 8 7 7 8 8 8 7 7 8 8 8 8 8 8 8 7 8 7 7 8 8 8 8 8 8 8 8 8 8 8 8 8 8 8 8 8 8 8 8 8 8 8 8 8 8 8 8 8 8 8 8 9 8 8 8 9 8 8 8 8 9 8 9 9 8 9 9 9 8 9 9 9 8 8 8 9 9 8 9 9 9 9 9 8 9 9 9 8 9 9 8 9 8 9 8 9 9 9 9 9 8 9 9 9 9 9 9 9 8 9 9 9 9 9 9 9 10 9 10 9 9 9 9 10 9 9 9 9 9 10 10 10 9 9 9 9 9 9 9 9 9 10 10 10 9 9 10 9 10 9 10 10 10 10 9 10 10 10 10 9 10 10 9 9 9 10 10 9 10 10 10 10 9 9 11 9 10 9 10 9 10 9 10 9 9 9 10 9 9 9 9 9 10 9 10 9 9 9 10 9 9 10 9 9 9 9 10 9 9 9 9 10 9 9 10 9 9 9 9 9 8 9 9 9 9 9 9 8 9 9 9 9 9 9 9 9 9 9 9 9 8 8 8 8 8 8 8 9 8 8 8 8 8 8 8 8 8 8 8 8 8 8 8 8 8 8 8 8 8 8 8 8 7 8 8 8 7 8 8 8 7 8 8 8 8 7 8 8 8 8 7 8 8 7 8 7 7 7 7 7 7 7 7 7 7 7 7 7 7 7 7 6 7 7 7 7 7 7 7 7 7 8 7 7 6 8 7 6 7 8 7 7 7 7 7 7 7 7 7 7 7 6 6 7 7 7 6 6 7 7 7 6 6 6 7 7 7 6 7 6 6 6 6 7 6 6 6 7 7 6 7 6 7 6 6 7 6 6 6 7 6 6 6 6 6 6 6 6 6 6 6 6 6 6 6 6 0 
6 5 6 5 5 6 5 5 5 6 5 6 6 5 5 6 6 6 5 6 6 7 6 5 6 6 6 6 6 6 6 6 6 6 6 6 6 7 6 5 6 6 6 6 6 5 6 6 6 6 6 6 6 6 6 6 6 6 6 6 6 6 6 6 6 6 6 6 6 6 6 5 6 7 6 6 6 6 6 6 6 6 6 7 6 7 6 6 6 6 7 6 6 6 6 6 6 6 6 7 6 7 6 7 7 6 7 7 6 6 6 6 7 6 7 7 6 7 7 6 7 7 6 6 6 7 7 7 7 7 7 7 6 6 7 7 7 7 7 7 7 7 7 6 7 7 7 7 7 7 6 7 7 8 8 7 7 7 7 7 7 7 7 7 7 7 8 7 6 7 7 7 7 7 7 7 7 8 7 7 8 8 7 7 8 7 7 7 7 8 8 7 8 8 7 8 7 8 7 8 8 8 7 8 7 7 8 8 7 8 7 8 8 8 8 8 8 8 8 7 8 8 8 8 7 8 8 8 8 8 8 8 8 8 7 9 8 7 8 9 8 8 8 8 8 8 8 9 9 9 8 8 8 8 8 8 8 9 9 8 9 8 8 8 9 9 8 8 8 8 9 9 9 9 9 8 8 9 9 9 9 8 9 9 9 9 8 8 9 9 8 9 9 9 8 9 10 9 9 9 9 9 9 8 9 9 9 9 9 9 10 10 9 9 9 9 9 10 9 10 9 9 9 8 9 9 8 10 10 10 10 9 9 9 9 10 10 8 9 10 10 9 10 9 9 10 9 9 9 10 10 10 10 9 9 10 8 9 9 9 10 9 10 9 9 10 9 10 10 10 10 9 9 10 9 10 10 9 9 10 10 9 10 10 10 10 10 10 9 10 9 10 8 10 10 10 10 10 10 9 9 9 10 9 9 10 9 9 9 10 9 10 10 9 10 10 10 9 9 9 9 9 9 8 9 10 9 9 9 9 10 9 9 9 8 9 9 9 9 8 9 9 8 9 8 9 9 9 8 9 8 8 8 8 8 8 9 8 9 9 8 8 8 8 8 8 8 8 9 8 8 8 8 8 8 8 8 8 7 8 8 8 8 8 8 7 7 7 7 8 7 7 8 8 8 7 7 7 7 7 7 7 7 7 7 7 7 7 8 7 7 7 7 7 7 6 6 7 7 7 7 7 7 7 7 7 7 7 7 7 6 6 7 7 8 7 7 7 6 7 6 7 7 7 7 6 7 7 6 6 6 7 6 6 7 7 7 7 7 7 6 7 6 6 6 6 6 7 7 6 7 7 6 7 7 6 7 6 6 7 6 6 6 7 6 6 6 6 6 6 6 6 6 6 6 6 6 6 7 0 
5 5 6 6 6 5 6 6 6 5 6 6 6 6 6 6 6 6 5 5 6 6 6 5 5 6 6 6 6 6 5 5 6 6 6 6 5 6 6 6 6 6 6 6 6 6 6 6 6 6 5 6 6 6 6 6 6 6 6 6 6 6 6 6 7 6 6 6 6 6 5 6 6 6 6 6 6 6 6 6 6 6 6 6 6 5 6 6 6 7 7 6 6 6 6 6 6 6 6 7 6 6 6 7 7 7 6 6 6 6 7 7 6 6 6 6 6 6 7 6 6 7 6 7 6 6 7 6 7 7 7 6 7 7 6 7 6 7 7 7 6 8 7 7 7 6 7 6 7 7 7 6 7 6 7 7 7 6 7 7 7 7 7 7 7 7 7 7 7 7 7 7 8 7 6 7 7 7 7 7 7 7 7 8 7 8 7 7 7 7 7 7 7 8 8 7 8 8 8 8 8 8 8 7 7 7 7 8 7 7 8 8 7 8 8 8 8 8 8 8 8 7 8 8 8 8 8 8 7 8 8 7 8 8 8 8 8 8 8 8 8 8 8 9 9 8 9 8 8 8 9 8 9 7 8 8 9 8 8 8 8 9 8 8 9 8 8 8 9 8 8 8 9 9 8 9 9 9 8 9 9 8 9 9 9 8 9 9 8 9 9 9 9 9 9 8 9 9 9 9 9 9 9 8 9 9 9 9 9 9 9 10 10 9 10 9 9 9 9 9 9 9 9 9 9 10 9 9 9 9 10 9 10 10 10 9 10 10 9 9 10 9 9 10 10 10 10 10 10 9 10 9 10 10 10 11 10 10 10 9 9 9 10 9 9 10 10 10 10 9 10 9 10 10 10 10 9 10 9 9 9 10 10 10 10 10 9 10 9 9 9 9 10 10 10 10 10 10 9 10 9 10 9 10 10 9 9 10 10 9 10 10 10 9 10 9 9 9 9 10 9 9 9 9 10 9 9 9 9 9 8 9 8 9 9 8 9 9 9 9 9 9 8 9 9 9 9 8 8 9 8 9 8 8 9 9 9 8 9 9 8 8 8 8 8 8 8 8 9 8 8 8 8 8 8 8 7 8 8 8 8 8 8 7 7 8 7 8 8 7 7 7 7 8 7 7 7 7 7 7 7 7 7 7 8 7 8 7 7 8 7 7 6 7 7 7 7 8 7 7 7 6 7 7 7 7 7 7 7 7 7 7 7 7 7 7 7 7 7 7 7 7 7 7 7 7 7 7 7 6 6 6 7 7 6 6 7 6 7 7 6 7 7 7 6 6 6 6 6 6 6 6 6 6 7 6 6 7 6 6 6 6 6 6 6 7 6 6 7 6 6 6 7 6 6 6 6 6 6 0 
5 5 6 6 6 5 6 6 6 5 5 5 6 6 6 6 5 6 6 6 5 6 6 5 6 6 6 6 6 6 6 6 6 6 6 5 6 5 6 5 6 6 6 6 6 6 6 6 6 6 6 6 6 6 6 6 6 6 7 6 5 7 6 6 6 5 6 6 6 6 6 6 6 6 7 6 6 6 6 6 6 6 6 6 7 6 6 6 6 6 6 7 6 6 6 6 6 6 6 7 7 6 7 6 6 6 7 7 6 7 6 6 7 6 6 6 6 6 7 7 6 6 6 6 7 7 6 7 7 7 7 7 7 7 7 7 6 7 6 7 7 6 6 7 7 7 7 7 7 7 7 8 7 7 7 7 7 7 7 7 7 7 7 7 7 6 7 7 7 8 7 7 7 7 7 7 8 7 8 7 7 7 7 7 7 8 7 7 7 8 7 7 8 7 7 8 8 8 8 7 7 7 7 8 7 7 8 8 7 7 8 7 8 8 8 8 8 8 9 8 8 8 8 8 8 8 8 8 8 8 8 8 8 8 8 8 8 8 9 8 8 8 8 8 8 8 9 8 8 8 8 9 8 8 9 8 8 8 8 8 8 9 9 9 8 9 8 9 9 8 8 9 9 9 9 8 9 9 9 8 10 8 8 9 9 9 9 9 9 9 8 9 9 9 9 9 9 9 9 9 9 9 9 9 9 9 9 9 9 9 9 9 10 8 9 9 10 10 10 9 10 9 9 10 9 10 9 9 9 10 9 9 9 9 10 10 9 10 10 10 9 11 10 9 9 10 10 9 9 10 10 9 9 9 10 10 10 10 9 10 10 10 10 10 10 10 10 10 10 10 10 10 10 10 9 10 10 10 10 10 10 9 10 10 10 10 10 9 11 10 10 9 9 10 10 10 10 10 9 10 9 9 10 9 9 10 9 10 10 10 10 10 10 9 9 9 9 8 10 10 9 9 9 10 9 9 9 9 9 9 9 9 9 9 8 9 8 10 9 9 9 9 9 9 8 8 9 9 8 8 8 9 9 10 8 8 8 9 9 9 8 8 8 8 8 8 9 8 8 8 8 8 8 8 8 8 8 8 8 8 8 8 8 7 8 8 7 8 8 8 7 8 8 8 7 7 6 8 7 8 7 7 7 7 7 7 8 7 7 7 7 7 7 7 8 7 7 7 7 7 7 7 8 7 7 7 7 7 7 7 7 6 7 6 7 7 7 7 7 7 7 7 7 7 7 7 7 7 6 7 7 7 7 6 7 6 7 7 6 6 6 7 7 6 6 6 6 7 7 6 6 6 6 6 7 6 6 6 6 6 6 6 7 7 6 6 6 7 6 7 6 6 6 6 6 6 6 6 6 0 
6 6 6 5 6 6 5 5 6 5 5 6 6 6 5 5 5 6 6 5 5 6 6 6 5 6 6 5 6 6 6 6 6 6 6 6 6 6 6 6 6 5 6 6 6 6 6 5 6 6 6 6 5 6 6 6 6 6 5 6 5 6 6 6 6 6 6 6 6 6 6 6 5 6 6 6 6 7 6 6 6 6 6 6 6 6 6 6 6 6 6 7 6 7 6 6 6 6 6 6 7 7 6 7 6 6 7 6 7 7 6 6 7 6 6 7 7 7 6 6 7 7 7 7 6 7 6 6 7 7 7 7 7 7 7 7 7 7 7 6 7 7 7 7 6 8 7 7 7 7 7 7 7 7 7 7 7 7 7 6 6 7 7 7 7 7 7 7 7 7 7 7 7 8 7 7 7 7 8 7 8 7 7 8 7 8 7 7 7 7 7 7 7 8 7 8 7 7 8 8 8 8 8 7 7 8 7 7 8 8 8 8 7 7 8 8 8 7 7 8 8 9 7 7 8 8 7 8 8 8 8 9 7 8 8 8 8 8 8 8 8 8 8 8 8 8 8 8 8 7 9 9 8 9 8 9 8 9 9 9 9 9 8 8 9 8 9 9 8 9 9 9 9 9 9 9 9 8 8 9 9 9 9 8 9 10 10 9 9 9 9 9 9 9 10 9 9 9 9 9 9 9 9 9 9 10 9 9 10 9 10 10 9 10 9 9 9 9 9 9 10 9 10 9 9 10 10 9 9 9 9 9 10 10 10 9 10 10 10 9 10 9 9 10 9 10 10 9 10 10 9 10 9 10 9 10 10 10 10 10 10 11 10 10 10 10 10 10 10 10 10 10 10 10 10 10 10 10 10 10 10 10 10 10 10 10 10 10 10 9 9 9 10 10 9 10 9 9 9 10 10 9 10 9 10 10 10 10 10 10 9 10 10 10 9 9 9 9 9 9 10 10 9 10 9 9 9 9 10 9 9 9 9 9 9 9 10 9 9 9 9 9 9 9 9 8 9 9 9 9 9 9 9 8 9 8 9 9 9 9 8 8 8 8 8 8 9 8 9 8 7 8 8 8 8 8 8 8 7 8 7 8 8 8 8 7 8 7 9 7 8 8 7 8 8 8 8 7 7 7 8 8 7 8 8 7 7 7 7 7 7 7 7 8 7 7 8 7 7 7 7 7 7 7 7 7 7 8 7 7 7 7 7 7 7 7 7 7 7 6 6 6 6 7 7 7 7 7 7 7 7 7 7 6 7 6 7 6 7 7 7 6 7 6 6 6 6 6 6 7 6 6 7 7 6 6 6 6 6 7 6 7 6 6 6 6 7 6 7 6 6 7 6 6 6 6 6 7 6 0 
5 6 6 5 6 6 6 6 5 6 6 6 5 5 5 6 6 6 6 6 6 6 5 6 6 5 6 6 6 6 5 6 5 6 5 6 5 6 6 6 6 5 6 6 6 6 6 6 6 6 6 6 6 6 6 6 6 6 6 6 6 6 6 6 6 6 5 7 6 6 6 6 6 6 6 6 7 6 6 7 6 6 6 7 6 6 6 6 6 7 6 6 6 7 6 6 6 6 6 6 6 6 6 6 6 6 6 6 7 6 6 6 6 7 7 7 6 7 7 7 7 6 6 6 6 6 7 7 7 7 7 7 6 6 7 6 7 7 7 7 7 7 7 7 7 7 7 7 7 7 7 7 7 7 7 8 7 8 7 7 7 7 7 7 7 7 7 7 7 7 7 7 8 7 7 7 7 8 7 8 7 8 7 7 7 7 8 7 7 8 7 8 7 8 8 8 8 8 7 8 8 7 8 9 8 7 8 8 8 8 8 8 8 7 8 7 8 7 8 8 8 8 8 8 8 8 8 9 8 8 7 9 8 9 8 8 8 8 9 9 8 8 9 8 8 8 8 8 8 8 9 8 9 8 9 8 9 8 9 8 9 8 9 9 10 9 9 9 9 9 9 8 9 9 8 9 9 9 8 9 9 8 8 8 8 8 9 10 9 9 9 8 10 9 9 9 9 9 9 10 9 9 10 10 8 9 9 10 10 9 9 9 10 9 10 9 9 10 9 9 9 9 9 9 9 10 10 9 10 10 9 10 9 10 9 10 9 9 9 10 9 10 10 10 10 9 10 10 9 10 9 9 9 10 10 10 11 10 10 10 10 10 10 10 10 10 11 10 10 9 9 9 10 10 10 10 11 11 9 10 10 10 10 10 11 10 10 10 10 10 10 10 9 10 10 9 10 10 9 10 10 9 10 10 10 10 9 9 10 10 10 10 10 10 11 9 10 10 9 9 10 9 9 10 9 10 9 9 9 10 9 9 9 9 9 8 9 9 9 9 9 9 9 9 9 9 9 9 9 8 8 9 9 8 9 9 8 8 8 8 8 8 9 8 9 8 8 8 8 8 8 8 8 8 8 8 8 8 8 7 8 8 8 8 7 8 7 8 7 8 8 8 7 8 7 8 7 7 8 7 8 8 8 8 7 9 7 8 8 6 7 7 7 7 7 8 7 7 7 7 7 7 7 7 7 7 7 7 6 7 7 7 7 7 7 7 7 7 6 7 7 7 6 7 7 7 7 7 7 7 7 6 6 6 7 7 7 6 7 7 7 7 6 7 7 6 6 6 7 6 7 7 7 7 6 6 7 6 6 6 6 6 6 6 6 6 6 6 7 6 6 6 6 6 6 6 6 6 6 0 
6 6 6 5 5 5 5 6 6 6 6 6 6 5 5 5 5 6 5 6 6 6 5 6 6 6 6 5 5 5 6 6 6 6 6 7 6 6 6 6 5 6 6 6 6 6 6 6 6 6 6 6 6 6 6 6 6 6 6 6 6 6 6 6 7 7 6 6 6 6 6 6 7 6 6 6 6 6 6 6 6 6 6 6 7 6 7 6 6 7 6 6 6 7 7 6 6 6 7 6 7 6 6 6 7 6 7 6 6 7 7 6 6 6 6 7 7 6 7 6 6 6 7 6 6 6 7 7 7 7 7 7 6 7 7 7 7 7 6 7 7 7 6 7 7 7 7 7 7 7 7 7 7 6 7 7 7 7 7 8 7 7 7 7 7 8 7 7 8 8 8 7 7 7 8 7 8 7 7 7 7 8 7 7 8 8 7 7 7 8 7 7 8 8 7 8 8 8 9 8 7 8 8 7 8 8 8 8 8 8 8 8 8 8 8 8 8 8 8 8 8 8 9 8 8 8 7 8 8 8 8 9 8 8 9 8 8 8 8 9 9 9 8 8 9 8 9 8 8 8 8 8 9 8 8 8 8 9 8 9 8 9 9 8 8 9 9 9 9 9 9 8 9 9 8 9 9 9 9 8 9 9 9 9 9 9 9 9 10 9 9 9 9 9 9 9 9 9 9 9 9 9 8 9 9 9 10 9 9 9 9 10 9 9 10 9 10 9 10 9 10 10 10 10 10 10 9 10 10 10 10 9 10 10 10 10 10 10 9 10 9 10 10 10 10 10 10 10 10 9 11 10 10 10 10 10 10 10 10 11 10 9 10 10 9 10 10 10 11 10 10 10 10 11 10 10 11 10 10 10 10 10 10 10 10 10 9 10 10 11 10 10 10 10 10 11 10 10 11 10 10 10 9 9 10 10 10 10 10 10 10 9 10 9 10 10 10 10 9 9 9 10 9 10 9 9 9 9 9 9 10 8 9 9 9 9 9 9 9 9 8 10 9 9 9 9 9 8 9 9 9 8 9 9 9 9 8 8 9 8 9 8 9 8 8 8 8 8 9 8 8 8 9 8 9 8 8 8 8 8 8 8 8 8 8 8 7 7 8 7 7 8 8 8 8 8 7 8 8 7 8 8 8 7 7 8 7 7 7 8 8 7 7 7 7 7 7 7 7 7 7 7 8 7 6 7 7 7 6 7 7 7 6 7 7 7 7 7 7 7 7 7 7 7 7 7 7 6 6 6 7 7 7 7 6 6 6 7 7 7 6 6 6 6 6 6 6 6 6 7 7 6 6 7 7 6 6 6 7 6 6 7 6 6 6 6 6 6 6 6 6 6 6 6 6 6 6 6 6 0 
6 6 5 6 5 5 5 6 6 6 6 6 5 6 6 6 6 5 6 6 6 6 6 5 6 6 6 5 6 6 6 6 5 5 6 6 6 6 5 5 6 6 6 6 6 6 6 6 6 6 5 6 6 6 5 6 6 6 6 6 6 6 6 6 6 6 6 6 6 6 6 6 6 6 6 6 6 6 6 5 6 6 6 6 6 6 6 6 6 7 6 7 6 6 7 6 7 6 6 6 6 6 6 6 6 7 6 7 7 6 7 6 7 6 7 6 6 6 7 7 6 6 6 7 7 7 6 7 6 7 7 7 7 6 7 7 7 7 7 7 7 7 6 7 7 7 7 7 7 7 7 7 7 7 7 7 7 7 7 7 7 7 8 7 7 7 8 8 7 7 7 7 7 7 7 7 7 8 7 8 8 8 7 7 7 8 8 7 7 7 7 8 8 7 8 7 8 7 8 8 8 7 8 8 8 8 8 8 8 8 8 8 8 8 8 8 8 8 8 8 8 8 7 8 7 8 8 8 8 8 8 8 9 8 9 8 8 8 7 8 8 8 9 8 8 8 8 9 9 9 9 9 8 9 8 9 8 9 9 9 9 8 9 8 9 8 9 9 9 9 9 9 10 10 9 9 9 9 9 9 9 9 9 10 9 8 9 9 10 9 9 9 9 9 10 9 9 9 9 9 9 9 9 9 10 9 10 9 10 9 9 9 9 9 10 9 10 9 9 10 9 9 10 10 10 10 9 9 9 10 10 9 10 9 10 10 10 10 10 10 10 10 10 11 10 10 9 10 10 10 9 10 10 11 10 10 10 10 10 10 11 11 10 10 10 11 11 11 10 10 10 10 10 10 10 10 10 10 10 10 10 10 10 10 10 10 10 10 10 10 10 10 10 10 10 10 10 10 10 10 10 10 11 10 10 10 10 10 10 10 10 11 10 10 10 11 11 9 11 9 10 9 10 10 9 9 10 10 9 9 10 9 10 8 9 9 9 10 10 9 9 9 9 10 8 9 9 8 9 9 9 9 9 9 8 8 8 8 8 8 9 8 9 8 8 8 8 8 8 8 9 8 8 8 8 8 8 8 8 8 8 8 8 8 7 8 7 8 8 8 8 8 7 8 8 8 7 7 8 7 7 7 8 8 7 8 6 8 7 8 8 8 7 8 7 8 7 7 7 7 7 8 7 8 7 7 7 7 7 8 7 7 7 7 7 7 7 7 6 7 7 7 7 7 7 7 7 6 7 6 7 7 7 7 7 7 7 7 7 6 7 6 7 6 6 7 7 7 6 7 6 6 7 6 7 7 6 6 7 7 6 6 6 7 6 6 6 7 6 6 6 6 6 6 6 6 6 7 6 0 
6 5 6 6 6 6 6 5 6 5 5 6 6 6 5 5 5 5 6 6 6 6 6 6 6 5 6 6 6 6 6 6 6 6 6 6 6 6 6 6 5 6 6 6 6 6 6 6 6 7 6 6 6 6 6 6 6 6 6 6 6 6 6 6 7 6 6 6 6 7 7 6 6 6 6 6 6 6 6 6 6 6 6 6 6 6 6 6 6 6 6 6 6 7 7 6 6 6 7 6 6 7 6 6 6 7 6 6 6 6 6 7 7 6 7 7 7 7 7 7 6 7 7 7 7 8 7 7 6 7 6 7 7 7 7 7 6 6 7 7 7 7 7 7 7 7 7 6 7 7 7 7 7 7 8 7 7 7 7 7 7 6 7 7 7 7 7 7 7 7 7 7 7 7 8 7 8 7 7 8 7 7 8 8 7 8 8 8 8 8 8 7 7 7 8 8 7 8 8 8 7 7 7 8 8 8 8 8 8 8 8 8 8 8 8 8 8 8 8 8 7 8 8 8 8 8 8 8 9 9 9 9 8 8 9 9 8 8 9 8 9 8 8 8 9 9 9 9 9 8 9 8 9 8 8 9 9 9 8 8 9 9 9 8 9 8 9 9 9 9 9 9 9 9 9 9 9 9 9 10 9 9 9 9 8 9 9 10 9 9 9 9 9 9 9 9 10 9 10 10 9 10 9 9 9 9 9 9 9 9 9 10 9 10 9 9 9 10 9 9 10 10 10 10 9 9 10 9 10 10 10 10 10 10 9 9 10 10 11 10 11 10 10 10 10 10 11 10 10 10 10 10 10 10 10 11 10 11 10 11 10 11 10 10 11 11 10 10 11 11 10 11 10 10 10 10 10 11 11 11 10 10 10 10 10 10 9 10 10 9 10 11 10 10 11 10 10 10 10 9 11 11 10 11 10 10 11 10 11 10 10 10 11 11 12 10 10 10 9 10 10 10 10 10 9 10 9 9 9 9 9 9 9 9 9 10 10 10 9 9 9 9 9 8 8 9 9 9 9 9 9 8 9 9 8 8 8 9 8 9 9 10 9 8 8 9 8 9 8 8 8 8 8 8 8 8 8 8 8 8 8 8 8 8 8 8 8 8 8 8 8 8 7 7 8 8 8 8 7 8 8 7 8 8 8 8 7 7 7 8 7 7 7 7 7 7 8 7 7 7 7 8 7 7 7 7 8 6 7 7 7 7 7 7 7 6 7 7 7 7 7 7 7 7 7 7 7 7 7 7 7 6 6 7 6 6 7 7 6 6 7 7 7 7 6 7 7 6 7 6 6 6 6 6 6 6 7 6 6 7 6 6 6 6 7 6 6 6 7 6 6 6 7 6 6 6 7 6 6 0 
5 6 6 6 6 5 5 6 5 6 5 5 6 6 7 6 6 6 6 6 6 6 6 6 6 6 5 6 5 6 6 6 6 6 6 6 6 5 5 6 5 5 6 6 6 6 6 6 6 6 7 6 6 6 6 6 6 6 6 6 6 6 6 6 6 6 6 6 7 6 6 6 6 6 6 6 6 7 6 6 6 6 7 6 7 6 6 6 6 6 7 6 6 7 7 6 6 6 7 7 7 6 6 7 6 7 6 6 6 7 6 7 6 6 6 6 7 7 6 7 6 6 6 6 6 7 7 7 7 7 7 7 7 7 7 7 6 7 8 7 6 7 7 7 7 7 7 7 7 7 7 7 7 7 7 7 8 8 7 6 7 7 7 7 7 7 7 7 8 7 7 7 7 7 7 8 7 7 7 8 7 8 7 7 7 7 7 8 7 8 7 8 7 7 8 8 8 8 8 8 8 8 7 8 8 7 8 8 8 7 8 8 7 9 8 8 8 8 8 8 8 8 7 7 8 8 9 8 8 8 8 8 9 9 8 8 9 8 8 9 8 9 9 9 9 9 8 9 8 9 9 9 9 9 9 9 8 9 9 9 9 8 9 8 9 9 9 9 8 9 9 9 9 8 9 8 9 9 9 9 9 9 9 9 9 9 10 9 9 8 10 10 9 9 9 9 9 9 10 8 9 9 10 9 10 9 9 9 9 10 9 9 10 10 10 9 10 10 10 10 9 9 10 10 9 10 10 10 10 10 9 10 10 10 9 10 10 9 10 10 10 10 10 10 10 10 9 11 10 10 10 10 10 10 10 11 11 10 10 10 10 10 11 10 10 11 10 10 11 10 11 10 10 10 10 10 10 11 10 10 10 10 10 10 10 10 10 10 11 10 10 11 11 10 10 10 10 10 11 10 10 10 10 11 10 10 10 11 11 10 10 11 12 13 12 10 10 10 10 10 10 10 10 10 10 9 10 10 10 9 9 10 9 10 10 10 10 10 9 10 8 10 9 9 9 9 9 8 9 10 9 9 9 9 9 9 9 8 9 8 9 9 9 9 9 9 8 8 8 8 8 8 8 8 9 8 8 8 8 8 8 8 8 7 9 8 8 8 8 7 8 7 7 8 7 8 7 8 8 8 7 8 8 7 8 8 7 7 7 7 7 7 7 7 8 8 8 7 7 8 7 7 7 7 7 7 7 7 7 7 7 8 7 7 7 7 7 7 7 7 7 7 6 6 7 7 7 7 7 7 6 7 6 7 7 7 7 7 6 6 6 7 7 5 6 7 7 7 7 7 7 6 6 6 6 7 6 6 6 6 6 6 6 6 6 6 6 6 6 6 7 6 7 6 6 6 6 6 6 0 
6 5 6 6 6 6 5 6 6 6 5 6 6 6 6 5 5 5 5 6 6 6 6 6 6 6 6 6 6 6 6 5 6 6 6 6 6 6 5 6 6 6 6 6 6 6 6 6 6 6 6 6 6 6 6 6 6 7 6 6 6 6 6 6 6 6 7 6 6 6 6 6 5 6 6 6 6 7 6 6 6 6 6 7 6 6 7 6 6 5 6 6 6 6 6 6 6 6 7 7 6 6 6 7 6 7 6 7 7 6 7 7 6 7 6 6 6 7 6 6 7 7 6 6 7 7 7 7 7 7 7 6 7 7 7 6 7 7 7 7 7 7 7 7 7 7 7 7 7 6 7 7 6 7 6 8 7 7 7 7 6 7 7 7 7 7 7 7 8 7 7 7 7 7 7 7 7 7 7 8 7 7 7 7 7 8 7 8 6 8 7 7 8 8 8 8 7 8 7 8 7 8 8 8 8 8 8 8 8 7 8 8 8 8 8 8 8 7 8 8 8 8 8 8 8 8 9 9 8 8 8 9 8 8 8 9 8 8 9 8 8 8 8 8 8 8 8 8 8 9 9 9 9 9 9 9 8 9 9 9 8 9 9 9 9 9 9 9 9 9 9 9 9 9 9 9 9 10 9 9 9 9 9 9 9 9 9 9 9 10 9 9 9 9 9 9 9 9 9 9 9 9 9 9 9 10 10 10 10 10 10 9 10 10 10 10 10 9 10 10 9 10 9 10 10 10 10 9 10 10 10 10 9 11 10 11 10 10 10 10 9 9 9 10 10 10 10 11 11 10 10 10 11 10 10 10 10 10 11 11 11 10 11 10 11 11 11 11 10 11 10 11 11 11 10 11 11 11 10 11 10 11 11 10 10 11 10 10 11 10 11 10 11 11 11 9 10 10 11 10 11 10 10 10 10 10 10 11 10 10 11 13 14 17 13 12 11 10 11 10 10 9 10 9 10 9 9 10 10 10 9 11 9 9 9 10 9 10 10 10 9 9 9 10 9 10 9 10 9 9 8 9 9 9 8 9 9 8 9 9 8 8 9 8 9 9 9 9 9 9 8 8 8 7 8 8 9 8 8 8 8 8 8 8 8 8 8 8 8 8 7 8 8 8 8 7 7 8 7 8 8 7 7 8 8 8 7 8 8 7 8 7 7 7 7 7 8 7 8 7 7 7 7 8 8 7 7 7 7 7 7 7 7 7 7 7 7 7 6 7 7 7 7 7 7 7 7 7 6 7 6 6 7 7 6 7 7 7 7 7 7 7 6 6 7 6 7 6 7 6 7 6 7 6 6 7 7 7 7 6 6 6 7 7 6 7 6 6 7 6 6 6 6 6 6 6 6 7 6 0 
5 5 5 5 5 5 6 5 6 6 6 5 5 6 6 6 6 6 6 5 5 5 6 5 6 6 6 5 6 6 6 6 5 6 6 6 6 6 6 6 6 6 6 6 6 6 6 7 6 6 6 6 6 6 6 6 6 6 6 6 6 6 6 6 6 6 6 6 6 6 7 6 6 6 6 6 7 6 6 7 6 6 6 6 6 6 7 6 6 7 6 7 6 7 6 6 6 6 6 7 6 6 6 6 7 6 6 6 6 6 6 7 7 6 7 7 7 6 7 7 7 7 7 6 6 7 7 6 7 7 7 6 7 7 6 7 7 7 7 7 7 8 7 7 6 7 7 7 7 7 7 7 7 8 7 7 7 7 7 7 7 7 8 7 7 7 7 7 8 8 7 7 7 8 7 8 7 7 8 7 7 7 7 7 8 7 7 8 8 8 7 8 8 8 7 8 8 8 8 8 8 8 7 8 8 8 8 8 8 8 8 8 8 8 8 8 8 8 8 8 8 9 7 8 8 8 8 8 8 9 8 9 8 8 8 8 8 8 8 8 8 8 8 8 8 8 8 8 8 9 9 8 8 8 8 9 9 9 8 9 9 9 8 9 9 8 9 8 9 9 9 9 9 9 9 9 9 9 9 9 9 9 9 9 10 10 9 9 10 9 10 9 9 9 9 10 9 10 10 9 9 9 10 9 10 9 10 10 10 9 9 9 9 9 9 10 9 9 10 10 10 10 10 10 10 9 10 10 10 11 10 10 10 10 11 11 10 9 10 10 11 10 10 9 10 10 10 11 10 10 10 10 10 10 10 11 10 11 11 12 11 11 10 11 10 11 11 10 11 10 11 11 10 10 11 11 11 11 11 11 11 11 11 10 10 11 10 11 11 11 11 10 10 10 11 11 10 11 11 9 11 11 10 9 10 10 10 10 11 11 11 11 14 15 13 12 11 10 10 11 10 10 10 10 10 10 10 10 10 10 9 9 10 9 10 10 10 10 10 9 9 10 9 9 9 10 9 9 10 10 9 9 8 9 8 9 9 9 8 9 9 9 9 8 8 9 8 9 9 8 9 8 8 8 9 8 8 8 9 8 8 8 8 8 7 8 8 8 8 7 7 8 7 7 8 7 8 8 8 7 8 8 7 7 8 8 8 7 7 8 7 7 7 7 7 8 7 7 8 8 7 7 7 7 7 7 7 7 7 7 7 7 7 7 7 7 7 7 8 7 7 8 7 6 7 7 7 7 7 7 7 7 7 7 6 6 7 7 7 7 7 6 7 6 6 7 7 6 6 6 6 6 7 7 6 6 6 6 7 6 7 7 7 6 6 7 6 7 6 6 6 7 7 6 7 6 6 6 6 0 
6 5 5 6 6 5 6 5 5 6 5 6 6 6 5 6 6 6 6 6 6 5 6 6 6 6 6 6 6 6 6 6 6 6 6 5 6 6 6 6 6 6 6 6 6 6 6 6 7 6 6 6 6 6 6 6 6 6 6 6 6 6 6 6 6 7 6 7 6 6 6 6 6 6 6 6 6 6 6 6 6 6 6 7 6 6 6 6 6 6 6 6 6 7 7 6 7 6 6 7 6 7 7 7 7 7 6 7 6 7 7 7 7 7 7 7 7 6 7 6 6 6 7 7 7 7 6 6 7 7 7 7 7 7 7 7 7 6 7 6 7 7 7 7 7 7 7 7 7 7 7 7 7 7 7 7 7 7 7 8 7 8 8 7 6 7 7 8 7 8 8 8 7 7 8 8 8 8 7 7 7 8 8 7 7 8 7 8 8 8 8 8 8 8 8 8 7 8 8 8 7 8 8 7 8 8 8 8 9 8 8 8 8 8 8 8 8 8 8 9 8 8 8 9 8 8 8 8 8 8 8 9 8 8 8 9 9 9 9 8 8 9 8 9 8 8 8 9 8 9 9 9 9 9 9 8 9 9 8 9 8 9 9 8 9 9 9 9 9 9 10 9 9 9 9 9 8 9 9 9 10 9 9 9 10 9 9 9 9 9 9 10 9 10 9 9 9 9 9 9 10 9 10 9 10 9 10 10 9 10 9 10 9 10 9 9 10 10 10 9 9 10 10 10 10 10 10 10 11 10 10 10 10 10 10 11 9 10 10 10 10 10 10 10 11 10 10 11 10 10 10 10 10 11 11 11 10 11 11 11 11 11 11 10 11 11 11 11 11 11 11 11 11 11 10 11 11 11 11 11 10 10 11 11 12 11 10 10 11 11 10 10 10 10 10 11 10 10 10 10 10 10 10 11 11 10 10 11 11 11 11 12 14 13 14 12 12 11 10 10 10 10 10 10 10 10 10 10 10 10 10 9 10 10 9 10 10 10 10 9 9 9 9 9 9 9 9 9 10 9 9 9 9 10 9 8 9 9 8 8 9 8 8 9 9 8 9 9 8 8 8 8 8 8 7 8 8 9 8 8 8 8 7 8 8 8 9 8 8 7 8 8 8 8 8 8 8 8 7 8 8 8 8 8 7 7 8 8 8 7 8 8 7 8 7 7 8 8 7 7 7 8 7 7 7 7 7 7 7 8 7 8 7 8 6 7 7 7 7 7 7 6 7 7 7 8 7 7 7 7 6 7 7 6 7 7 6 7 7 7 7 7 7 7 7 6 6 7 7 7 7 6 6 6 7 6 6 6 6 6 6 7 6 7 7 7 6 7 6 7 6 6 6 6 7 6 6 6 6 0 
6 5 6 6 5 6 6 6 6 6 5 6 5 6 6 6 6 6 6 5 6 5 6 6 6 6 5 6 5 5 6 6 5 6 6 6 6 6 6 6 6 6 6 6 6 6 6 6 7 6 6 6 7 6 6 6 7 6 6 6 6 6 6 6 7 6 6 6 6 6 6 6 6 7 7 6 6 6 6 6 6 6 6 6 7 6 6 6 6 7 6 6 6 6 6 6 7 6 6 6 7 6 7 7 7 6 7 6 7 6 7 7 7 7 6 6 7 7 6 6 6 6 6 6 7 7 6 7 7 7 7 7 7 7 7 7 7 7 7 7 7 7 7 7 7 7 7 7 6 7 7 7 7 7 7 7 7 7 7 8 7 7 8 7 7 7 8 7 8 7 7 7 7 7 7 7 8 8 7 8 8 8 7 8 7 7 8 7 8 7 8 8 8 8 8 7 7 7 8 7 7 8 8 7 8 8 8 8 8 8 8 9 8 9 7 8 8 8 8 8 8 8 8 8 8 8 8 8 8 8 8 8 9 8 8 9 8 8 9 8 8 9 8 9 9 8 8 9 9 8 8 9 9 9 9 8 9 9 9 9 10 9 9 9 9 9 9 9 9 9 9 9 9 9 9 9 9 10 9 9 10 10 9 10 9 9 10 9 10 9 10 9 9 10 9 9 9 10 10 10 10 9 10 9 9 10 10 10 10 10 10 9 10 10 10 10 10 10 10 10 10 11 10 10 11 10 10 10 10 11 10 10 10 10 11 10 10 10 10 10 10 10 10 10 10 10 10 11 10 11 11 10 11 10 11 11 11 11 11 12 11 11 10 11 12 11 11 11 11 11 11 10 11 10 11 11 11 11 11 10 11 11 11 11 11 11 11 10 11 11 11 10 11 10 10 11 10 11 11 11 10 11 10 11 10 11 11 11 11 11 11 11 12 15 14 11 11 10 11 11 11 10 10 10 10 11 10 9 10 10 9 10 10 10 10 10 10 10 10 10 9 9 9 10 9 10 9 9 9 9 10 10 10 9 9 9 9 8 9 9 9 9 9 8 9 9 9 8 8 8 9 9 9 8 9 8 8 9 8 8 8 8 8 7 8 9 8 8 8 7 8 8 8 8 8 8 8 7 7 7 7 8 8 7 7 8 7 7 7 7 7 7 7 7 8 8 7 8 8 8 7 7 7 7 7 7 7 7 8 7 7 7 7 7 7 7 7 7 7 8 7 7 7 7 7 6 7 7 7 6 7 6 7 6 6 7 7 7 6 7 7 7 7 6 6 7 6 7 7 7 6 7 7 6 7 7 6 6 6 7 6 6 6 7 7 6 7 6 6 6 7 7 7 6 7 6 6 7 6 0 
6 5 5 6 5 6 6 6 6 5 6 6 6 6 5 6 6 5 6 6 6 6 6 6 6 6 6 6 5 6 5 5 6 6 6 6 6 5 6 6 6 6 6 6 6 6 6 6 6 6 6 6 6 6 6 6 6 6 6 6 6 6 6 6 6 6 6 6 6 6 6 6 6 6 6 6 6 6 6 6 6 6 6 6 6 6 6 6 6 6 6 7 6 6 7 6 6 6 6 7 6 7 6 6 6 7 6 6 6 7 5 6 6 7 7 6 6 7 7 7 7 7 6 7 6 6 7 6 7 7 7 7 7 7 7 7 7 7 7 7 8 7 7 7 7 7 7 7 7 7 7 7 7 8 7 7 7 7 7 8 7 7 7 8 7 7 7 7 8 7 7 7 7 8 7 7 8 8 7 7 7 8 7 7 8 8 7 8 7 8 8 8 8 8 8 7 8 8 7 8 8 8 8 8 8 9 8 8 8 8 8 8 8 8 8 8 8 8 8 8 8 9 8 8 8 8 8 9 8 8 8 9 8 8 9 9 8 8 9 8 8 9 9 9 8 8 9 8 9 9 9 8 9 8 8 10 8 9 9 8 10 9 9 9 8 10 9 9 9 9 9 9 9 9 9 9 10 9 9 10 9 10 10 9 9 10 9 9 10 10 10 10 9 10 9 9 10 9 9 10 9 10 10 9 10 10 10 10 10 9 11 9 10 10 9 9 10 10 10 10 10 10 11 10 10 10 11 10 10 10 10 10 11 10 11 10 11 10 11 11 11 10 11 10 11 11 11 10 10 11 11 11 11 12 11 11 11 11 11 11 11 12 11 11 11 11 11 11 11 11 12 11 11 12 11 11 11 10 11 11 11 11 11 11 11 11 11 11 11 11 11 11 11 12 11 10 10 11 10 10 12 10 11 10 11 10 11 10 11 11 10 11 11 11 11 11 11 11 11 9 10 11 10 10 10 10 10 10 10 10 10 9 10 10 10 10 10 11 10 10 9 10 9 10 9 9 9 9 9 10 9 10 9 9 9 9 9 9 8 9 9 9 9 9 8 8 9 9 9 8 8 9 8 8 9 8 8 8 8 8 9 8 8 8 7 8 8 8 9 8 8 8 8 8 9 8 7 7 8 7 7 8 8 8 7 7 8 8 8 8 8 8 7 8 7 7 7 7 7 7 7 7 8 7 7 7 8 7 8 8 7 7 7 7 7 7 7 7 7 7 7 6 7 7 7 7 7 7 6 7 7 6 7 7 7 7 7 6 7 7 7 7 7 7 6 7 6 6 6 6 6 6 6 7 7 7 7 6 6 6 7 7 6 7 6 6 5 6 6 6 7 6 6 6 6 7 6 6 6 0 
5 5 6 6 5 6 6 5 5 6 6 6 5 6 6 6 6 6 6 6 6 6 5 6 6 6 5 6 6 6 6 6 6 6 6 6 6 6 6 6 5 5 5 6 6 6 6 6 6 6 6 6 6 6 6 6 6 6 7 6 6 6 7 7 6 6 6 7 6 6 6 6 6 6 6 6 7 6 6 7 7 6 6 6 6 6 7 7 6 7 6 7 6 7 7 7 6 7 6 6 6 6 7 7 6 7 7 7 6 7 6 7 7 7 6 7 6 6 6 6 7 6 7 6 7 7 6 6 7 7 7 7 7 6 7 7 7 6 7 7 7 7 7 6 7 7 7 8 7 7 7 7 6 7 7 7 8 7 8 7 7 7 8 7 7 8 7 7 8 7 7 7 7 8 8 7 8 8 8 8 7 7 8 8 7 7 7 7 8 8 8 8 7 8 8 8 8 8 8 8 8 8 8 8 8 7 8 8 8 8 9 8 8 8 8 8 8 8 8 8 8 8 8 9 8 8 9 9 8 8 9 8 9 9 9 8 8 8 9 9 9 8 9 8 8 9 9 9 9 9 8 9 9 8 9 8 9 9 9 8 8 10 10 9 9 10 9 9 9 9 9 9 10 9 10 9 9 10 8 10 9 9 9 9 10 10 10 10 10 9 9 10 9 10 9 10 10 10 9 9 10 10 9 9 10 10 10 10 9 10 10 10 10 11 11 10 10 11 10 10 10 10 11 10 10 10 10 10 9 10 10 11 11 10 10 11 11 11 11 10 11 10 11 11 11 11 11 11 11 10 11 12 11 11 10 11 11 12 11 12 11 11 11 11 12 11 11 11 11 11 11 11 11 11 12 11 11 11 11 11 11 10 10 10 11 11 11 10 11 11 11 11 11 12 10 11 11 10 11 10 10 11 11 11 11 11 12 11 11 11 11 11 10 11 11 10 11 11 11 10 11 10 11 10 10 11 10 10 10 10 10 10 10 10 10 10 11 14 13 12 11 10 9 9 9 10 9 10 10 10 9 9 9 9 9 9 9 9 9 9 8 9 9 9 9 9 8 9 8 9 8 8 9 8 8 9 8 9 8 9 8 8 8 8 8 8 8 8 8 8 8 8 7 8 8 8 8 7 9 8 8 8 8 8 7 7 7 7 7 8 8 7 8 7 8 7 8 7 8 7 7 7 7 8 7 8 7 8 7 7 7 7 7 7 7 7 7 7 7 7 6 7 7 7 7 7 7 7 7 7 6 7 7 7 7 6 7 7 7 6 7 7 6 6 7 7 6 7 6 6 6 6 6 7 7 6 7 6 7 6 6 6 6 6 6 6 6 6 7 6 6 6 6 7 7 6 6 6 7 0 
6 5 6 6 5 5 6 6 6 6 6 6 6 6 6 6 6 5 6 6 5 6 6 6 5 6 6 6 6 5 6 6 6 6 6 6 6 6 6 6 5 6 6 6 6 6 6 6 6 5 6 6 6 5 6 5 7 7 6 6 6 6 6 6 7 6 6 6 6 6 6 6 7 6 6 7 6 6 6 6 7 6 6 6 7 6 6 6 6 6 6 6 7 6 7 6 6 7 6 6 7 7 7 6 7 7 6 6 7 7 7 7 7 7 6 7 7 7 7 7 6 7 7 7 7 6 7 7 7 7 7 7 7 7 7 8 7 7 7 7 8 7 7 7 7 7 7 7 8 7 7 7 7 7 7 7 8 7 7 7 7 7 7 7 7 7 7 7 8 7 8 8 7 7 7 8 8 7 8 8 7 8 7 7 8 8 7 8 8 8 8 8 8 8 8 8 8 7 8 8 7 8 8 8 8 8 8 8 8 8 8 8 8 8 8 8 8 9 8 8 8 8 9 8 9 9 8 8 8 9 8 8 8 9 8 9 9 9 9 9 8 9 9 8 9 9 9 8 9 9 9 9 9 9 9 9 9 9 9 10 9 9 9 9 9 9 9 9 10 10 9 10 9 9 10 9 9 10 10 9 9 10 10 9 10 9 9 10 10 10 10 10 10 10 9 9 10 10 10 10 10 10 10 10 10 10 10 10 10 10 10 9 10 10 10 10 10 10 11 10 9 10 10 10 10 10 10 11 11 10 10 11 10 10 10 10 10 11 11 10 11 10 10 10 10 11 10 11 12 11 11 11 11 12 11 11 11 12 11 12 11 11 12 12 11 11 11 12 11 11 11 12 11 12 12 11 11 11 11 11 11 11 11 12 11 10 11 11 11 10 12 11 10 11 11 11 12 11 11 11 11 12 11 12 11 11 11 11 10 11 11 11 10 10 10 11 11 10 10 10 11 11 10 10 11 11 10 11 9 10 10 10 10 10 11 11 11 16 13 11 10 10 10 10 10 9 10 10 10 9 10 9 10 9 9 9 9 10 9 9 9 9 9 9 9 8 9 9 9 9 8 9 9 8 8 8 8 9 8 8 8 8 8 8 9 9 8 9 8 8 7 8 8 8 8 8 8 8 7 8 8 8 8 8 7 7 7 7 7 7 8 7 7 7 7 7 7 8 7 7 7 7 7 7 7 7 8 7 7 7 7 7 7 7 7 8 8 7 7 7 8 7 6 8 7 8 6 7 7 6 7 7 7 6 7 7 6 7 7 7 7 7 7 7 6 7 7 7 6 6 6 6 6 7 7 7 6 6 7 7 7 6 6 6 7 6 7 6 6 7 6 7 6 7 6 6 7 6 6 0 
6 5 6 6 5 5 6 6 5 6 5 5 5 6 5 6 6 6 6 6 6 5 6 6 5 6 6 6 6 6 6 6 6 6 6 6 6 6 6 6 5 6 6 6 6 6 5 6 6 6 7 6 6 6 7 6 6 6 6 6 7 6 6 6 6 6 6 6 6 6 6 6 6 6 6 6 6 7 6 5 6 6 6 6 6 6 7 6 6 6 6 6 7 7 6 7 6 7 6 7 7 6 6 6 7 7 7 7 7 7 7 7 7 7 7 7 7 7 6 6 7 6 7 7 7 6 7 6 7 7 7 7 7 7 7 7 8 7 7 7 7 7 7 7 8 6 7 7 7 7 7 7 7 7 7 7 7 7 7 7 8 8 7 7 7 7 8 8 7 7 8 7 8 8 7 8 7 8 8 8 7 7 7 8 8 8 7 8 8 8 8 8 8 8 8 8 8 8 8 8 7 8 8 8 7 9 9 8 9 8 9 8 8 8 8 8 8 8 8 9 8 8 9 8 8 9 8 9 8 8 9 8 9 8 9 8 9 9 9 9 9 9 9 8 9 8 8 9 9 8 9 9 9 9 9 9 9 8 9 10 10 9 9 8 9 10 8 9 9 10 10 10 9 9 9 10 10 9 10 9 9 10 10 9 9 10 10 9 9 10 10 9 9 9 9 10 10 10 10 10 10 10 10 10 10 10 10 10 11 10 10 11 10 10 11 10 10 10 11 10 10 11 10 10 11 10 10 11 10 10 11 11 11 10 11 10 10 10 11 11 12 11 11 11 11 11 11 11 10 11 11 10 11 10 10 11 11 12 11 11 12 12 12 11 12 12 12 12 12 12 12 12 12 12 12 11 12 11 11 12 12 12 12 11 11 12 11 11 11 11 11 10 11 10 11 11 11 11 11 11 11 11 11 10 11 11 11 10 11 11 11 11 11 11 11 11 11 11 11 11 10 10 11 11 11 10 10 11 10 10 11 10 10 10 10 10 12 12 11 10 11 10 10 9 10 10 10 10 10 9 10 10 9 10 10 9 8 9 9 9 10 11 10 9 10 9 9 9 9 8 8 8 8 9 8 9 8 9 8 8 8 8 9 8 8 8 8 8 8 9 8 8 8 7 8 9 7 8 8 8 8 8 7 8 8 8 7 7 7 8 8 8 8 8 7 7 7 8 7 7 7 7 7 8 7 8 7 7 8 7 8 7 8 7 7 7 7 7 7 7 7 6 7 7 7 7 7 7 7 6 7 7 7 7 6 7 7 7 7 7 7 6 7 7 6 7 6 6 6 7 6 6 7 6 6 7 6 6 7 6 6 6 7 7 6 6 6 7 6 6 6 6 7 6 6 6 6 7 6 0 
5 6 6 6 6 5 5 5 6 6 6 6 6 5 6 6 6 6 5 6 6 6 5 7 6 6 6 6 6 6 6 6 6 6 6 6 6 5 6 6 6 6 6 6 6 6 6 7 6 6 6 6 5 6 6 6 6 6 6 6 6 6 6 6 6 6 7 6 6 6 5 6 6 6 6 7 6 6 6 6 6 6 6 6 6 6 6 6 6 7 7 7 6 6 6 6 7 6 7 7 6 6 6 7 7 7 7 7 7 7 7 7 7 6 6 7 7 6 7 7 6 7 7 7 6 7 6 7 7 7 7 7 7 7 7 7 6 7 7 7 7 7 7 7 8 7 7 7 7 8 7 7 7 7 7 7 7 7 8 7 7 8 8 7 8 8 7 8 7 8 7 7 8 8 7 8 8 8 7 8 8 7 8 7 7 7 8 8 8 8 8 8 8 8 7 8 8 7 8 7 8 8 8 8 9 8 9 8 8 8 8 8 8 8 8 8 7 9 8 9 9 8 9 8 8 9 9 8 8 8 9 8 9 9 8 8 9 8 8 8 9 9 9 9 9 8 9 9 9 9 9 9 9 9 9 9 9 9 8 9 10 9 9 9 9 9 9 9 9 10 9 10 9 10 9 10 9 9 9 9 10 10 10 10 10 10 10 10 9 10 9 10 10 10 9 10 10 10 10 10 10 10 10 10 10 10 10 10 9 10 11 10 9 10 11 11 10 11 10 10 11 10 10 11 11 10 11 10 10 11 10 10 11 11 11 10 10 11 10 11 11 11 11 10 10 10 11 11 10 11 11 11 11 12 11 12 11 12 12 12 11 11 12 12 13 12 12 12 12 13 12 12 12 12 12 12 12 12 12 11 12 11 11 12 11 11 11 11 11 11 12 11 11 12 11 11 11 12 11 11 11 11 11 12 11 11 11 11 10 11 11 11 11 11 11 10 11 10 11 10 11 10 11 10 11 11 10 11 10 11 11 10 11 10 10 11 11 10 11 11 10 10 9 11 10 10 9 10 9 10 10 9 10 10 9 9 9 10 10 10 9 9 9 9 9 8 8 9 9 9 9 9 8 9 9 9 8 9 8 8 8 8 9 8 8 9 8 8 8 9 8 8 9 8 7 7 7 8 9 8 8 7 8 8 8 8 8 8 8 8 8 8 7 8 7 8 8 8 7 7 8 8 8 7 7 7 7 8 7 7 7 8 7 7 7 7 6 7 7 7 7 7 7 7 7 7 7 7 6 7 7 7 7 6 7 7 7 7 6 6 7 7 7 6 7 7 6 7 7 7 7 7 7 6 6 7 6 7 6 7 7 6 7 7 6 6 6 6 6 6 6 6 6 6 6 6 6 6 6 0 
6 6 5 5 5 6 6 5 6 5 6 6 6 6 6 5 5 6 6 6 6 6 5 6 6 6 6 6 6 7 6 6 6 6 6 6 6 6 6 6 6 6 6 6 6 6 6 6 6 6 6 5 6 6 6 6 6 6 6 6 6 6 6 6 6 6 6 6 6 6 6 7 6 6 6 6 7 6 6 6 6 6 6 6 7 6 6 7 6 7 6 6 7 7 6 6 7 6 6 7 6 7 7 6 6 7 6 6 7 6 7 6 6 6 7 7 6 7 7 6 7 7 7 7 6 8 7 7 6 7 7 7 6 7 7 7 7 7 7 7 7 7 7 7 7 7 7 7 7 7 7 7 7 7 8 7 7 7 7 7 7 7 8 8 8 7 7 7 8 8 7 8 7 7 8 7 7 7 8 7 8 7 8 7 8 8 7 8 8 7 7 8 9 8 7 8 8 8 7 8 8 8 8 9 9 8 8 8 8 9 8 9 8 9 8 8 8 8 8 9 8 8 8 8 8 8 8 8 9 9 9 10 9 8 9 9 9 8 9 9 8 9 9 9 9 8 9 8 9 8 9 9 9 9 9 8 9 9 9 8 9 9 8 10 9 10 9 9 9 9 9 9 9 9 10 10 10 10 10 9 10 10 10 10 10 10 10 10 9 10 10 10 10 10 10 10 10 10 10 10 10 10 9 10 10 10 10 10 11 11 10 11 10 10 10 10 10 10 10 10 11 10 11 11 10 10 11 11 11 10 11 11 11 11 11 11 11 10 11 11 11 10 11 11 11 11 11 11 11 12 12 12 11 12 12 12 11 11 12 11 12 12 12 11 13 13 12 12 12 12 13 12 11 11 12 12 12 11 11 11 11 12 12 12 12 11 12 12 11 12 12 11 11 11 12 12 11 11 12 12 11 10 12 11 11 11 12 11 12 11 11 11 11 12 10 11 12 10 11 12 11 11 11 11 10 11 10 10 10 10 11 11 10 10 10 11 10 11 11 11 10 10 10 10 10 10 10 10 10 9 10 10 9 9 10 9 9 9 9 9 9 9 9 9 9 8 9 9 9 9 9 9 8 9 8 9 8 9 8 8 9 8 8 9 8 9 9 8 8 9 7 8 8 8 8 8 8 8 8 8 8 8 8 8 8 7 8 8 7 8 7 7 7 7 7 7 7 8 7 7 7 7 7 7 7 7 8 8 7 7 7 7 7 7 7 7 7 7 7 7 7 7 7 8 7 7 7 7 7 7 7 7 7 7 7 7 7 6 7 6 7 7 6 6 7 7 7 6 7 7 6 7 7 7 7 6 7 7 6 7 7 7 6 6 6 6 6 6 6 6 7 6 6 6 6 6 6 6 6 0 
6 5 6 6 5 6 6 5 6 6 6 6 5 5 6 6 6 6 6 6 6 6 6 6 5 6 5 6 6 6 6 6 5 6 6 6 6 6 6 6 6 6 6 6 6 7 6 6 6 6 6 7 6 6 6 6 6 6 6 6 6 6 6 6 6 6 6 6 6 7 6 6 6 6 6 6 6 6 7 6 6 7 6 6 6 7 7 6 6 6 7 6 6 6 7 6 6 6 7 7 6 7 7 6 6 7 7 6 6 6 7 6 7 6 7 7 7 7 6 6 7 7 7 7 6 7 7 7 8 7 7 7 6 7 7 7 7 8 6 7 7 7 7 7 7 8 7 7 7 7 7 7 7 7 7 7 8 7 7 8 7 7 7 8 7 8 7 7 7 7 7 7 7 7 8 7 8 8 8 8 8 8 8 7 8 8 7 7 8 8 7 8 7 8 8 8 8 8 8 8 8 8 8 8 7 8 8 8 9 7 8 9 8 8 8 8 8 8 9 9 8 8 8 8 9 8 9 9 8 8 8 8 8 9 8 8 8 9 8 8 9 9 8 9 9 9 9 9 9 9 9 9 9 9 9 9 9 9 10 9 10 10 9 9 9 10 10 10 9 10 9 9 10 10 9 10 10 9 10 9 10 10 10 10 10 10 10 10 10 10 10 10 10 10 10 9 10 11 11 10 10 10 10 10 11 10 10 10 10 11 11 10 11 10 10 10 11 10 10 11 11 10 11 11 10 11 11 11 11 11 11 11 11 10 10 11 10 11 11 11 11 11 11 11 11 12 11 12 11 11 11 10 11 11 12 11 12 13 12 12 12 12 12 12 12 12 13 14 12 13 13 12 11 13 12 12 12 12 12 12 12 11 12 11 11 12 12 11 12 11 12 12 11 11 11 12 11 12 11 11 11 12 12 12 11 12 12 11 11 11 12 12 11 11 11 11 11 11 12 11 11 12 11 11 11 11 11 11 10 11 10 11 11 11 11 10 11 10 10 10 10 10 10 10 9 10 10 10 9 10 10 10 9 10 10 9 9 9 9 9 9 9 9 8 8 9 9 9 9 9 9 9 9 9 9 9 9 8 9 9 8 9 8 9 8 8 8 8 8 8 8 9 8 9 8 8 8 8 8 7 8 8 8 8 8 8 8 8 7 7 7 8 8 8 8 8 7 8 8 7 7 7 7 7 8 7 7 7 7 7 7 7 7 7 7 7 7 7 7 8 8 7 7 7 6 8 7 7 7 7 7 6 7 6 6 7 6 7 7 7 7 7 7 7 7 7 7 7 7 7 6 7 6 6 6 6 6 6 7 7 6 7 6 6 7 6 6 7 6 7 6 7 6 6 6 7 6 6 6 0 
6 6 6 6 6 5 6 6 6 5 6 6 6 6 6 6 5 6 6 6 6 6 6 6 6 6 6 6 6 6 6 6 6 5 6 6 6 6 6 6 6 6 6 6 6 6 6 5 6 6 5 6 6 7 6 6 7 6 7 6 6 6 6 6 6 6 6 6 6 6 7 7 7 6 6 6 6 6 7 6 6 7 7 6 7 6 6 6 6 6 7 7 6 7 6 6 7 7 6 6 7 7 6 7 6 6 6 7 7 7 7 7 7 7 7 7 7 7 7 7 6 7 7 7 8 7 7 7 7 7 7 7 7 7 7 7 7 7 7 7 7 7 7 7 7 8 7 6 7 7 7 7 7 8 7 7 8 7 7 7 7 7 8 7 7 7 7 7 7 8 8 8 7 7 8 8 7 7 8 8 8 8 8 8 8 7 7 8 8 8 8 8 7 8 8 8 8 8 7 8 8 8 8 8 8 7 8 8 8 8 8 9 8 9 9 8 8 8 8 8 8 8 9 8 8 9 9 9 9 9 8 9 9 9 8 9 8 8 9 8 9 9 9 8 9 9 10 9 9 9 9 9 9 9 10 9 9 10 9 10 10 10 10 9 10 9 9 9 10 9 9 10 9 10 9 10 10 10 10 10 9 10 9 11 10 10 9 10 10 9 10 10 10 10 11 10 10 10 11 10 10 10 11 10 10 10 10 10 11 11 10 9 10 11 10 11 10 10 10 11 11 11 11 10 11 11 10 11 10 10 11 11 11 11 11 11 10 11 11 12 11 11 11 11 11 11 11 11 11 11 11 11 11 12 12 11 11 11 11 11 13 12 12 13 13 13 13 14 13 13 13 13 13 13 12 13 12 12 12 13 12 12 13 12 12 12 12 11 12 11 11 12 12 12 11 12 11 11 12 12 11 11 12 11 11 12 11 11 12 12 11 12 11 12 11 11 12 12 11 11 12 12 12 11 11 11 10 11 10 12 11 11 11 11 10 11 11 10 10 10 11 10 10 10 10 10 10 10 10 10 10 10 10 10 10 9 10 9 9 10 9 9 9 9 9 10 9 9 8 9 9 9 9 8 8 9 8 9 9 8 9 8 8 8 8 8 8 8 8 9 8 8 9 8 8 8 8 8 8 9 7 8 7 8 8 8 8 8 8 8 8 7 7 7 7 7 7 8 8 7 7 8 7 7 7 7 7 8 7 7 7 7 7 7 7 7 7 7 8 8 7 7 7 7 7 7 7 7 7 7 7 6 8 7 6 7 7 7 7 6 7 6 7 7 7 6 7 6 6 7 7 6 6 6 7 6 6 6 7 7 7 6 6 6 7 7 6 6 7 7 6 7 6 6 6 6 6 6 6 0 
6 6 5 6 5 5 6 6 6 6 6 5 6 6 6 6 6 6 6 6 6 7 6 6 6 6 6 6 6 5 5 6 6 5 6 6 7 6 6 6 6 6 6 6 6 6 7 6 6 6 6 6 6 6 6 6 6 6 6 6 6 6 6 6 6 7 6 6 6 7 6 6 7 6 6 7 6 6 6 6 6 6 6 6 6 6 7 6 7 6 6 6 7 6 7 6 7 7 7 7 6 7 6 6 7 6 7 7 7 7 7 6 6 6 7 7 7 7 6 7 6 7 7 8 7 7 7 7 7 8 6 7 7 7 7 7 7 7 7 7 7 7 7 7 8 7 7 7 7 8 7 7 8 8 7 7 7 7 7 8 7 8 8 8 7 8 7 8 7 8 8 7 7 7 7 7 7 8 7 7 8 8 8 8 7 8 8 8 8 8 7 8 9 8 8 8 8 8 8 8 8 9 8 8 8 9 8 8 8 8 8 8 8 8 9 8 9 8 9 9 9 9 8 9 8 8 9 8 9 9 9 9 8 8 9 8 9 9 9 9 9 8 9 9 9 9 9 9 9 9 9 9 9 10 9 9 9 9 10 10 9 9 9 9 9 10 10 9 10 9 10 10 10 9 9 10 9 10 10 9 10 10 9 10 10 10 10 10 9 9 10 10 9 9 10 10 11 10 9 11 11 11 10 9 10 10 10 10 10 11 10 10 10 11 10 11 10 10 10 10 11 11 11 11 10 11 10 10 11 11 11 11 11 12 11 11 11 11 11 11 11 12 11 12 11 12 11 12 12 11 11 12 12 12 11 12 12 12 12 13 12 13 12 13 15 14 14 13 13 13 13 13 13 13 12 12 12 13 13 11 12 13 12 12 12 12 13 12 12 12 12 12 12 12 11 12 12 11 11 12 12 12 11 12 11 12 11 12 11 12 11 12 11 11 11 11 11 12 11 10 12 11 11 12 11 11 12 11 12 12 11 11 11 11 11 10 12 11 10 11 10 10 10 10 10 10 10 10 10 10 10 10 10 10 9 9 10 10 10 9 9 10 10 10 9 8 9 9 9 9 9 9 9 9 9 8 9 9 9 8 9 9 8 9 8 8 8 8 9 8 9 9 8 8 9 8 8 8 8 8 9 8 8 8 8 8 8 8 8 8 7 7 8 8 7 7 8 7 7 8 7 7 7 7 8 7 7 8 7 8 7 7 7 7 7 7 7 7 7 7 8 7 7 7 7 7 6 7 7 7 7 7 7 7 7 7 6 7 7 7 7 7 7 6 7 7 6 7 7 7 7 6 7 6 6 6 6 6 6 6 6 7 7 6 6 6 8 7 6 7 7 7 6 6 7 6 6 6 6 0 
5 6 5 5 5 5 6 5 6 6 6 5 6 6 6 5 6 6 6 6 6 5 6 6 6 5 6 6 6 6 6 5 6 6 6 6 6 6 6 6 6 6 6 6 6 7 6 5 6 6 6 6 6 6 6 6 6 6 6 6 6 6 6 6 6 6 7 6 6 6 6 6 6 6 7 6 6 6 7 6 6 7 6 6 7 7 7 7 7 7 6 7 7 6 6 6 6 7 7 6 6 6 7 7 7 7 7 6 7 7 7 7 7 7 7 7 6 7 7 6 7 7 7 7 7 7 7 6 7 7 7 8 7 7 7 7 7 8 7 7 7 7 7 7 7 7 7 7 7 7 7 7 7 7 7 7 7 8 8 8 8 8 7 8 8 8 8 7 8 7 8 7 7 8 8 8 8 8 7 8 8 8 8 8 8 7 8 8 8 8 8 8 8 8 9 8 8 7 8 9 8 9 9 8 9 8 8 8 8 9 8 8 8 8 8 8 9 8 8 8 9 8 8 8 8 9 9 9 9 9 9 9 9 10 9 9 9 9 9 9 9 9 9 8 9 10 8 9 9 9 9 9 10 9 10 9 10 10 9 10 9 9 9 10 10 10 9 10 9 9 10 9 10 10 10 10 9 10 10 10 10 10 10 10 10 9 9 10 10 10 11 10 9 10 10 11 10 11 10 10 10 10 10 10 10 11 10 10 10 11 10 10 11 11 11 10 11 11 11 11 11 11 11 11 11 11 11 11 11 11 11 11 11 10 11 11 12 11 11 11 12 11 11 12 12 12 12 11 11 11 12 11 12 11 13 13 12 12 12 12 12 13 13 13 14 15 19 19 19 15 13 13 12 12 13 13 12 12 12 12 12 12 12 12 12 14 13 13 13 11 11 13 11 13 12 12 12 12 12 12 12 12 11 11 11 11 12 12 11 11 11 11 12 12 11 11 11 11 11 11 11 12 11 12 11 11 12 11 12 11 11 11 10 10 11 11 11 11 10 11 11 11 11 10 10 10 10 10 11 11 11 10 10 10 10 10 9 10 10 9 9 9 10 9 9 9 9 9 9 10 9 9 8 9 9 8 10 9 9 9 8 9 9 8 9 8 9 8 8 8 9 8 8 8 8 8 8 7 8 8 8 8 8 8 8 8 8 8 8 8 7 8 8 8 8 7 7 7 8 7 7 7 7 7 7 7 7 7 8 8 8 7 7 7 7 8 7 7 7 7 8 7 7 7 7 7 7 6 7 7 7 7 7 7 7 7 7 6 7 7 7 7 6 7 6 6 7 7 7 6 7 7 7 6 6 6 7 6 6 7 6 6 6 6 6 6 6 6 7 6 6 7 7 6 6 6 6 6 6 0 
6 6 5 5 6 5 5 6 5 5 6 6 6 6 6 6 6 6 6 6 6 6 6 6 6 6 6 6 6 6 6 6 6 6 6 6 6 6 6 6 6 6 6 5 6 6 6 6 6 6 6 6 6 6 6 6 6 6 6 6 6 7 6 6 6 6 5 6 6 6 6 6 6 6 6 6 6 6 7 7 6 6 7 7 6 6 6 6 7 6 7 6 6 7 6 7 6 7 6 7 7 7 7 7 7 7 7 6 6 7 7 6 7 7 7 7 7 7 7 6 7 7 7 7 7 7 7 6 7 7 7 7 7 7 7 8 7 7 7 7 7 7 7 7 7 7 7 8 7 7 8 7 7 7 7 8 8 8 8 6 8 7 8 7 7 8 8 7 7 7 8 8 8 7 8 8 8 8 8 8 8 8 8 8 8 8 8 8 8 8 8 8 8 8 8 8 8 8 9 8 8 8 8 8 8 8 8 8 9 8 9 9 8 8 9 9 8 8 8 9 8 9 9 9 8 8 9 8 9 9 9 9 9 9 9 10 9 9 9 9 9 9 9 9 9 9 9 9 9 9 10 9 9 9 10 9 9 10 9 9 10 9 10 10 9 10 10 10 10 10 10 10 10 10 9 10 10 10 10 10 11 10 11 10 10 10 11 10 10 10 9 10 10 10 11 10 10 10 11 10 10 10 10 10 11 11 10 10 10 11 11 10 11 11 10 11 11 10 11 11 11 11 11 10 11 11 10 11 12 11 11 12 11 11 11 11 11 12 11 12 12 10 12 12 11 12 11 12 11 12 12 12 13 12 12 12 12 12 12 13 13 13 13 14 15 16 37 32 23 17 15 14 13 13 13 12 13 12 13 12 12 12 12 11 12 12 12 12 12 11 12 12 11 13 12 13 12 12 12 12 12 13 12 12 11 11 12 12 12 11 12 11 11 12 12 12 12 11 11 11 12 12 11 12 12 12 11 11 11 11 11 12 11 11 11 11 11 10 11 11 10 10 11 11 11 10 10 11 10 10 11 11 10 11 10 10 9 9 10 9 10 9 10 8 8 9 10 9 9 8 9 9 9 9 9 9 9 8 8 9 8 8 7 9 8 8 8 8 8 8 8 8 8 8 8 8 8 8 8 7 8 8 7 8 8 7 8 8 8 8 8 8 8 8 7 8 8 8 8 7 8 8 7 7 7 7 7 7 7 8 8 7 7 8 8 7 7 7 7 7 7 7 7 7 7 7 7 7 7 7 8 7 7 6 7 7 7 7 7 7 7 7 6 7 7 7 6 7 7 6 6 6 6 6 7 7 7 7 6 6 6 7 7 7 7 7 6 7 7 6 6 7 6 7 7 6 6 7 6 0 
6 6 6 6 5 6 5 6 6 6 6 6 5 6 6 6 5 6 6 5 6 6 6 6 6 6 6 6 5 6 5 6 6 6 6 6 5 6 6 6 6 6 6 6 6 6 6 6 6 6 6 6 6 6 5 6 6 6 6 6 6 6 6 6 6 6 6 6 6 7 6 6 7 6 6 6 6 6 6 6 6 6 6 6 6 7 7 7 6 6 7 6 7 6 7 6 6 6 6 7 6 7 6 7 7 7 7 7 6 7 6 6 7 7 7 7 7 7 7 7 7 7 7 7 7 7 7 6 7 7 7 7 7 6 7 7 7 7 7 8 8 7 7 7 7 7 7 7 7 7 7 7 7 7 7 7 8 7 8 8 8 7 8 7 7 8 7 8 8 8 8 7 8 8 8 8 8 7 8 8 7 8 7 8 8 8 8 8 7 8 8 9 8 8 8 8 8 8 8 8 8 8 8 8 8 9 8 8 9 8 9 8 8 8 8 8 8 8 9 8 8 9 8 9 10 8 8 9 9 8 9 8 8 9 9 9 9 9 9 9 9 8 9 9 9 9 10 9 9 9 9 8 10 10 9 10 9 9 10 9 10 9 10 10 10 10 10 10 10 10 10 10 10 9 10 10 10 9 10 10 9 11 10 10 9 10 10 10 10 10 10 10 10 10 10 10 11 10 10 10 10 10 10 11 10 10 11 10 10 11 11 10 11 11 11 11 10 11 11 10 11 11 12 11 11 11 11 11 12 10 11 11 11 11 11 12 12 12 12 12 12 11 11 12 11 12 12 11 11 12 13 12 12 12 12 13 12 12 12 13 13 14 13 13 15 16 46 51 27 19 14 14 13 14 13 13 13 13 13 13 12 13 13 13 12 12 13 13 13 12 12 12 12 12 12 12 11 12 12 12 12 15 13 12 11 11 12 12 12 12 12 12 12 12 12 12 12 12 12 11 11 12 12 12 11 11 11 11 12 11 12 11 11 11 11 11 11 12 10 11 11 11 11 10 11 11 11 13 10 10 11 11 11 10 10 10 9 10 10 9 9 10 9 10 10 9 9 9 9 9 9 9 9 9 9 9 8 8 9 8 9 9 8 9 9 8 8 9 8 8 8 8 9 8 8 8 8 8 8 8 8 8 8 7 8 8 8 8 8 8 8 7 8 7 8 7 8 8 8 8 8 8 7 7 7 8 7 7 7 7 7 7 7 7 7 8 7 8 7 8 7 7 7 7 8 7 7 7 7 7 8 8 7 7 7 7 7 7 7 7 7 6 6 7 7 7 7 6 7 6 6 6 7 6 7 6 7 7 7 6 6 7 6 6 6 7 6 6 6 7 7 7 6 6 6 6 6 6 6 0 
5 6 6 6 6 6 5 5 6 5 6 6 6 6 6 6 6 6 6 6 6 6 6 6 6 6 6 6 6 5 6 6 6 6 6 6 6 5 6 6 6 6 6 6 6 6 6 6 5 7 6 6 6 6 6 6 6 6 6 6 6 6 6 6 6 7 6 6 6 6 6 6 6 7 6 6 6 6 6 7 7 7 7 6 7 6 7 6 6 6 6 7 6 7 7 7 6 7 7 7 7 7 7 7 7 6 7 7 7 7 7 6 7 6 7 7 7 7 6 7 7 7 7 7 6 7 7 6 7 7 7 7 6 7 6 7 8 7 7 7 7 7 7 8 7 7 7 7 8 7 7 7 7 7 7 7 8 7 7 7 8 7 8 8 7 7 8 7 8 8 8 8 7 8 8 7 7 7 8 8 8 8 8 8 8 9 8 8 8 8 7 9 8 8 9 8 8 8 8 8 8 8 9 9 9 8 9 8 9 8 8 8 9 9 9 8 8 9 8 9 9 9 8 9 9 9 9 9 9 9 8 8 9 9 8 9 9 9 9 9 9 9 9 10 9 9 9 10 9 10 10 9 10 9 9 9 9 10 9 10 9 9 10 10 10 9 9 9 9 10 10 10 11 10 10 10 10 10 10 10 10 10 10 10 10 10 10 10 10 10 10 10 11 10 11 11 10 11 10 10 10 11 10 11 11 11 11 11 10 11 11 12 11 11 11 11 10 11 12 11 11 10 11 11 12 11 11 11 11 11 11 11 11 11 12 11 12 12 12 12 12 12 11 11 13 11 12 12 12 12 12 13 12 13 12 13 12 13 12 12 12 12 14 14 15 17 28 54 23 17 15 14 14 13 14 12 13 13 13 13 12 12 12 12 12 13 12 12 12 13 13 13 12 13 12 12 13 12 13 13 13 13 13 12 12 11 12 12 11 12 13 12 11 12 12 12 12 12 12 12 11 12 12 12 12 11 11 11 11 11 11 11 10 12 11 12 11 11 10 10 10 10 10 11 10 10 11 11 11 10 10 11 11 10 11 10 10 10 10 10 10 10 9 9 10 10 10 9 10 10 9 9 9 9 8 9 9 9 9 9 9 9 9 9 8 10 8 9 8 8 8 8 9 8 8 8 8 8 7 8 8 7 8 8 8 8 8 8 8 8 8 8 8 8 8 8 8 7 7 8 8 7 8 8 8 7 7 8 7 8 7 7 7 7 7 8 8 7 7 7 7 7 6 8 7 7 7 7 7 7 7 7 7 7 7 7 6 7 7 7 7 6 7 7 7 7 7 6 7 6 6 7 7 6 7 7 6 7 7 7 7 6 7 7 6 6 7 7 7 7 6 7 6 6 7 7 7 6 6 0 
6 6 6 6 6 5 6 5 6 6 6 6 6 6 6 5 6 6 5 6 5 6 6 6 6 6 6 6 6 6 6 6 6 6 6 6 6 6 6 6 6 6 6 6 6 6 6 6 6 6 6 6 6 6 6 6 7 6 7 6 7 6 6 5 6 6 6 6 7 6 6 6 6 6 6 6 6 6 7 6 7 6 7 6 6 6 6 7 7 7 6 6 6 6 7 6 6 7 6 7 7 6 7 6 7 6 7 7 6 7 7 7 6 6 7 7 7 7 7 7 7 7 7 7 7 6 7 7 7 6 8 6 7 7 7 7 7 7 7 7 8 7 8 7 8 8 7 7 7 8 7 7 7 7 8 7 7 7 7 7 8 7 7 8 7 8 8 8 8 7 8 7 8 8 8 7 8 8 8 8 8 7 8 8 8 8 8 8 8 7 8 8 8 8 8 8 8 8 9 8 8 8 8 8 9 8 8 8 9 8 8 9 8 9 8 9 9 9 9 9 8 9 9 9 8 9 9 9 9 9 9 10 9 9 9 9 9 9 9 9 9 9 9 10 9 9 9 9 9 9 10 10 9 9 9 10 9 9 10 9 10 10 10 10 10 11 10 10 10 10 9 10 10 10 10 10 10 10 9 10 9 10 10 10 10 10 10 11 10 11 11 10 10 10 10 10 10 11 11 10 11 11 11 10 11 11 11 11 11 11 10 10 11 11 11 11 11 11 10 11 12 11 12 11 11 11 11 13 12 12 12 11 12 12 12 12 11 11 12 11 12 13 12 12 12 12 12 11 12 13 12 13 12 13 12 12 13 13 13 12 12 13 14 14 14 16 18 23 19 16 15 14 13 13 14 14 13 13 13 14 13 12 13 13 13 13 13 13 13 12 13 13 13 13 13 12 13 14 13 12 12 13 13 13 12 12 12 13 12 13 13 12 12 12 12 12 12 12 12 11 12 12 12 11 11 12 12 12 11 12 12 11 11 12 11 11 11 11 11 10 11 10 10 11 11 11 10 10 11 10 11 10 10 10 10 10 10 10 10 10 10 9 10 9 9 10 9 9 10 10 9 9 9 9 9 10 9 9 9 9 10 9 9 9 9 9 9 9 8 9 8 9 8 8 9 8 8 8 8 8 8 8 9 8 8 8 8 8 7 9 8 8 8 7 8 7 8 8 7 8 8 8 8 8 8 7 7 8 7 8 7 7 8 8 7 7 7 7 8 7 7 7 7 7 7 8 7 7 7 7 7 7 7 7 6 7 7 7 7 6 7 7 7 6 7 7 7 7 7 7 7 7 7 7 7 8 7 6 7 6 7 7 7 7 7 7 7 6 6 7 7 6 6 6 6 7 7 6 6 0 
6 5 6 6 5 6 6 5 5 5 6 5 6 6 5 6 6 7 6 6 6 6 6 6 6 6 6 5 6 6 5 6 6 6 6 6 6 6 6 6 6 6 6 6 6 6 6 6 6 6 6 7 6 6 6 6 6 6 7 6 6 6 6 6 6 7 6 6 6 6 7 6 7 7 7 6 7 6 7 6 7 7 6 6 6 6 6 6 7 7 6 7 6 7 7 6 6 7 7 7 6 7 6 7 7 6 7 7 7 7 6 7 7 7 7 7 7 6 7 7 7 7 7 7 7 7 7 7 7 7 7 7 7 8 7 7 7 8 7 7 8 7 7 7 7 7 7 7 7 7 7 8 7 7 7 8 7 8 8 7 8 8 8 8 7 7 7 8 8 7 8 7 7 8 8 8 8 8 8 8 8 8 8 9 8 8 7 8 8 8 8 8 8 8 8 9 8 7 8 9 8 8 8 9 8 9 9 8 9 8 9 8 8 9 9 9 8 9 9 9 9 9 8 8 8 9 9 8 9 9 9 9 9 9 9 9 9 9 9 9 9 9 9 9 10 9 9 9 9 9 9 10 10 9 10 10 10 10 10 9 10 10 10 10 9 10 10 9 10 9 10 10 10 10 10 11 11 11 11 10 11 11 10 11 11 11 11 11 10 11 10 10 11 11 11 12 11 10 10 10 11 11 11 11 11 11 11 11 11 10 11 11 11 11 11 11 12 11 12 12 11 11 13 11 12 11 12 11 11 11 11 12 11 13 12 12 12 12 12 12 12 13 13 11 12 12 12 13 12 13 12 13 12 12 12 12 12 13 13 12 13 13 13 14 14 15 15 16 15 15 15 14 13 13 14 14 13 13 13 13 12 12 13 12 14 13 13 13 13 14 13 13 12 13 14 13 13 13 12 13 12 12 12 12 13 12 12 12 12 12 12 12 12 12 11 11 12 12 11 12 12 12 12 12 12 12 11 12 12 11 11 11 11 11 11 11 12 11 11 11 10 12 12 11 11 11 10 10 10 10 11 10 10 10 10 10 10 10 10 10 10 10 10 10 10 10 9 9 9 9 9 9 9 10 9 8 9 9 9 9 9 9 8 9 8 9 9 9 9 9 8 8 8 8 8 8 8 8 8 8 8 8 8 8 8 8 8 7 7 9 8 8 8 8 8 8 7 7 8 8 7 8 8 7 8 8 7 7 7 7 7 7 8 8 7 7 8 8 8 7 7 7 7 7 8 7 7 7 7 7 7 7 6 7 7 7 7 6 7 7 7 7 7 7 6 7 7 7 7 7 7 7 6 7 7 7 6 7 7 6 7 7 7 7 7 7 7 6 6 6 6 6 6 6 6 7 6 6 7 0 
6 6 6 6 6 6 6 6 6 6 5 5 6 6 6 5 6 6 6 6 6 5 6 5 6 6 5 6 6 6 6 6 6 6 5 6 6 6 6 7 6 6 6 6 6 6 6 6 6 6 6 6 6 7 6 6 6 6 7 5 6 6 6 6 6 6 6 6 7 7 6 7 6 6 6 6 6 6 7 6 6 6 7 7 7 6 7 6 7 7 6 6 7 7 6 7 6 7 6 6 6 6 6 7 7 7 7 6 7 8 7 7 6 7 7 7 7 6 7 7 7 7 6 7 8 7 7 7 7 7 7 7 7 7 7 7 7 7 8 7 7 7 7 7 7 7 7 7 7 8 8 8 8 7 8 7 8 8 7 7 7 8 7 8 7 8 8 8 7 8 8 8 7 8 8 8 8 8 8 8 7 8 8 8 8 8 8 8 8 8 8 9 8 8 8 8 8 8 8 9 8 8 8 8 9 8 9 9 9 8 8 9 9 9 9 9 9 8 8 9 8 8 9 9 9 9 8 8 9 9 9 9 9 9 10 9 9 8 9 10 9 8 9 9 10 10 9 9 10 9 10 11 10 10 10 10 10 10 9 9 10 10 9 10 10 10 10 9 10 10 10 10 10 10 10 10 10 11 11 11 10 10 11 10 10 11 10 11 11 11 10 11 10 10 11 10 11 11 11 12 10 11 11 11 10 11 11 11 11 11 11 11 11 11 11 11 11 12 12 11 12 11 11 11 12 11 12 12 11 11 13 11 12 11 12 12 11 12 12 13 12 12 11 12 13 12 12 13 12 12 13 13 13 13 12 13 13 14 13 13 13 13 14 14 14 14 14 15 14 14 14 14 14 14 14 13 14 13 14 14 13 13 13 14 13 14 14 13 13 13 14 14 13 13 13 13 13 13 13 13 12 13 12 13 12 12 12 13 12 12 13 12 11 12 13 12 12 12 12 12 13 12 12 13 12 12 12 12 12 11 12 11 12 11 11 11 12 11 11 12 12 12 12 12 11 11 11 11 11 10 11 10 10 11 11 10 10 11 11 10 9 10 10 10 9 9 9 10 10 10 9 9 10 10 9 9 9 9 9 8 9 9 9 9 9 8 9 9 9 8 9 8 9 8 8 9 8 9 9 8 8 8 8 8 8 8 7 8 8 9 8 8 8 8 9 8 8 8 8 7 7 7 8 8 7 8 8 7 8 7 7 8 8 7 7 7 7 7 8 7 8 8 7 7 7 8 7 6 7 7 7 7 6 7 7 7 7 7 7 7 7 7 7 7 7 7 7 7 7 7 6 7 7 7 7 7 7 6 6 7 6 7 7 6 6 6 7 7 6 6 7 6 6 6 6 6 7 6 6 0 
6 5 5 6 5 5 6 6 6 6 6 6 6 5 6 5 5 6 6 6 6 6 5 6 6 6 6 6 6 6 6 6 6 6 6 6 6 6 6 5 6 6 6 7 6 6 6 6 6 6 6 7 6 6 6 6 6 6 6 6 6 6 6 6 6 7 6 6 7 6 6 7 7 7 6 7 7 6 6 7 7 7 6 6 6 7 7 6 7 7 7 6 7 6 7 7 6 6 7 7 7 7 7 6 7 7 7 7 7 7 7 7 7 7 7 7 7 7 7 7 6 7 6 7 7 7 7 8 7 7 7 7 7 7 7 7 7 7 7 7 8 7 7 8 8 7 7 7 8 7 7 7 8 7 7 7 7 7 7 8 8 7 7 8 8 8 8 8 8 8 8 8 7 8 8 8 8 8 8 8 8 8 9 8 7 8 8 8 8 9 8 8 8 8 8 8 8 8 8 8 8 9 8 9 8 9 8 9 8 9 9 9 9 9 8 9 8 8 9 9 9 9 9 9 9 9 9 9 9 9 9 9 9 10 9 9 9 9 9 9 10 10 10 9 10 9 9 10 10 10 10 11 10 10 10 10 10 10 10 10 10 9 10 10 10 10 10 10 10 10 10 11 10 10 10 10 10 10 11 10 10 10 10 10 11 11 11 10 11 11 11 11 10 11 10 11 11 11 11 10 11 11 11 10 10 11 11 12 11 11 11 11 11 11 11 11 11 11 12 11 11 12 11 11 12 11 11 11 11 12 12 12 12 12 12 12 12 13 12 12 12 12 12 12 12 12 12 12 13 13 12 13 12 12 13 13 13 13 13 13 14 14 13 14 14 14 14 14 14 14 14 14 14 15 14 14 13 14 14 13 14 14 14 13 13 13 13 13 13 14 14 13 14 13 13 14 13 14 13 13 12 13 13 13 14 13 13 13 13 12 13 12 12 12 13 12 12 12 12 12 12 12 12 12 13 12 12 12 12 12 12 12 12 12 11 12 11 11 12 11 11 12 12 11 11 10 11 11 11 11 11 10 11 10 10 11 10 11 10 10 11 10 10 11 10 9 10 9 10 10 9 9 10 9 9 10 9 10 9 9 9 8 9 9 9 9 9 8 8 9 9 9 8 8 9 8 8 9 9 8 9 8 8 8 8 8 8 8 8 8 8 8 8 8 7 7 8 7 8 8 8 7 8 8 7 7 7 8 7 7 7 7 8 7 8 8 7 7 7 8 7 7 7 7 6 7 7 7 7 7 7 7 7 7 8 7 7 7 7 7 6 7 7 7 6 7 7 7 7 7 6 7 6 6 7 6 6 6 6 7 7 7 7 6 7 7 6 7 7 7 6 6 7 6 6 6 7 6 7 0 
5 6 6 5 5 6 6 6 6 6 6 6 5 5 6 6 6 6 6 6 5 6 6 6 5 5 6 6 6 6 6 6 6 6 6 5 6 6 5 5 6 6 6 6 7 6 6 6 7 7 6 6 6 6 6 6 6 6 7 6 6 6 6 6 6 6 6 6 6 7 6 7 6 7 6 6 7 6 6 7 7 6 7 7 7 6 7 7 7 7 7 6 6 7 7 7 7 7 6 7 6 7 7 7 7 7 7 6 7 6 7 7 7 6 7 7 7 8 7 7 7 6 7 7 7 7 7 7 7 7 7 7 7 7 7 7 7 7 7 7 8 7 8 7 7 7 8 8 8 8 8 7 8 7 8 7 7 8 7 8 8 8 8 8 8 8 8 7 8 7 7 7 8 8 7 8 8 7 8 8 8 8 9 8 8 8 8 8 8 8 8 8 8 8 8 8 8 9 8 8 8 9 9 8 9 8 8 9 9 8 8 9 9 9 8 9 8 9 9 9 10 9 9 9 9 8 9 9 9 9 9 9 9 9 9 9 9 9 9 9 10 10 9 9 11 10 10 9 9 10 10 10 10 9 9 10 10 10 10 10 10 9 11 10 10 10 10 10 10 10 10 10 10 10 10 10 10 11 10 10 11 10 11 10 11 10 11 11 11 11 11 10 11 11 11 10 11 11 11 11 10 11 11 10 11 11 11 11 11 12 12 12 11 11 11 11 12 11 11 12 11 12 12 11 11 12 12 12 12 12 12 12 12 12 12 12 12 12 13 13 12 13 13 13 12 13 12 12 13 13 12 13 13 12 13 13 13 13 13 13 13 14 13 13 14 14 14 15 14 15 14 14 15 14 14 14 14 14 14 14 14 15 14 14 14 14 14 14 14 13 13 13 13 14 13 14 13 14 13 13 14 13 13 13 13 14 13 13 12 13 13 13 13 13 13 13 13 13 12 12 12 12 13 12 13 12 12 13 12 12 13 11 12 11 12 12 12 11 12 11 12 12 11 12 11 11 12 11 11 11 11 10 11 10 10 11 11 11 10 10 10 10 9 10 11 10 9 9 10 9 9 9 9 10 9 9 8 10 9 9 9 9 9 9 9 9 9 9 9 9 8 9 9 9 8 8 9 9 8 8 8 8 8 8 8 8 8 8 8 8 8 9 8 8 8 8 7 8 8 7 8 8 8 7 7 7 8 7 8 8 8 8 8 7 8 7 7 8 8 7 8 7 7 7 8 8 7 7 7 7 6 7 8 7 7 7 7 7 6 6 7 7 7 7 6 7 6 7 7 7 6 7 6 7 7 7 7 6 6 6 7 7 7 6 6 7 6 6 6 6 6 6 7 6 6 6 6 7 7 0 
6 6 5 6 6 5 6 6 6 6 6 6 6 6 5 6 6 6 6 6 6 6 6 6 6 6 6 6 6 6 6 6 6 6 6 6 6 6 6 6 6 6 5 6 6 6 6 6 6 6 6 6 6 6 6 6 6 6 6 6 6 6 6 6 7 6 6 6 7 7 7 7 7 6 6 7 6 6 6 7 7 6 7 7 6 6 7 6 7 7 6 7 7 6 6 6 7 7 7 6 6 7 7 7 6 7 7 7 7 7 7 6 7 7 7 7 6 7 7 7 7 7 7 7 7 7 7 7 7 6 7 7 7 7 7 8 7 7 7 7 7 7 7 7 7 7 8 7 7 7 8 7 8 7 8 7 7 7 7 7 7 8 7 8 7 8 8 8 8 8 8 8 8 8 7 8 8 8 9 7 8 8 8 8 9 7 9 8 8 8 8 8 9 9 8 9 8 8 9 9 8 9 9 8 8 9 8 9 9 9 8 9 9 10 9 8 9 9 9 9 9 9 9 9 9 9 9 9 10 9 9 9 9 8 9 9 9 9 9 10 9 10 9 10 10 10 9 10 9 10 10 10 10 10 10 9 10 10 10 10 10 10 9 10 10 10 10 10 10 10 11 10 10 10 10 10 11 12 11 10 11 11 11 11 11 11 11 11 11 11 11 11 11 11 11 11 10 10 11 11 12 11 11 11 11 11 11 11 11 10 11 12 11 12 11 12 12 11 12 12 11 12 12 12 12 12 12 12 12 12 12 12 12 12 12 12 13 12 12 12 12 13 13 13 13 13 12 13 14 13 13 13 12 13 13 13 13 13 13 14 14 13 13 14 15 15 14 14 13 14 14 15 15 15 14 15 14 14 14 13 14 14 14 14 15 14 13 13 14 14 14 15 14 14 15 14 13 14 13 13 13 13 13 13 13 12 13 13 13 14 13 13 13 13 14 13 13 13 13 13 12 13 13 12 12 12 13 14 12 12 12 13 12 12 11 12 12 12 12 11 11 12 12 12 12 11 11 11 11 11 10 11 11 10 10 10 10 10 10 11 10 10 10 10 10 10 10 10 10 10 10 9 10 9 10 9 10 9 9 9 9 9 9 8 9 8 9 9 9 9 9 9 9 9 9 9 9 8 8 8 8 8 8 8 8 8 8 8 8 8 8 8 8 8 8 8 8 7 8 8 7 8 8 8 8 7 8 8 8 7 7 7 7 7 8 7 7 8 8 8 7 7 7 8 8 7 7 8 7 7 6 7 7 7 7 7 6 7 7 7 7 7 7 7 7 7 6 7 7 7 6 7 7 7 7 7 6 7 7 7 6 7 7 7 6 6 7 7 7 6 6 7 6 6 6 6 6 7 7 0 
6 6 6 6 6 5 6 6 6 6 6 6 5 6 5 6 6 6 5 6 6 6 6 6 6 6 6 6 5 6 6 6 5 6 6 6 6 6 6 6 6 6 6 6 7 6 6 6 6 6 6 6 6 6 6 6 6 6 6 6 6 6 6 6 6 6 6 7 6 6 6 6 7 6 6 6 6 7 6 6 6 7 6 6 6 7 6 7 6 7 6 7 7 7 6 6 7 7 7 7 7 7 7 7 7 7 6 7 6 7 7 7 6 7 8 7 7 7 7 8 7 7 7 7 7 7 7 7 7 7 7 7 7 7 7 7 7 8 8 7 8 7 8 7 7 8 7 7 8 7 8 8 8 7 8 8 8 8 8 8 7 7 8 8 8 8 7 7 7 8 8 7 8 8 7 8 8 9 8 8 8 8 7 8 8 8 8 8 8 8 8 8 8 8 9 8 8 9 8 9 8 9 8 7 9 9 9 9 8 9 9 9 9 9 9 8 9 9 9 9 9 9 10 9 9 9 9 9 8 9 9 9 10 9 9 9 9 9 9 10 10 10 9 10 9 10 10 10 9 10 9 10 10 10 10 10 10 10 11 10 10 10 11 10 10 11 10 10 10 11 10 11 10 11 10 10 11 11 11 11 10 10 11 12 11 10 11 11 10 11 11 11 10 11 11 11 11 11 11 11 10 11 11 11 11 11 12 11 12 11 12 11 12 11 12 12 12 12 11 12 11 12 11 12 12 12 12 12 11 12 12 12 12 12 12 12 13 12 12 13 13 13 13 13 13 13 12 12 13 12 13 13 13 13 14 14 13 13 13 14 13 14 14 14 15 15 15 15 15 14 15 15 15 16 15 15 15 14 15 14 15 14 14 14 15 14 14 15 14 15 17 15 14 14 14 14 14 14 14 14 14 14 13 14 13 13 14 14 14 13 13 13 13 12 13 13 13 13 13 13 13 14 14 13 12 13 16 13 13 13 12 12 13 13 12 11 12 11 12 12 12 11 12 11 11 11 11 11 11 12 11 10 11 11 10 11 10 10 10 10 10 10 10 11 9 10 10 10 10 9 10 9 9 9 9 9 10 9 9 10 9 10 9 9 9 9 9 9 9 8 9 8 8 9 8 9 8 8 9 9 8 9 8 8 8 8 8 9 8 8 7 8 8 8 8 8 8 7 8 8 8 7 7 8 7 8 8 7 8 8 8 8 7 7 8 7 7 8 7 7 7 7 7 7 7 7 7 7 7 7 7 7 7 8 7 7 7 7 7 7 7 7 6 7 7 7 7 7 7 7 7 6 7 7 7 7 7 7 7 6 7 7 7 7 6 7 7 6 6 7 7 7 6 6 6 7 6 7 7 0 
5 6 6 5 5 5 6 5 6 6 6 6 5 7 6 5 6 6 6 6 5 5 6 6 6 6 6 6 6 6 6 6 6 6 6 6 6 6 7 6 6 6 7 7 6 6 6 6 6 6 6 6 6 6 6 7 6 6 6 6 6 6 5 6 6 6 7 6 6 6 7 7 7 7 7 6 7 6 7 6 7 6 7 7 7 7 7 7 7 6 7 6 7 7 7 6 7 7 7 7 7 6 7 7 7 7 7 7 6 7 7 7 7 6 7 7 7 7 7 7 7 7 7 7 7 7 7 7 7 7 7 7 7 7 7 7 7 7 7 7 8 7 7 7 7 7 8 7 8 7 7 8 7 8 8 8 8 8 7 8 8 7 8 8 8 7 8 8 8 8 8 7 8 8 8 8 8 9 8 9 7 8 8 8 9 8 8 9 8 8 9 8 9 9 8 8 8 8 8 8 8 9 8 8 9 9 9 9 9 8 8 9 8 9 9 9 10 8 9 9 10 9 9 9 9 9 9 9 9 9 9 9 9 9 10 9 9 10 9 10 9 9 10 10 10 10 10 9 10 10 10 9 10 9 9 10 10 10 10 9 10 10 11 9 11 10 10 11 10 10 10 10 10 10 11 11 11 11 10 11 10 11 11 11 10 11 11 11 11 11 11 10 11 11 10 11 11 11 11 11 11 11 11 11 12 12 11 12 11 11 13 12 12 12 12 12 12 11 12 12 13 12 11 11 12 12 12 13 13 13 12 12 12 13 13 13 13 13 12 12 12 13 13 12 13 13 13 14 13 13 13 14 14 14 13 14 13 13 14 13 14 14 15 15 14 14 15 14 15 15 15 14 16 27 17 16 14 14 15 15 14 15 15 14 15 15 15 15 15 16 25 19 15 15 15 14 14 14 14 13 13 14 14 14 14 13 13 14 13 14 13 13 14 13 13 13 13 12 13 14 13 13 14 13 14 13 20 13 13 13 12 12 12 12 12 12 13 11 11 12 12 12 11 12 11 11 12 11 11 10 11 11 11 11 10 11 11 11 10 11 10 10 10 10 10 10 10 10 10 10 10 9 10 9 9 9 10 9 9 10 9 10 10 8 8 9 9 9 8 9 8 9 8 8 9 8 8 8 9 9 9 9 9 8 8 8 9 8 8 8 8 8 8 8 8 8 8 8 8 7 7 8 7 8 8 8 7 8 7 7 8 8 8 7 8 7 8 7 8 8 8 7 8 7 7 7 7 7 7 7 7 7 6 7 7 7 6 7 7 7 7 7 7 7 7 7 8 7 7 6 6 7 6 7 6 7 6 7 7 6 6 7 6 7 7 6 6 7 6 7 7 6 7 6 7 7 7 5 6 0 
6 6 6 6 6 6 6 6 6 6 6 6 6 6 6 6 6 6 6 6 6 6 6 6 6 6 6 6 6 6 7 6 7 6 6 6 6 6 6 6 6 6 6 6 6 6 6 7 6 6 6 6 6 6 6 7 6 6 6 6 6 6 6 6 6 6 6 6 6 7 6 7 6 6 6 6 6 6 6 7 6 6 6 6 7 6 7 6 6 7 6 6 6 6 7 7 7 6 6 7 6 7 7 6 7 7 7 7 6 6 6 7 6 7 7 6 7 7 7 7 8 7 7 7 7 7 7 7 7 6 7 7 7 7 8 7 7 8 7 7 7 8 8 7 7 8 7 8 7 8 7 7 7 8 8 8 8 8 7 8 8 8 8 8 8 7 8 8 8 8 8 8 7 8 8 8 8 8 8 8 8 8 8 8 8 8 8 8 8 8 8 8 8 8 9 8 8 8 8 9 8 9 8 9 8 9 9 9 9 9 9 9 9 9 9 9 8 9 9 8 9 10 9 9 9 9 9 9 10 9 10 10 9 9 10 9 9 10 9 10 9 10 9 10 11 9 11 9 10 11 10 10 10 11 10 11 11 10 10 10 10 10 11 10 11 11 11 11 11 10 10 11 11 10 10 11 11 10 10 11 11 11 12 11 10 11 11 12 10 11 11 11 11 12 11 11 11 11 11 11 11 12 11 12 12 11 11 12 12 12 12 12 11 12 12 11 12 12 13 13 12 11 12 12 13 11 12 12 13 12 12 13 13 12 13 13 13 13 13 13 13 13 12 14 13 12 12 13 13 13 14 14 14 13 14 14 13 14 13 14 14 15 14 14 14 15 15 15 14 15 15 16 15 25 17 15 15 15 14 15 14 15 15 15 15 15 15 15 15 17 43 22 15 14 15 15 14 15 14 15 14 14 14 14 15 14 14 14 14 14 15 14 13 13 14 14 14 14 14 14 13 13 14 13 13 14 16 14 12 13 12 12 13 12 13 13 12 12 12 12 12 12 12 11 11 12 11 11 11 12 10 11 11 11 11 11 10 11 10 10 10 10 11 10 10 9 11 10 10 11 10 10 10 10 8 9 9 10 9 9 9 9 9 9 9 9 9 8 9 9 9 9 8 9 9 8 8 8 9 9 8 9 9 8 8 8 9 9 8 8 8 7 8 9 8 8 8 8 8 7 8 8 8 8 7 8 8 8 8 7 8 8 8 7 7 7 7 7 7 7 7 7 7 7 7 7 7 8 7 7 7 7 7 7 7 7 7 8 7 7 7 7 6 6 7 7 7 6 7 6 7 6 6 7 7 7 7 7 6 7 7 6 6 7 6 7 7 7 6 6 6 6 7 6 6 7 6 6 6 0 
6 5 6 6 5 5 6 6 7 6 6 6 6 6 6 6 6 6 6 5 6 5 6 7 6 6 6 6 6 6 6 6 6 6 6 6 6 5 6 6 6 6 6 6 6 6 6 6 7 6 6 6 6 6 7 6 5 6 7 6 6 6 6 7 6 6 6 6 6 6 7 6 6 6 6 6 7 7 7 6 6 6 7 6 7 7 6 6 6 7 7 7 6 7 7 7 7 7 7 7 7 6 7 6 6 7 7 6 6 7 7 7 7 7 7 7 7 8 7 7 7 7 7 7 7 7 7 8 8 7 7 7 6 7 8 7 7 7 7 7 8 7 7 8 8 7 7 8 7 7 8 8 8 7 8 7 7 8 8 8 8 8 8 8 8 8 8 8 8 7 8 8 8 8 8 8 9 8 8 7 8 8 8 8 8 8 8 8 8 8 9 8 8 8 8 8 8 9 8 9 9 8 9 8 9 8 9 9 9 9 8 9 9 9 9 10 9 9 9 9 9 9 9 10 9 8 10 9 9 9 9 10 9 10 9 10 9 10 10 9 10 10 10 10 9 10 9 11 10 10 9 9 10 10 10 10 10 10 10 11 10 10 10 11 10 11 10 10 11 10 11 11 11 11 10 10 11 10 10 11 10 12 11 12 11 11 11 12 11 11 12 11 12 11 11 11 11 11 12 12 11 12 12 11 12 11 11 12 12 11 12 12 12 11 11 12 12 12 11 12 12 12 12 12 12 12 12 12 13 12 12 13 12 12 13 13 13 13 12 13 13 13 13 13 13 14 14 13 14 14 13 14 14 14 14 14 14 14 14 13 14 14 15 14 14 14 15 15 15 15 15 15 17 17 16 15 16 16 15 15 16 15 15 15 16 15 16 16 15 16 22 16 16 14 15 15 15 15 15 15 14 14 16 14 14 15 15 14 15 14 13 14 15 14 14 14 15 15 14 13 14 14 14 15 14 15 12 13 13 13 12 12 13 13 12 13 13 12 12 12 12 12 11 11 12 11 11 12 10 11 11 11 11 11 11 11 12 11 11 10 11 11 11 10 10 10 10 10 10 10 10 10 9 10 10 9 10 9 9 10 9 9 9 9 9 9 9 9 9 9 9 9 9 9 9 9 9 8 8 9 9 8 8 8 8 8 9 8 9 8 8 8 8 9 8 8 8 8 8 7 8 7 7 8 8 8 8 8 7 8 7 7 8 7 8 8 7 8 7 7 7 8 7 8 7 8 8 7 7 7 8 7 7 7 7 7 7 7 7 7 6 7 7 7 7 7 7 7 7 7 7 7 6 7 7 7 7 7 7 7 7 6 6 7 7 7 7 6 7 6 7 7 6 7 7 7 7 6 6 0 
6 6 6 6 6 6 6 6 6 6 6 6 6 6 6 6 6 6 6 6 5 6 6 6 5 6 6 6 6 7 6 6 6 6 6 6 6 6 6 6 6 6 6 6 6 6 6 6 6 6 6 6 6 6 6 7 6 6 7 6 7 6 7 6 6 7 7 6 6 6 7 7 6 7 6 6 7 6 7 7 6 7 6 6 6 7 6 7 6 7 6 7 7 7 7 7 7 6 7 7 6 7 7 7 7 7 6 7 7 7 6 7 7 7 7 7 7 7 7 7 7 7 6 7 7 7 7 7 7 8 7 8 7 8 7 7 7 8 7 7 7 7 8 8 8 8 7 7 8 8 7 7 8 7 8 7 7 8 7 7 8 8 7 8 8 7 7 8 8 8 7 8 7 8 8 8 8 8 8 8 8 8 8 8 8 8 8 9 8 9 8 9 8 8 8 9 9 8 8 8 9 9 9 8 9 8 9 9 9 9 9 9 9 9 9 9 9 9 8 9 9 9 10 9 9 10 9 9 8 9 9 9 10 10 10 10 9 9 10 9 10 10 11 10 10 10 10 10 10 10 10 10 10 10 10 10 10 10 10 11 10 10 11 11 10 10 10 11 10 11 11 11 10 10 10 11 11 11 11 11 11 11 11 10 11 11 11 11 11 11 11 11 11 11 11 11 12 12 11 11 12 12 11 11 12 11 12 12 13 12 12 12 12 12 12 13 12 13 12 12 12 11 12 12 13 12 12 12 13 13 13 12 13 13 13 13 13 13 13 13 13 14 13 13 14 13 14 14 14 14 14 14 14 13 14 14 15 15 14 14 15 15 14 15 15 15 15 15 16 15 16 16 16 17 16 17 16 16 16 16 16 16 16 16 19 16 16 15 15 16 17 15 15 16 15 16 15 14 14 15 15 15 14 15 15 15 14 14 14 15 15 14 15 14 15 15 15 15 14 15 15 15 15 14 15 15 14 14 14 13 13 12 13 13 13 13 14 13 12 12 13 11 12 12 11 12 12 12 12 11 11 11 11 11 11 10 10 11 11 11 10 10 11 10 10 10 11 10 10 10 10 10 9 10 9 9 9 10 10 9 9 9 10 9 9 9 9 9 9 9 9 9 8 9 9 9 8 8 8 8 8 9 8 9 8 8 9 9 9 9 8 8 8 8 9 8 8 9 8 8 8 8 8 8 8 8 8 8 8 7 7 7 7 7 8 7 8 7 7 8 8 7 7 7 8 8 7 7 7 8 7 8 7 7 8 7 7 7 7 7 7 7 7 7 7 7 6 7 7 7 7 6 7 7 7 6 6 7 7 7 7 7 7 6 7 6 7 7 7 6 6 6 7 7 6 6 7 7 6 0 
6 6 6 5 6 5 6 6 6 5 6 6 6 6 6 6 6 6 6 6 6 6 5 6 6 6 6 6 6 5 6 6 6 6 6 6 6 6 6 6 6 6 6 5 6 7 6 6 6 6 6 7 7 6 6 6 6 6 7 6 6 6 6 6 6 7 6 7 7 7 6 7 6 7 6 6 7 7 7 7 7 7 7 7 7 7 6 6 7 6 6 7 7 6 7 6 7 7 7 7 7 7 7 7 7 6 7 7 7 7 7 7 6 7 6 7 7 8 7 7 8 7 7 7 8 7 8 7 7 7 7 7 7 7 7 7 7 7 7 7 7 8 8 7 8 8 7 8 8 8 8 7 7 8 8 7 8 8 8 8 7 7 8 8 8 8 8 7 7 8 7 8 8 8 8 8 7 8 8 7 8 8 8 8 8 8 9 9 9 9 9 8 8 8 9 9 9 9 9 8 9 9 9 9 9 9 9 9 9 9 9 9 9 9 9 10 9 9 9 10 10 10 9 10 10 9 9 9 9 10 10 9 9 9 10 10 9 10 9 10 10 10 9 10 10 10 10 10 11 10 10 10 10 10 10 10 10 10 11 10 10 10 10 10 11 11 11 11 10 10 11 11 11 11 11 10 10 11 11 12 11 11 11 11 10 11 11 12 11 12 11 11 12 11 12 12 12 12 11 11 12 12 11 12 12 12 12 13 12 12 12 12 12 13 12 12 12 12 12 12 12 14 13 12 13 12 13 12 13 13 13 13 13 12 13 13 14 13 13 14 13 13 13 13 14 14 13 14 14 13 14 14 14 13 14 14 15 15 15 15 15 15 15 15 15 16 16 16 16 16 15 15 15 16 16 16 17 16 16 17 16 16 17 16 22 17 16 16 15 16 15 15 16 16 15 15 16 16 14 15 14 15 15 15 14 16 15 15 14 15 15 15 16 15 15 16 14 15 15 15 15 14 15 15 16 15 15 14 15 14 13 14 13 13 13 13 12 13 12 13 12 12 12 12 12 12 12 12 12 12 12 11 12 11 12 10 11 11 11 11 11 11 10 10 11 11 10 10 10 10 10 10 10 9 9 10 10 10 9 10 9 9 10 9 9 9 9 10 9 9 9 9 9 9 9 8 9 8 9 9 8 8 8 9 9 9 8 8 8 9 8 8 8 7 8 8 8 8 8 8 9 8 7 8 8 8 8 8 8 8 8 8 7 8 8 8 7 8 7 8 8 8 8 7 8 8 7 8 7 7 7 7 7 7 7 7 7 7 7 7 7 7 7 7 7 7 7 7 7 7 7 7 7 7 7 7 6 7 6 7 7 7 7 7 6 7 7 7 7 6 6 7 7 6 6 7 7 6 6 0 
6 6 6 6 6 6 6 6 5 6 6 6 5 6 6 6 6 6 6 6 6 6 6 6 6 6 6 6 6 6 6 6 6 7 6 6 6 6 6 6 6 6 6 6 7 6 6 7 6 6 6 6 6 6 6 6 6 6 6 7 6 6 6 6 6 6 6 6 6 6 6 6 7 6 6 7 7 7 6 6 7 7 7 7 6 7 6 6 6 6 6 7 7 7 6 6 7 6 7 6 7 7 6 7 7 7 7 6 7 7 7 7 7 7 7 7 7 7 7 7 7 7 7 7 7 7 7 7 7 7 7 8 8 7 7 7 7 8 8 8 7 7 7 8 8 7 8 8 8 7 8 8 7 8 7 8 7 8 8 7 7 8 8 8 7 8 9 8 7 8 8 8 8 8 8 8 8 8 8 8 9 8 9 8 9 9 8 8 8 9 9 9 9 8 9 8 9 8 8 8 9 9 9 9 9 9 9 9 8 9 9 9 9 9 9 9 9 9 9 9 10 9 10 9 9 9 10 10 9 9 10 10 10 9 9 10 10 10 10 10 10 9 10 10 10 10 9 10 10 10 11 10 9 10 10 10 10 11 10 10 10 11 10 11 11 12 11 10 10 11 10 11 11 11 11 11 11 11 11 11 11 11 11 11 11 11 11 11 12 12 11 11 11 12 12 12 11 11 12 11 12 12 12 11 12 12 12 12 13 12 13 12 12 13 12 13 13 12 13 12 12 13 12 13 13 13 13 13 13 13 13 13 13 14 13 13 13 13 13 14 14 13 13 15 13 14 14 14 14 14 14 15 15 14 15 15 15 15 15 13 15 15 15 15 14 15 14 16 15 16 16 16 16 16 17 17 17 17 16 16 16 16 16 16 17 16 17 15 17 16 15 16 17 16 16 15 16 15 16 15 16 15 16 15 15 15 15 16 16 15 15 16 15 16 16 16 16 16 16 17 16 17 16 18 16 15 15 15 14 13 13 13 13 13 14 13 13 12 13 13 13 13 13 12 12 12 13 12 12 11 12 11 11 12 11 10 12 11 11 11 11 11 11 10 11 11 12 11 11 11 10 9 10 9 10 10 9 10 9 10 9 9 9 9 9 9 9 9 10 8 8 9 9 8 9 9 9 9 9 8 8 9 8 8 9 9 8 8 8 8 7 8 7 9 8 8 8 8 8 8 8 8 8 8 8 8 8 7 8 7 8 7 8 8 8 7 8 7 7 8 7 8 7 7 7 7 8 7 7 7 7 7 7 7 7 7 7 7 8 7 7 7 7 7 7 7 7 7 7 7 7 6 7 7 7 7 7 7 7 7 7 6 6 7 7 7 6 7 7 6 6 6 6 7 7 6 7 6 7 0 
6 6 6 6 6 6 6 5 5 6 5 6 5 6 6 6 6 6 6 7 7 6 6 6 6 6 6 6 6 6 6 6 6 6 6 6 6 6 6 6 6 7 6 6 6 6 6 6 6 6 6 6 6 6 6 7 6 6 6 7 6 6 7 6 6 6 7 6 7 6 6 6 7 7 7 6 6 6 6 6 7 7 6 6 6 6 6 7 7 7 7 6 7 7 7 6 7 7 6 6 7 7 7 7 7 7 6 7 6 7 6 6 8 7 7 7 7 7 7 7 7 7 7 7 7 7 7 7 7 7 7 7 8 7 8 7 7 7 7 7 7 7 7 8 7 8 8 7 8 8 7 8 8 7 8 7 7 7 8 8 8 8 8 7 8 8 8 8 8 8 8 8 8 8 8 8 8 8 8 8 8 8 8 8 8 8 8 9 8 9 9 8 9 8 8 8 9 9 9 9 9 8 9 8 9 9 9 9 9 9 9 9 8 10 9 9 10 9 9 10 10 10 10 10 10 9 9 10 9 10 10 10 10 9 10 10 10 10 9 10 10 10 10 10 9 10 10 11 10 11 10 10 11 10 11 10 11 11 11 11 11 10 11 11 11 11 11 11 11 11 11 11 12 11 11 11 12 11 11 12 11 11 11 11 11 11 12 11 12 11 12 12 11 11 11 12 12 11 12 12 12 12 12 13 12 11 12 12 12 12 12 12 12 12 12 12 12 12 12 12 12 13 13 13 12 13 13 13 14 13 14 13 13 13 13 13 14 14 13 14 13 14 14 14 14 14 14 14 15 15 14 15 15 15 15 14 15 15 15 15 16 15 16 14 16 17 16 16 16 16 17 16 17 18 17 16 17 17 17 16 17 17 17 17 16 16 17 17 16 17 17 16 17 16 16 17 16 15 16 17 17 16 15 15 15 15 15 16 16 15 15 17 15 16 16 16 16 16 16 18 19 17 19 20 20 17 16 15 14 13 14 14 14 13 14 14 13 13 12 13 12 13 12 12 12 12 13 11 12 13 11 12 13 12 12 12 11 11 11 11 11 11 10 11 11 11 11 10 11 10 10 10 10 10 10 11 10 9 9 10 9 9 10 9 10 9 10 9 10 9 8 9 9 9 8 8 9 8 9 9 8 8 8 8 9 8 9 9 8 8 8 9 9 8 9 8 8 8 8 7 8 8 8 8 8 8 7 7 8 8 8 8 8 7 7 8 7 8 7 8 8 8 7 7 8 7 7 7 7 7 7 7 8 7 6 7 7 7 8 7 7 7 7 7 7 7 7 7 7 7 7 7 7 7 6 6 7 7 6 7 7 7 7 7 7 6 7 7 7 7 7 7 6 6 6 6 7 7 7 0 
6 5 6 6 5 6 6 7 6 6 6 6 6 5 5 6 6 6 6 6 6 5 6 6 6 5 6 6 6 6 6 6 6 6 6 6 6 5 6 6 7 6 6 6 6 6 6 6 6 6 7 6 6 6 6 7 6 6 6 6 6 7 6 6 6 6 7 6 6 6 7 6 7 7 7 6 6 7 7 6 6 7 6 6 7 7 6 6 6 6 6 7 7 7 7 6 6 7 7 6 7 7 7 7 7 7 7 7 7 7 7 7 7 7 7 7 7 7 7 7 7 7 7 6 8 7 7 7 7 7 8 7 7 7 7 7 7 7 7 7 8 7 8 8 7 7 8 7 7 7 8 8 8 7 8 8 8 8 8 8 8 7 8 8 8 8 8 8 8 8 8 8 8 9 8 8 8 8 8 8 9 8 9 9 8 9 9 9 8 8 8 9 9 9 9 9 9 9 9 9 8 8 9 9 10 9 9 9 9 9 9 10 9 9 10 9 9 9 9 9 10 9 9 9 9 10 10 10 9 10 10 9 10 10 10 10 9 10 10 10 10 10 10 10 10 10 10 10 10 10 11 10 10 11 10 10 10 11 11 11 10 11 11 10 11 11 11 11 12 11 11 11 11 11 11 11 11 11 11 11 12 11 11 11 12 12 12 11 12 11 12 11 11 12 12 12 12 12 12 12 12 12 12 12 12 12 12 12 12 11 13 13 12 13 13 13 12 13 13 14 12 12 13 13 13 13 13 14 13 14 13 13 13 14 13 13 14 14 13 14 14 14 15 14 14 14 13 14 14 15 15 15 14 14 15 14 15 16 15 15 15 15 16 16 16 16 17 16 16 16 17 16 18 19 18 16 17 17 18 17 17 17 17 17 17 17 16 17 17 16 17 16 17 17 17 16 17 16 16 17 16 17 17 15 16 16 15 17 16 17 17 15 16 16 17 17 17 18 21 22 23 20 22 19 24 17 16 16 14 14 15 14 14 14 13 13 14 13 13 14 13 13 13 13 11 12 12 12 12 13 12 12 11 11 12 12 10 11 11 11 11 11 11 11 11 11 11 11 10 11 10 9 10 10 10 9 10 9 10 9 10 9 9 9 10 9 8 9 10 9 9 9 9 8 9 9 8 8 9 8 9 8 8 9 9 9 9 8 9 9 9 8 8 8 8 8 8 8 8 7 8 8 8 8 9 7 8 8 8 7 7 8 7 8 7 7 8 8 8 7 7 7 7 7 7 7 7 7 8 7 7 8 7 7 7 7 7 8 7 7 7 7 7 6 7 7 7 6 6 7 7 7 7 7 7 7 6 7 6 6 7 6 7 6 7 7 6 7 7 6 6 7 6 7 7 7 6 6 7 0 
6 6 6 5 6 6 6 6 5 6 6 5 6 6 6 5 6 6 6 6 6 6 6 6 6 6 6 6 6 6 6 6 6 6 6 6 6 6 6 6 6 6 6 6 6 6 6 6 6 7 6 6 6 6 6 6 6 6 6 6 6 6 6 6 6 6 7 6 6 7 6 7 6 7 6 7 7 7 7 7 7 7 6 7 7 7 7 7 7 7 6 6 7 7 7 7 7 7 7 7 7 7 6 7 6 7 7 7 7 7 7 7 7 7 7 6 7 7 7 7 7 7 7 7 8 7 7 7 7 7 8 7 7 7 7 7 8 8 8 7 8 8 8 7 7 8 8 8 8 8 8 7 8 7 8 7 8 8 8 8 9 8 8 7 8 8 8 7 8 8 8 7 9 9 9 8 8 8 9 8 8 9 8 8 9 8 8 9 9 8 9 8 9 9 9 9 9 9 9 9 8 9 8 9 9 9 9 10 9 9 9 10 9 9 9 9 9 9 9 10 9 10 9 9 10 9 9 10 10 9 10 9 10 10 10 10 9 9 11 10 10 10 10 10 10 10 10 10 10 10 10 11 11 10 10 11 11 11 10 11 11 10 10 11 11 11 11 11 11 10 11 11 11 11 11 11 12 11 11 12 11 12 12 12 11 12 11 11 11 12 11 12 12 12 12 12 12 12 11 12 12 12 12 12 12 12 12 12 12 12 13 12 12 12 12 13 13 12 12 13 14 13 13 13 13 13 14 13 13 13 14 14 14 13 15 14 13 14 14 14 14 13 15 14 14 15 14 15 14 16 15 15 16 16 15 16 15 15 15 16 15 16 17 16 16 16 16 17 16 17 17 19 17 18 18 18 17 18 18 18 17 17 17 17 17 16 17 17 16 17 17 17 16 16 16 17 16 17 15 17 16 16 15 15 16 16 16 16 17 17 17 16 17 18 17 18 18 20 27 26 24 23 25 21 24 20 19 15 16 15 14 15 15 13 14 14 14 13 14 13 13 13 13 13 13 13 13 13 12 13 12 13 12 11 11 13 11 11 11 11 11 10 11 11 11 11 11 11 10 10 10 9 10 10 9 10 10 10 10 10 10 9 10 9 9 10 9 10 9 9 9 9 10 9 8 9 9 9 8 9 9 9 8 8 8 9 9 9 8 9 8 9 8 7 8 8 8 8 8 8 7 8 8 8 8 8 8 8 8 8 8 7 8 7 8 8 8 7 7 8 8 8 7 7 7 7 7 7 8 7 7 7 7 7 7 7 7 7 7 7 8 7 7 8 7 7 7 7 7 7 7 7 6 8 6 7 7 7 7 7 6 7 7 7 6 6 6 7 7 7 6 7 7 6 7 7 6 7 6 0 
5 6 6 6 5 6 6 6 6 6 5 5 6 6 6 6 5 5 6 6 6 6 6 6 6 6 6 6 6 6 6 6 6 5 6 6 6 6 6 6 6 6 6 6 6 6 6 6 6 7 7 6 7 6 7 6 6 6 7 6 6 6 7 7 6 6 6 6 7 7 7 6 6 7 7 6 7 7 7 6 6 6 6 7 7 7 7 7 6 6 7 6 7 6 7 7 7 7 7 7 6 7 7 7 7 7 7 7 7 7 6 7 6 7 6 7 7 7 7 7 7 7 7 8 8 7 8 7 7 8 7 8 7 8 8 7 7 8 8 7 7 7 7 8 8 8 7 8 8 7 7 8 8 8 8 8 8 8 8 7 8 8 7 8 9 7 8 8 8 8 8 9 8 7 8 8 8 9 8 9 8 9 9 8 8 8 8 9 9 10 9 8 9 9 9 9 9 9 9 9 9 9 9 9 9 9 9 9 10 9 9 9 9 9 10 9 9 9 9 9 10 10 10 10 8 10 10 10 9 10 10 10 10 10 10 10 10 9 9 11 10 10 10 11 10 11 11 10 11 11 10 11 11 11 11 9 10 11 11 10 10 11 10 11 11 11 11 11 11 11 10 11 11 11 12 11 11 12 12 12 11 12 12 12 12 12 11 12 11 12 12 13 12 12 11 12 12 12 12 12 12 13 12 12 12 12 12 12 13 12 13 13 12 12 12 12 13 13 13 13 13 13 13 14 14 13 14 13 13 14 14 14 14 14 14 14 14 14 14 15 14 14 15 14 15 14 14 14 15 14 14 15 15 16 15 16 15 15 16 16 16 15 16 16 16 17 16 17 17 17 17 18 17 18 18 17 18 18 22 17 18 18 18 17 17 18 18 17 17 18 17 18 18 17 18 17 17 17 17 17 16 17 16 17 17 17 17 17 18 18 19 19 19 19 18 19 21 24 28 23 23 23 30 23 23 22 18 17 17 16 16 16 15 15 14 14 14 15 15 14 13 13 13 13 14 13 12 12 12 13 12 13 12 12 12 12 12 12 12 12 12 12 12 11 11 11 11 11 11 10 11 10 10 10 10 10 10 10 10 10 10 9 9 10 9 9 10 9 9 9 9 9 9 10 9 9 8 10 8 9 9 9 9 8 8 8 8 8 9 9 8 8 8 8 7 8 8 8 8 8 8 8 8 8 8 8 8 8 8 8 8 7 7 8 8 7 7 8 7 7 8 8 7 8 7 7 8 8 7 8 7 7 8 7 7 7 7 7 8 7 7 7 7 7 7 7 7 6 7 7 7 7 7 7 6 6 6 7 6 7 7 7 7 7 6 7 6 7 6 7 6 7 7 7 6 6 6 6 7 0 
6 6 6 5 6 5 6 6 7 5 6 6 6 6 6 6 6 6 6 5 6 6 6 6 6 6 6 6 6 7 7 6 6 6 6 6 6 6 5 6 6 6 7 6 6 6 6 6 7 6 6 6 7 6 6 6 6 6 6 6 6 7 6 6 7 7 7 6 6 7 7 6 6 6 7 7 7 7 6 7 6 6 6 7 6 6 7 7 7 7 7 7 6 7 6 7 7 7 7 7 7 7 7 7 7 7 7 7 7 7 7 7 8 7 7 7 7 7 7 7 7 7 7 7 8 7 8 7 7 7 7 7 8 8 8 7 7 7 8 7 7 8 8 8 8 8 8 7 8 8 8 8 8 8 8 7 8 8 8 8 8 7 8 8 8 7 9 7 8 8 8 8 8 8 9 8 8 8 8 8 9 8 8 9 9 8 8 8 9 9 9 9 9 8 8 9 9 10 8 9 10 9 9 8 9 9 9 9 9 9 8 9 10 9 10 10 9 10 8 8 10 10 10 10 9 9 10 10 10 10 10 10 10 10 10 9 10 9 10 10 11 10 10 11 10 10 11 11 11 11 10 11 11 11 11 11 10 11 11 11 11 11 11 11 11 11 10 11 12 11 12 11 11 11 12 11 11 12 12 11 11 11 11 12 12 12 12 12 11 12 12 12 13 12 13 12 12 12 12 12 13 12 13 13 12 12 13 13 13 12 13 13 13 13 13 13 14 13 13 13 14 13 14 13 14 14 14 14 14 14 15 15 14 14 13 14 14 14 14 15 14 15 15 15 15 15 16 15 15 15 14 16 15 15 16 16 17 16 16 17 16 17 17 17 17 17 17 18 17 18 17 18 17 17 19 19 18 19 19 18 19 19 18 17 17 17 17 18 18 18 17 18 17 18 18 18 17 18 17 17 17 17 17 17 17 18 18 19 19 19 20 19 19 19 19 21 23 25 22 21 24 23 24 21 21 23 25 17 16 16 15 16 15 14 15 15 15 14 14 13 14 14 13 13 13 14 13 13 14 13 12 12 12 12 12 12 13 11 11 12 11 11 11 11 11 11 11 10 11 11 10 10 10 11 10 10 10 10 10 10 10 10 10 10 10 9 10 10 10 10 10 9 9 9 9 9 9 9 8 8 9 9 9 9 8 8 8 8 9 9 8 8 8 8 9 8 8 8 8 9 7 7 8 8 8 8 7 8 8 8 8 8 8 7 7 8 8 7 8 8 8 7 7 8 7 7 6 7 8 7 7 7 7 7 7 7 7 7 7 7 7 7 6 7 7 7 7 7 7 7 7 8 7 6 8 6 7 7 7 6 7 6 7 6 6 7 7 7 7 7 7 6 6 6 6 6 7 6 7 0 
5 5 6 6 6 5 6 6 6 6 6 6 6 6 6 6 6 6 6 6 6 6 6 6 6 6 5 6 6 6 7 6 6 6 6 6 6 6 6 6 6 6 6 6 6 6 5 6 7 5 6 6 6 6 6 7 7 6 7 7 6 7 6 6 7 6 7 7 6 6 7 6 6 7 6 6 7 6 6 6 6 7 6 7 7 7 7 6 6 6 6 7 8 7 7 7 8 7 7 7 7 7 7 7 7 7 8 7 7 7 7 7 7 7 7 7 7 7 7 8 7 7 7 8 7 7 7 7 7 7 8 7 8 7 7 7 8 7 7 7 7 8 8 7 7 7 7 8 7 8 8 8 8 8 7 8 8 8 8 8 8 8 8 8 8 7 7 8 8 8 8 8 8 8 8 8 8 8 8 9 9 9 9 8 8 9 9 9 9 9 9 9 8 9 8 9 9 8 9 9 9 9 10 9 9 9 9 9 10 9 10 10 9 9 10 9 10 9 9 10 10 10 10 9 9 10 11 10 10 11 9 10 10 10 11 10 10 10 10 10 10 11 11 11 10 10 10 11 10 10 11 10 10 11 11 10 11 11 11 11 11 11 11 11 11 11 11 11 11 11 12 11 11 11 12 11 12 12 11 11 12 12 12 12 12 12 11 12 12 12 12 12 12 13 13 12 12 12 13 12 13 12 13 13 13 12 12 12 14 13 13 13 13 13 14 13 13 13 14 14 13 14 14 14 14 13 15 13 14 14 15 13 14 14 14 14 13 15 14 15 15 15 15 15 16 15 15 15 16 15 16 16 16 15 16 15 16 16 17 17 17 16 17 17 17 17 17 18 18 17 19 17 18 19 18 18 19 20 20 20 19 19 18 19 19 18 17 18 18 17 20 18 18 18 18 18 17 18 18 18 17 18 18 18 18 18 19 20 21 21 22 22 20 21 21 23 27 23 21 21 21 20 19 21 22 21 23 20 17 16 16 16 17 15 16 15 15 14 14 15 14 14 13 14 14 14 16 14 15 16 14 13 12 13 12 12 12 12 11 12 11 11 11 12 10 10 11 11 10 11 10 11 11 11 10 10 10 10 10 10 10 10 10 9 10 9 9 10 10 9 9 9 9 9 9 8 9 9 9 9 9 9 9 9 8 9 8 8 8 8 8 8 8 9 8 8 8 7 8 8 8 8 8 8 8 8 7 8 8 8 8 8 8 8 7 8 8 8 8 8 8 8 7 8 7 8 7 7 8 8 7 7 7 8 7 7 7 7 7 7 7 7 7 7 7 7 7 7 7 7 7 7 7 7 7 7 7 7 7 7 6 8 7 6 7 7 6 6 7 6 6 7 6 6 7 7 6 6 7 0 
6 6 6 6 5 6 6 6 6 6 5 6 6 6 6 6 6 7 6 6 6 6 6 7 6 6 6 6 5 6 6 6 6 6 7 6 6 6 6 6 6 6 7 6 6 6 6 7 7 6 6 6 6 7 6 7 6 7 6 6 6 7 6 7 6 7 6 6 7 6 7 7 6 7 6 6 7 7 6 6 6 7 7 7 7 6 8 7 6 6 7 7 6 7 6 6 7 7 7 8 6 6 7 7 7 7 6 7 7 7 7 7 7 7 7 7 7 8 7 7 7 7 7 7 7 7 7 7 7 8 7 7 8 8 7 7 8 7 7 8 8 8 8 8 8 8 8 7 7 9 8 8 8 8 8 7 8 8 8 8 8 9 8 8 9 7 8 8 8 9 8 8 8 8 8 8 8 9 8 8 8 9 9 8 9 9 9 8 9 8 8 8 9 9 9 9 9 9 9 10 9 9 9 9 9 10 9 9 10 9 9 9 9 10 10 9 10 10 9 10 9 9 9 10 9 10 10 10 10 10 10 10 10 10 10 10 10 10 11 10 11 10 10 10 10 10 11 11 10 11 10 10 11 11 11 10 11 11 10 11 11 11 11 11 11 12 12 11 12 11 11 12 12 12 11 12 11 12 12 12 12 12 12 12 12 12 12 12 12 12 12 13 13 12 12 12 12 13 13 13 12 14 13 13 13 13 13 13 13 13 13 13 13 13 13 14 13 13 13 14 14 14 14 14 14 14 14 13 14 14 14 15 14 14 15 15 15 15 15 15 15 15 15 15 15 15 16 15 16 16 16 16 16 16 16 17 17 16 17 17 17 17 17 17 17 18 18 18 18 19 18 19 19 18 20 20 20 23 26 21 20 20 19 18 18 18 19 19 19 17 21 19 17 19 18 19 18 19 18 19 18 18 19 20 19 20 20 21 22 20 22 22 21 24 23 24 27 24 20 20 19 18 18 18 19 20 23 20 18 16 17 16 17 15 16 18 16 16 15 15 15 15 16 15 17 16 15 16 15 15 14 12 13 12 12 12 12 12 12 11 12 12 11 12 12 11 11 11 11 11 10 11 10 11 10 10 11 10 11 10 10 10 10 9 9 10 10 10 9 9 9 9 10 9 9 9 9 9 9 8 9 9 9 8 9 9 9 8 8 8 9 8 8 8 8 9 8 8 8 8 8 8 8 8 8 8 8 8 8 7 8 7 8 8 8 8 8 8 7 8 7 8 8 7 8 7 7 7 7 7 7 7 8 7 7 7 7 8 7 7 7 7 7 7 7 7 7 7 7 6 7 7 7 6 7 7 7 7 7 7 7 7 7 7 6 7 7 7 6 7 7 7 6 6 7 7 7 7 7 0 
6 6 5 6 6 6 6 6 6 6 5 6 6 6 6 6 6 6 6 6 6 5 6 6 6 6 6 6 6 6 6 6 6 5 6 6 6 6 6 6 6 7 6 6 6 6 6 6 7 7 6 6 7 6 6 7 6 6 6 6 6 6 6 7 6 7 6 7 6 7 7 7 6 7 7 6 7 7 6 7 7 7 7 7 7 6 6 7 6 7 6 7 7 6 6 7 7 6 7 7 7 7 7 7 7 6 7 7 7 7 8 7 7 7 7 7 7 7 7 7 7 7 8 7 7 8 7 7 7 7 7 8 7 7 7 7 8 8 8 8 7 8 8 8 8 7 7 7 8 9 8 8 8 8 8 8 8 8 8 9 8 9 9 8 8 8 8 8 8 9 9 8 8 8 8 8 9 8 8 8 9 8 8 8 9 9 9 9 9 9 8 9 9 9 9 10 10 9 9 9 10 9 8 9 9 9 9 9 9 9 9 10 9 9 9 9 9 10 9 9 10 10 10 10 10 10 10 11 10 10 11 10 9 10 10 9 11 10 10 10 10 10 10 11 11 11 10 10 11 11 10 11 10 11 11 11 11 11 11 10 11 11 11 11 12 12 11 12 11 12 11 12 11 12 12 12 11 12 12 12 12 12 12 13 12 12 12 13 13 12 12 13 12 13 12 13 12 13 13 12 12 13 13 13 13 13 13 12 13 12 14 14 13 13 13 13 14 14 13 13 14 13 14 14 15 14 14 14 14 14 15 14 15 15 15 15 15 15 15 14 15 16 15 15 16 16 16 16 16 15 16 16 17 17 17 17 17 17 17 17 18 18 18 18 18 18 18 18 19 19 20 19 20 21 20 19 21 24 31 21 21 20 20 18 19 19 19 19 20 19 19 19 18 19 19 19 19 20 21 20 20 20 20 21 21 20 23 25 25 23 23 23 25 24 27 25 28 26 21 20 19 18 18 18 19 21 23 22 19 18 17 17 16 17 17 17 17 16 16 15 15 15 16 16 16 16 15 16 16 16 15 14 13 13 13 13 12 12 12 12 12 11 12 11 11 11 11 12 11 11 11 11 10 11 11 11 10 11 11 10 9 10 10 10 10 10 10 9 10 10 9 9 10 9 10 9 9 9 9 9 9 9 9 8 9 9 8 8 9 8 9 8 9 9 9 9 8 8 9 8 9 8 9 8 8 8 9 8 8 8 9 8 8 8 8 7 8 7 8 8 8 8 8 7 8 7 8 7 8 7 8 8 7 7 7 7 7 7 8 7 7 7 6 7 6 8 7 7 6 7 7 7 7 7 7 7 6 6 7 6 6 6 7 7 7 6 7 7 6 7 7 6 7 6 6 7 7 7 7 0 
6 6 6 6 6 6 6 6 5 6 6 5 6 6 6 6 6 6 5 6 6 6 6 7 6 6 6 6 6 6 6 6 6 6 5 6 6 6 6 6 6 6 6 7 6 6 6 6 6 6 6 6 7 7 6 7 6 7 6 7 6 7 6 6 6 7 7 7 7 6 7 7 6 7 7 6 6 6 7 6 7 7 7 7 6 7 7 6 6 7 6 7 7 7 7 7 7 7 7 7 7 7 6 6 7 7 7 7 8 7 7 7 7 8 7 7 7 7 7 7 7 7 7 7 7 7 7 7 8 7 8 8 8 7 8 8 7 8 8 8 8 7 7 8 7 8 7 8 7 8 8 8 7 8 8 8 8 8 8 8 8 8 8 8 8 8 8 8 8 8 8 9 8 9 8 9 8 8 8 9 8 9 9 8 8 9 9 9 9 9 9 9 9 9 9 10 9 10 8 9 9 9 9 10 9 9 10 9 9 9 10 9 10 9 10 10 9 9 9 9 10 10 10 10 10 10 9 11 10 10 10 10 10 10 10 10 10 10 10 10 10 10 10 11 10 11 11 11 11 11 10 12 11 11 11 11 11 11 11 11 11 12 11 11 11 11 11 11 12 11 12 12 13 12 12 12 12 13 12 12 12 12 12 12 12 13 13 12 12 13 12 12 12 12 13 13 13 13 13 13 13 13 13 13 13 13 13 13 14 14 13 13 14 12 14 14 14 14 14 14 14 15 14 14 14 14 14 15 15 14 14 14 16 15 15 15 15 15 15 15 15 15 16 15 15 16 15 17 16 16 16 17 18 17 17 17 18 18 18 18 19 18 19 18 18 18 19 20 19 19 19 20 21 21 20 21 21 23 24 22 21 21 19 20 20 20 20 20 20 19 19 19 19 19 20 18 20 20 22 20 20 21 21 22 22 23 23 27 29 29 26 27 27 27 29 28 27 23 22 21 20 18 18 20 19 21 23 21 20 19 19 19 17 17 18 17 18 17 18 17 18 17 16 16 15 15 15 17 17 16 16 14 13 13 13 13 12 12 13 12 12 12 11 12 12 11 11 11 11 12 10 10 10 11 10 11 11 11 10 11 10 10 10 10 10 10 9 10 11 10 9 9 10 9 9 9 9 9 9 9 9 9 8 8 9 8 9 9 9 9 9 9 8 9 9 8 8 9 8 9 8 8 9 8 8 9 8 8 8 8 8 8 8 7 7 7 7 7 8 7 8 8 8 7 8 7 7 8 8 8 8 7 8 8 7 7 8 7 7 7 7 7 8 7 6 7 7 7 7 7 7 7 6 7 7 7 7 7 7 7 7 8 7 7 7 7 7 7 6 7 7 7 6 7 6 7 6 6 7 0 
6 6 6 5 6 6 5 6 6 5 6 6 6 6 6 6 6 6 6 6 6 6 6 6 6 6 6 6 6 6 6 6 6 6 6 6 6 6 6 6 7 6 6 6 6 6 7 7 6 6 6 6 6 6 6 6 7 7 6 7 6 6 7 6 7 7 7 6 6 6 6 7 6 7 6 6 7 6 7 6 6 7 6 7 7 6 6 7 6 7 7 7 7 7 7 7 7 7 6 7 7 7 6 7 7 7 7 7 7 7 7 7 7 7 7 7 7 7 7 7 6 7 7 7 8 7 7 7 7 7 8 7 7 8 8 7 8 7 8 8 8 7 8 8 8 7 7 7 7 8 8 8 8 8 8 8 7 8 8 8 8 8 8 8 9 8 8 8 9 8 8 9 9 8 8 9 9 9 8 9 9 8 9 9 8 9 9 8 9 9 9 8 8 9 9 9 10 10 10 9 10 9 10 10 9 9 9 9 9 9 10 9 10 10 9 10 10 10 10 10 10 10 10 10 9 10 10 10 10 10 10 10 10 10 11 10 10 10 10 11 10 11 10 11 11 11 10 10 11 11 11 12 11 11 11 12 11 12 11 11 12 11 11 11 11 12 12 11 12 12 12 12 12 12 13 12 12 13 12 12 12 13 13 12 13 12 13 12 13 12 12 12 13 12 14 12 13 13 14 12 13 13 13 13 13 13 14 13 13 12 14 13 15 13 14 14 14 14 15 15 14 15 14 14 14 15 14 15 15 15 15 14 15 15 16 15 15 15 16 15 15 16 16 16 16 17 16 16 16 17 16 17 16 16 17 18 18 18 18 17 17 18 20 19 19 19 19 20 20 21 20 21 22 22 21 21 22 23 23 22 22 21 21 20 21 20 20 19 20 19 20 19 19 20 20 21 20 21 21 23 21 23 24 26 25 27 28 30 32 32 27 30 32 31 32 29 28 28 24 22 21 20 20 21 22 23 22 22 22 21 20 19 18 19 18 17 18 17 17 16 16 17 18 16 15 14 15 17 16 15 17 14 14 13 13 13 13 12 12 12 13 13 12 12 12 11 11 11 11 11 11 11 11 11 11 10 10 11 11 11 10 9 10 10 10 9 10 9 9 10 10 10 9 10 9 9 9 9 9 9 8 9 10 9 8 9 8 9 9 9 9 8 9 8 9 9 9 9 8 9 8 8 8 9 9 8 8 8 8 8 8 8 8 8 8 7 8 8 8 8 8 8 7 7 7 8 8 8 7 8 7 7 7 8 7 7 7 7 7 7 7 7 7 7 7 7 7 7 7 7 7 7 7 7 7 7 7 7 8 6 7 7 7 7 7 7 7 7 7 7 6 7 6 6 7 6 7 7 7 0 
6 6 6 6 5 6 6 6 6 6 6 6 6 6 6 6 6 6 6 6 6 6 6 6 6 6 6 6 6 6 6 6 6 7 6 6 6 6 6 6 6 6 6 6 6 6 6 6 7 5 6 7 7 6 7 6 6 6 7 6 6 6 6 6 7 6 6 6 6 7 6 7 6 7 7 7 6 7 7 7 7 7 7 8 7 7 7 7 7 6 7 6 7 7 7 7 6 7 7 7 7 7 7 7 7 7 7 7 7 7 7 8 7 7 7 8 7 8 7 7 7 7 7 7 7 8 8 7 7 7 7 8 8 7 7 8 7 8 8 8 8 7 7 8 8 8 8 8 8 8 8 8 8 8 8 8 7 8 8 9 8 8 8 8 8 8 8 8 9 9 8 9 9 9 9 8 9 8 8 8 8 9 9 9 8 9 8 9 9 10 9 9 9 9 9 10 11 11 10 10 9 10 10 9 9 9 10 10 9 9 9 10 9 10 9 9 9 10 10 10 10 10 10 10 10 10 10 10 10 10 10 10 11 10 10 11 10 10 10 11 10 10 10 10 10 11 11 11 11 11 12 11 11 11 11 11 11 11 11 12 12 12 12 12 12 13 12 12 12 12 12 12 12 12 12 12 12 11 13 13 12 12 12 13 12 12 12 12 12 12 13 13 13 12 13 13 13 13 14 13 13 13 13 13 13 14 13 14 13 13 13 14 15 14 14 14 13 14 14 15 14 14 14 14 15 15 14 15 15 14 16 15 15 15 15 16 16 15 16 16 15 16 16 16 16 18 17 17 18 17 17 18 17 17 17 18 18 18 18 19 19 19 20 20 20 22 19 22 22 22 22 21 23 23 23 23 23 25 24 24 23 23 22 21 22 21 20 21 20 20 20 20 21 21 22 22 22 22 23 25 27 28 28 30 29 29 32 31 30 30 29 31 27 26 27 27 27 27 24 23 23 22 24 23 25 24 23 23 22 23 21 21 21 20 21 19 18 17 16 18 18 18 16 16 16 15 14 15 15 16 16 16 14 13 13 12 13 13 13 13 13 12 12 12 12 12 11 11 11 11 11 11 11 11 10 11 10 11 10 11 10 10 10 9 10 10 10 10 10 10 9 9 11 10 10 9 10 9 9 8 9 10 9 9 9 9 9 9 9 9 9 8 8 8 8 9 8 8 8 8 8 9 8 8 9 7 8 8 8 7 8 8 7 8 8 7 8 8 8 8 8 8 7 7 8 7 7 7 8 8 7 8 8 7 7 7 7 7 7 7 8 7 7 7 7 7 7 6 7 7 7 7 7 7 7 7 7 7 7 7 7 7 7 7 7 6 7 7 7 6 7 7 6 7 6 7 7 6 7 0 
6 6 6 6 5 6 6 6 6 6 6 6 6 6 6 6 5 6 6 6 6 6 6 6 6 6 6 6 6 6 6 6 6 5 6 6 6 6 6 6 6 6 7 6 6 6 6 6 6 6 6 6 7 6 6 6 6 7 6 6 7 6 6 7 7 7 7 7 6 6 7 7 7 6 6 6 7 6 6 7 6 7 7 7 7 7 7 6 7 7 7 7 7 6 7 7 7 7 6 7 7 7 7 7 8 7 7 7 7 7 8 7 7 7 7 8 7 7 7 8 7 7 7 7 7 7 7 7 8 7 7 8 8 8 8 8 8 8 7 8 8 7 8 7 8 7 8 8 8 7 7 8 8 8 8 8 8 8 8 8 8 8 8 8 8 8 8 8 7 8 9 8 8 8 9 8 8 8 9 8 8 9 9 9 9 9 9 9 9 8 9 9 9 9 9 11 14 15 11 10 9 10 9 9 9 10 9 10 9 9 9 10 9 10 10 9 9 10 10 10 10 10 10 10 10 10 10 10 9 11 10 10 10 10 11 11 10 11 10 11 10 11 11 11 11 11 11 12 11 11 11 11 11 12 12 11 11 12 11 11 12 12 12 12 12 12 12 12 12 11 13 13 12 12 12 12 12 12 12 13 12 12 12 12 13 13 13 13 12 12 13 13 13 13 13 14 13 13 14 13 13 13 14 14 12 13 14 13 14 14 14 14 14 13 15 14 14 15 14 14 14 14 15 13 15 14 15 15 15 16 14 15 16 15 15 15 16 16 16 16 16 17 16 17 17 17 17 17 18 17 17 18 19 18 18 17 18 19 19 20 20 20 19 20 20 21 22 21 22 23 22 23 23 24 24 24 25 26 26 25 24 23 23 23 22 21 21 22 21 21 21 21 22 21 22 23 24 25 25 28 32 35 36 33 31 35 30 29 30 28 27 25 26 24 26 26 28 26 26 26 26 25 27 28 27 26 25 23 23 22 21 22 22 22 23 20 19 19 18 19 18 19 18 16 16 15 14 15 15 15 15 16 15 13 13 14 14 14 13 13 13 14 12 13 12 12 11 12 11 11 11 11 10 10 10 10 10 11 11 10 10 10 11 10 10 10 9 10 10 10 10 9 10 9 9 10 9 9 9 9 9 9 9 9 9 9 8 9 9 9 9 8 9 9 8 8 8 8 8 9 9 8 8 8 8 7 8 8 8 8 9 8 8 8 8 8 8 8 8 8 8 7 8 8 8 8 8 7 7 7 7 7 8 7 8 8 7 7 7 7 8 7 7 8 7 7 7 7 7 7 7 7 7 6 7 7 7 7 6 6 6 7 6 7 6 7 6 6 7 7 7 7 7 7 6 6 7 6 7 0 
6 6 6 6 6 6 5 6 5 6 6 5 6 6 6 6 6 6 6 6 6 6 7 6 6 6 6 6 6 6 6 6 7 6 6 6 6 6 6 6 7 7 6 6 6 6 6 6 6 6 6 6 6 6 6 6 7 6 6 7 7 7 6 6 6 7 6 7 6 6 6 6 7 6 7 7 6 7 7 7 6 6 6 7 7 7 6 7 7 7 7 7 7 6 6 6 7 6 7 7 7 7 6 7 7 7 7 7 8 7 7 7 7 8 7 7 7 7 7 8 7 7 7 7 7 7 7 8 7 7 7 7 7 7 8 8 8 8 7 7 8 7 8 8 7 7 8 8 8 7 8 8 8 8 8 8 8 7 8 8 8 8 8 8 8 9 8 8 8 8 8 9 8 8 8 9 9 9 10 8 9 9 9 8 9 9 9 8 9 9 8 9 9 9 10 12 17 22 11 10 9 9 9 10 9 10 9 10 9 9 10 10 10 10 10 10 10 10 10 10 10 10 11 10 10 10 10 11 10 10 11 10 10 10 10 11 10 11 11 11 11 11 11 10 10 11 11 11 11 11 11 11 11 12 12 11 12 12 11 12 12 12 12 12 12 12 12 12 12 12 12 12 13 13 13 12 13 12 13 13 14 13 13 13 13 13 12 12 13 13 12 13 13 13 13 12 13 13 13 13 13 14 14 14 14 14 15 14 14 15 14 14 14 14 14 14 14 14 15 15 15 15 15 15 15 15 15 15 16 16 16 15 15 16 16 16 16 16 17 17 17 17 16 16 16 17 17 18 18 19 18 19 18 19 19 18 20 19 20 19 20 21 22 21 22 22 22 23 24 24 24 24 25 26 25 28 30 34 28 26 26 25 24 24 22 22 23 22 22 22 22 23 24 23 23 24 25 25 27 31 32 34 32 32 31 32 27 25 27 25 23 25 25 23 25 26 29 28 27 26 25 25 28 27 29 29 27 29 26 21 24 22 24 24 24 22 22 21 20 20 19 19 18 17 16 15 16 15 15 14 15 16 15 15 14 14 13 13 14 14 13 13 13 12 12 11 12 12 11 11 11 11 12 11 11 11 10 10 10 11 11 10 10 10 10 10 10 10 10 9 9 9 10 9 10 9 9 9 9 9 9 10 9 9 10 9 8 9 8 9 9 8 8 9 9 8 9 8 9 8 8 8 8 7 8 8 8 8 8 8 8 8 8 8 8 8 8 8 7 8 8 7 8 7 8 8 8 7 8 7 7 8 7 7 7 7 7 7 7 7 7 7 7 7 7 8 7 7 7 7 8 7 7 7 6 7 7 7 7 7 6 8 7 7 7 7 7 6 7 7 7 7 6 7 6 6 7 7 7 0 
5 6 6 6 6 6 6 6 5 6 6 6 6 6 6 6 6 6 6 6 6 6 6 6 6 6 6 6 6 6 6 6 6 6 6 6 6 6 6 6 6 6 7 6 6 7 6 6 6 6 6 7 6 6 6 6 7 6 7 7 6 6 6 6 6 6 7 6 6 6 7 7 6 6 7 6 6 7 7 6 6 7 7 7 7 7 7 7 6 7 7 7 7 7 7 6 7 7 8 7 7 7 7 7 7 7 7 7 7 7 7 6 8 7 8 7 8 7 7 7 7 7 7 7 8 7 8 7 7 7 8 7 7 7 7 8 7 7 8 8 8 8 8 8 8 8 8 8 8 8 8 8 8 8 8 7 8 8 8 8 8 8 8 8 8 8 9 8 8 8 9 8 9 9 8 8 8 9 8 9 9 9 8 8 9 9 9 9 9 9 9 9 9 9 10 11 11 17 10 10 11 10 10 10 9 9 10 10 10 9 9 9 10 10 10 10 10 10 10 10 10 10 11 9 10 11 10 10 10 10 11 11 10 11 10 10 10 10 11 12 11 11 11 11 11 11 11 11 11 12 11 11 12 11 13 12 11 11 12 12 12 12 12 12 12 12 12 12 12 12 12 12 12 13 13 12 12 12 12 13 13 13 13 13 13 13 13 13 13 13 12 13 14 14 12 13 13 13 13 13 14 14 14 14 14 14 14 14 13 14 14 14 15 15 14 15 14 15 14 15 15 16 15 16 15 15 17 15 16 15 17 16 15 17 16 16 17 17 17 16 17 17 18 17 17 18 17 18 19 18 18 18 19 20 19 20 19 20 20 20 20 21 21 22 22 22 22 23 24 26 24 26 27 28 31 32 42 51 36 29 27 28 26 24 24 25 25 24 23 23 23 23 23 23 25 28 28 27 28 32 30 29 28 27 28 29 25 25 25 24 24 25 25 25 25 30 31 30 31 29 27 26 27 29 29 32 31 33 28 25 26 23 25 23 23 21 23 20 20 20 19 21 20 19 17 16 17 16 15 15 16 16 16 15 14 14 14 14 13 14 13 14 14 13 12 13 12 12 11 10 11 11 11 12 11 11 11 11 11 10 11 10 11 10 10 10 10 10 11 9 10 9 10 9 9 10 9 10 10 9 10 9 9 9 9 8 9 10 8 8 8 9 9 9 8 8 8 8 9 9 8 9 8 8 9 8 9 8 8 8 9 8 8 8 8 7 8 8 8 8 7 8 8 8 8 7 8 8 8 8 7 7 8 7 8 8 8 7 7 7 7 8 8 7 7 8 7 7 7 7 7 7 7 7 7 7 7 6 7 7 7 7 7 7 7 6 6 7 7 7 6 7 6 7 7 6 7 7 7 0 
6 6 6 6 6 6 6 6 6 6 6 6 6 6 5 6 6 5 6 6 6 6 6 6 7 7 6 6 6 7 6 6 6 6 6 6 6 6 6 6 7 6 6 7 7 6 6 7 7 6 6 6 6 7 6 6 6 6 6 6 6 6 7 7 7 6 6 7 6 7 6 7 7 7 7 6 8 6 6 7 6 7 7 7 7 7 7 7 7 7 7 7 7 6 7 7 7 7 7 6 8 7 7 7 7 7 7 7 7 7 7 7 7 8 7 7 7 7 7 7 7 8 7 8 7 7 7 8 6 8 8 7 7 8 8 8 7 7 8 8 8 8 8 8 8 7 8 8 8 8 8 8 9 8 8 8 8 8 8 8 9 8 9 8 9 8 8 8 8 9 9 9 9 8 8 8 10 9 9 8 8 9 9 8 8 9 9 8 10 9 9 10 9 9 10 9 10 10 9 10 10 10 9 9 10 9 10 9 10 10 10 10 10 10 9 10 10 10 10 10 10 11 11 10 10 10 10 10 10 11 10 10 10 11 10 11 11 11 11 11 11 10 11 11 12 11 11 11 11 12 12 12 11 12 11 12 12 12 12 13 11 12 12 12 12 13 13 11 13 12 13 12 13 13 12 13 13 13 13 13 12 13 13 13 12 14 14 13 13 13 14 13 14 14 13 13 14 15 14 13 14 13 13 14 14 14 14 15 14 14 14 15 14 15 14 15 15 15 15 15 16 15 16 16 16 16 15 16 16 16 16 16 17 17 16 17 17 17 17 17 17 17 18 18 18 19 18 18 18 19 19 20 20 20 20 21 21 21 20 20 21 21 21 24 23 23 23 24 26 26 28 28 29 34 36 39 53 54 47 34 31 30 28 27 25 26 25 24 24 24 25 24 25 24 27 28 28 28 30 31 30 28 27 26 26 26 25 25 25 24 24 26 27 26 27 29 31 29 31 28 26 26 25 25 28 33 32 31 28 28 28 24 23 24 23 21 21 20 19 19 19 20 20 18 18 17 17 18 16 17 17 17 16 16 15 15 16 14 14 13 14 14 13 13 14 12 12 11 12 12 12 11 11 11 11 12 12 11 10 11 11 10 10 10 10 10 10 10 10 10 9 10 10 10 10 9 10 9 9 10 9 9 9 9 9 9 9 10 9 9 9 8 9 9 8 9 8 8 9 9 9 8 9 9 8 8 8 8 8 8 8 7 9 8 8 8 8 8 8 7 8 8 8 8 8 7 7 8 7 7 6 8 7 7 8 8 7 7 7 7 7 8 8 8 7 7 7 7 7 7 7 7 7 7 7 7 7 7 7 7 7 6 6 7 7 7 6 7 7 6 6 7 6 7 6 7 6 6 7 0 
6 6 6 6 6 7 5 6 6 6 6 6 6 7 6 6 6 6 6 6 6 6 6 6 6 6 6 6 6 6 6 6 6 6 6 6 6 6 7 6 6 6 6 6 6 6 6 7 7 6 6 6 6 6 7 7 6 7 7 7 6 6 7 7 7 6 6 7 7 6 7 6 7 6 7 7 7 6 6 7 7 7 7 7 7 7 6 7 7 7 7 7 7 7 6 7 8 7 7 7 7 7 7 7 7 7 7 7 7 7 7 7 7 8 7 7 7 7 8 7 7 7 7 7 7 8 7 7 8 8 8 7 7 7 8 8 7 8 8 7 8 8 8 7 8 8 8 8 9 8 8 8 8 8 8 8 7 7 8 8 8 8 8 8 8 8 8 9 8 8 9 9 9 9 9 8 9 9 9 10 9 8 9 9 9 9 9 9 9 8 10 9 10 9 10 10 10 10 10 10 10 10 10 9 9 10 9 10 10 10 10 10 10 10 10 10 10 9 10 10 10 10 12 10 10 10 11 11 11 11 10 11 11 11 10 11 11 11 12 12 11 11 11 11 11 12 11 11 12 11 11 11 11 12 11 12 12 12 12 12 12 12 12 12 12 13 12 13 13 12 13 12 13 12 13 13 13 13 13 13 14 12 13 13 13 13 14 13 14 13 14 14 13 14 15 13 14 14 14 13 13 14 14 14 14 14 14 15 14 14 14 15 15 15 14 15 15 16 15 16 15 15 15 15 17 16 16 17 16 17 16 17 18 16 17 17 18 17 17 18 18 19 18 18 18 19 19 20 19 20 20 21 22 21 20 21 22 22 22 22 23 23 23 23 24 24 24 26 27 26 29 34 35 44 54 58 59 52 61 45 39 39 31 27 27 26 26 25 26 25 26 27 25 26 28 29 29 29 29 30 30 30 27 25 26 26 26 25 23 25 24 25 26 27 27 29 32 29 30 28 28 26 24 23 25 28 30 30 28 30 29 26 24 24 23 21 20 21 19 20 21 20 20 19 19 19 18 18 18 18 16 17 16 15 15 15 16 14 14 14 13 14 13 13 13 13 12 11 12 11 12 12 11 11 12 12 11 11 11 11 10 10 10 10 10 10 10 10 10 10 10 10 9 11 10 9 9 10 9 10 10 9 9 10 10 9 10 10 9 9 8 8 9 9 9 9 9 9 9 9 9 8 8 9 8 8 8 8 8 8 8 8 8 8 8 8 8 8 8 7 8 8 8 8 7 7 7 8 7 8 8 7 8 7 7 7 7 7 7 7 7 7 8 8 7 7 7 7 7 7 7 8 6 7 7 7 7 7 7 7 7 7 6 7 6 7 6 7 7 6 7 7 7 7 6 7 7 6 6 0 
6 6 6 6 6 6 6 6 6 6 6 5 6 6 6 7 6 6 6 6 7 6 7 6 6 6 6 6 6 6 6 7 5 6 6 6 6 6 6 6 7 7 7 6 7 7 6 7 6 6 6 6 6 6 6 6 7 6 6 6 6 6 6 6 6 7 7 7 6 7 6 7 7 7 7 6 7 7 6 7 7 6 7 6 7 7 6 7 7 7 7 7 7 7 7 7 7 7 7 7 7 7 7 7 7 7 7 7 6 8 7 7 7 8 7 7 7 7 7 7 8 8 7 7 8 7 8 7 8 8 8 9 8 8 8 8 8 8 8 7 7 8 8 8 7 8 8 7 8 8 8 8 8 8 8 8 8 8 8 8 8 9 8 9 8 8 8 9 8 9 9 8 9 8 9 8 9 9 8 9 9 9 9 10 8 9 9 9 9 9 9 9 9 10 10 9 9 9 9 10 10 10 9 9 9 11 10 10 10 11 10 9 9 10 10 10 10 10 11 10 10 10 9 10 11 11 11 11 11 11 11 11 11 11 11 11 10 11 11 11 11 11 11 11 11 12 12 11 11 12 12 12 11 13 12 12 12 13 13 13 12 12 12 13 12 13 13 13 12 13 13 13 13 13 12 12 13 13 14 13 13 13 12 14 13 13 14 13 14 14 13 13 14 14 14 14 14 14 14 14 14 14 14 15 15 15 15 14 15 15 15 15 15 15 15 15 15 15 15 16 16 15 16 15 16 16 16 16 16 16 17 17 17 16 17 17 17 18 18 19 18 18 19 19 19 20 19 19 20 21 20 21 21 21 21 20 21 21 23 22 22 23 24 24 24 25 25 26 28 29 32 37 51 68 77 81 74 59 66 59 45 43 36 30 28 28 27 27 27 27 28 28 27 29 27 29 29 30 29 28 29 31 29 27 27 26 26 25 25 24 24 26 27 26 26 32 31 28 32 32 29 26 24 24 24 25 26 27 27 27 28 25 25 24 24 21 21 19 19 20 19 19 19 19 19 20 19 21 18 18 18 17 17 16 16 16 16 14 14 14 14 13 13 13 13 14 12 12 12 12 11 12 11 12 11 11 11 11 11 11 11 10 11 10 10 11 10 10 10 10 9 10 10 9 9 10 10 10 9 10 9 9 10 9 9 9 9 9 9 9 8 9 9 9 8 9 9 8 8 8 8 8 9 9 8 9 8 8 8 9 8 8 9 8 8 8 8 7 8 8 7 8 7 8 8 8 7 8 8 7 7 7 7 8 8 7 7 7 8 7 7 8 8 8 7 7 8 7 7 7 7 7 7 7 7 7 7 6 7 7 7 6 7 7 7 6 6 6 6 6 6 7 6 6 6 6 7 7 7 0 
6 6 6 6 6 6 6 6 6 6 6 6 6 6 6 5 6 6 6 6 6 6 6 6 6 6 6 7 6 6 5 7 6 6 6 6 6 6 6 6 6 7 6 6 6 6 6 7 6 6 7 7 7 6 6 7 7 6 6 6 6 7 6 7 6 7 7 7 7 6 7 7 7 6 7 7 7 6 7 6 6 6 7 7 6 7 6 7 7 7 7 7 7 7 7 6 8 7 7 7 7 7 7 7 7 8 7 7 7 7 7 7 7 8 7 7 8 7 8 8 7 7 8 7 8 8 8 8 7 7 7 7 8 8 7 8 7 7 8 8 7 8 8 8 7 7 7 8 9 8 8 8 8 8 9 9 8 8 8 9 8 8 8 8 9 8 9 8 8 9 8 9 9 8 9 9 8 8 9 8 9 9 9 9 10 9 9 9 9 9 9 9 9 9 10 9 9 10 10 10 10 10 10 10 9 10 10 10 10 10 10 10 10 10 10 11 10 10 10 11 11 10 10 10 10 10 11 10 10 11 10 10 11 11 11 12 11 11 11 11 12 11 11 11 11 13 12 11 12 11 12 12 12 12 12 13 13 12 14 12 12 12 12 13 13 13 12 13 13 13 13 13 14 14 13 13 13 14 14 13 14 13 14 13 13 14 13 14 13 14 14 14 13 13 13 15 15 14 14 14 14 14 14 15 14 13 16 15 15 15 15 15 15 16 16 15 15 16 15 16 16 16 16 16 16 16 16 16 18 17 17 18 17 18 17 17 19 19 19 19 18 19 19 19 20 19 21 20 21 21 21 23 21 22 22 21 22 23 23 23 24 26 25 24 26 26 28 29 30 31 37 49 79 79 65 78 76 51 53 59 50 56 39 32 31 30 29 27 29 28 29 29 30 31 30 29 30 30 31 29 30 30 28 27 27 26 27 26 25 26 27 26 28 29 27 30 31 30 35 32 27 25 22 25 24 23 27 27 28 25 29 26 24 25 22 21 22 21 20 21 22 21 20 19 20 21 18 21 20 19 19 17 19 17 15 16 15 15 15 14 13 13 14 12 13 13 13 13 13 12 12 11 12 12 11 12 11 11 11 10 12 10 10 11 11 11 10 10 10 10 10 10 10 10 10 10 9 10 9 10 10 9 10 9 9 9 9 9 10 9 9 8 9 9 8 8 9 8 8 9 8 9 8 8 9 8 9 9 8 9 8 8 8 8 8 8 8 8 8 8 7 7 8 8 8 7 7 8 8 8 7 8 8 7 7 7 7 7 7 7 7 7 8 7 7 7 7 7 7 7 7 7 7 7 7 7 7 7 7 7 7 7 7 7 7 7 7 7 7 7 7 7 7 6 7 6 6 7 7 0 
6 6 6 6 6 6 6 5 6 6 6 6 6 6 6 6 7 6 6 6 6 6 6 6 6 5 6 6 6 5 6 6 6 7 6 6 6 6 6 6 6 6 6 7 6 6 6 7 7 6 6 6 7 7 6 6 7 7 7 6 7 6 6 6 6 7 6 7 7 6 7 6 6 6 7 7 7 7 7 7 7 7 7 7 7 7 7 7 7 7 7 7 7 7 8 7 8 7 7 7 7 8 7 7 7 7 8 7 7 7 7 7 7 7 7 8 7 7 7 7 8 7 8 8 7 7 7 7 7 8 8 7 7 8 8 7 7 8 8 7 8 8 8 8 8 8 8 8 8 8 8 8 8 8 8 8 7 7 8 8 8 9 8 8 8 9 9 8 8 8 9 9 9 8 8 9 9 9 9 9 9 9 9 9 9 9 9 9 9 9 9 10 10 10 9 9 9 10 9 9 10 10 10 10 10 10 10 10 10 10 10 11 10 11 10 10 11 10 10 11 10 11 10 11 10 11 11 11 10 11 11 11 11 11 12 11 11 11 11 10 12 11 12 12 11 11 11 11 12 12 12 11 12 12 13 13 12 12 13 13 13 12 13 12 14 13 13 13 13 13 13 14 13 14 14 14 13 14 13 13 13 14 13 14 13 14 13 14 15 14 14 15 14 13 14 15 14 14 15 15 15 14 14 15 14 15 16 14 14 15 15 15 15 15 16 15 16 15 15 16 16 16 16 16 16 16 17 17 17 17 17 17 17 17 19 18 19 19 19 17 20 19 19 20 20 21 21 20 21 22 23 25 23 22 22 22 23 22 24 25 24 26 25 26 28 27 29 30 31 34 40 63 76 59 59 61 51 41 46 49 47 55 45 37 33 32 31 32 33 34 34 34 35 36 34 32 31 31 29 33 30 29 27 26 27 27 29 26 26 26 26 29 28 27 25 28 30 34 35 30 26 26 26 26 23 26 28 26 26 26 29 28 27 26 24 23 23 21 22 21 22 21 22 21 20 20 19 19 20 18 19 19 20 19 17 16 16 15 15 14 14 14 14 13 15 13 13 13 13 13 12 13 13 11 12 11 12 11 11 11 11 10 10 10 10 11 11 10 10 10 11 10 10 9 9 10 10 10 10 9 9 10 8 10 10 9 9 9 9 9 9 9 9 9 9 8 9 9 8 8 9 9 8 8 9 9 8 8 8 8 8 8 8 9 8 8 7 8 8 8 8 8 8 8 7 8 8 7 8 8 8 7 7 7 7 7 8 8 7 7 7 8 7 7 8 7 8 7 7 7 7 7 7 7 7 7 7 6 7 7 7 7 7 7 7 7 7 6 7 7 6 7 7 6 6 6 6 7 7 0 
5 6 5 6 6 6 6 6 6 6 6 6 6 6 6 6 6 5 6 6 6 6 6 6 6 6 7 6 6 6 6 6 6 6 6 7 6 6 6 6 7 6 6 6 6 6 6 7 6 6 6 6 7 7 6 6 6 6 7 6 6 6 7 7 6 6 7 6 7 7 7 6 7 7 7 7 6 7 6 7 7 7 7 7 6 7 7 6 8 7 7 7 7 7 7 7 6 7 7 7 7 7 7 8 7 8 7 7 7 7 8 7 7 7 8 7 7 7 7 7 8 7 8 7 7 7 8 7 8 8 8 7 7 8 8 7 7 8 8 8 8 8 8 8 8 8 8 8 9 8 8 8 9 8 8 8 8 8 8 8 8 8 8 8 8 8 9 9 9 8 9 9 9 8 8 9 9 9 9 10 9 9 9 9 9 9 9 9 9 9 9 9 10 10 9 9 10 9 10 9 10 10 10 9 10 10 9 10 10 9 10 11 10 10 10 10 10 10 11 9 10 10 10 11 10 11 11 11 11 11 10 12 11 11 12 11 12 12 11 12 12 11 12 12 11 12 12 13 11 13 12 12 12 12 12 13 12 13 13 13 13 13 13 13 14 14 13 13 13 14 13 14 13 13 14 14 15 13 14 15 14 13 15 14 13 13 14 14 14 15 13 14 14 14 15 15 14 14 14 15 14 14 14 14 16 15 15 15 16 16 15 16 16 15 17 17 16 16 17 16 16 16 16 17 16 17 17 17 17 17 18 18 18 18 18 19 18 19 19 20 19 20 20 20 20 20 21 22 23 23 23 25 26 24 24 24 25 24 26 24 26 26 28 27 30 30 31 32 34 37 43 72 59 55 58 45 38 37 38 40 43 51 54 41 35 37 36 35 37 35 35 38 39 36 37 34 33 32 34 33 29 27 26 27 28 29 30 27 30 28 30 29 28 28 27 28 29 31 31 29 28 26 26 25 23 24 24 25 25 26 29 29 29 29 26 25 24 24 23 22 22 21 20 20 19 19 20 19 19 18 19 18 20 20 19 18 17 16 15 14 14 14 14 14 15 14 15 13 12 13 13 13 13 12 11 12 11 11 11 11 11 12 11 11 11 11 10 10 11 11 10 10 10 10 10 9 10 9 9 10 10 10 9 9 8 9 9 9 10 10 9 9 9 9 8 9 9 9 9 8 8 9 9 8 9 9 8 8 9 8 8 7 8 8 8 9 8 8 8 8 8 8 8 8 9 7 7 8 7 7 7 7 7 8 8 8 8 8 7 7 8 8 7 8 7 7 8 7 7 7 7 7 7 7 7 7 7 7 7 7 7 7 7 7 7 7 7 7 7 7 7 7 7 6 7 7 7 7 7 0 
6 5 6 6 6 6 6 6 6 6 6 6 6 5 6 6 6 6 6 6 6 6 6 6 6 7 6 6 7 6 6 6 6 6 6 7 6 6 6 7 7 6 7 6 5 7 6 6 7 7 6 6 6 6 6 6 6 7 6 6 7 6 6 6 7 7 7 6 7 6 6 6 7 7 7 7 7 7 7 7 6 7 6 7 7 6 7 7 7 7 7 7 7 7 7 7 8 7 7 7 6 7 7 7 7 7 7 8 8 7 7 8 7 7 7 7 7 7 7 8 7 7 7 8 7 8 8 8 8 7 8 7 8 7 8 8 8 7 8 8 8 8 8 8 8 9 8 9 8 9 8 8 8 8 8 8 9 8 9 9 8 9 8 9 8 9 9 9 9 8 9 8 9 9 9 9 8 9 9 9 9 9 9 9 9 9 9 9 10 9 9 9 9 9 10 10 11 10 9 10 9 10 10 11 9 11 10 10 10 10 10 10 10 10 10 10 11 11 10 10 10 10 10 10 11 11 11 10 11 10 11 11 11 11 10 11 12 11 12 12 11 11 12 11 12 12 13 11 12 12 12 12 12 12 12 12 12 13 13 14 13 13 13 13 13 14 13 14 14 13 14 14 14 14 14 14 14 14 14 14 14 14 13 15 15 15 14 14 15 14 14 15 15 14 15 14 15 15 15 16 15 15 15 15 16 16 15 16 16 16 15 16 16 16 17 16 17 17 16 18 17 17 16 16 17 17 16 18 19 18 18 18 18 18 19 19 20 19 20 21 20 20 22 22 22 22 23 23 23 24 24 24 24 26 25 26 25 26 26 27 28 29 30 29 30 31 33 34 37 40 48 70 55 48 50 43 37 36 38 41 42 52 55 44 42 40 39 38 38 35 37 39 43 39 43 36 35 35 34 33 29 28 27 27 26 26 29 28 28 29 27 29 31 28 28 27 28 28 31 29 27 27 25 24 23 24 22 26 25 25 27 29 27 30 31 26 26 24 23 22 22 22 20 22 22 21 19 18 17 18 19 18 17 19 19 18 18 16 15 15 14 14 14 15 14 14 14 13 13 12 13 13 12 12 12 11 12 11 11 11 11 10 11 11 11 11 10 11 10 10 10 10 10 10 10 10 10 10 10 10 10 9 10 10 10 10 9 9 9 9 9 9 8 9 8 9 9 8 8 8 9 8 9 8 8 8 8 8 8 8 7 8 8 8 8 8 8 8 8 8 8 8 8 8 8 8 7 8 7 8 8 8 7 7 7 8 7 8 7 7 7 7 7 7 7 8 7 7 7 7 7 7 7 7 7 7 7 7 7 7 7 7 7 7 7 7 7 7 7 7 7 7 7 7 7 7 7 6 7 0 
6 7 6 6 6 6 6 6 6 6 6 6 6 6 6 6 6 7 6 6 6 6 6 6 6 6 6 6 6 6 7 6 6 6 6 6 6 6 6 7 7 6 6 6 6 7 6 6 7 7 7 6 6 6 6 6 7 6 7 6 6 7 7 6 7 7 6 6 6 7 6 7 7 7 6 7 7 6 7 7 6 7 7 7 7 7 7 7 7 7 7 7 7 7 6 7 7 6 8 7 7 7 7 7 7 7 8 7 7 7 7 7 7 7 8 7 7 7 7 7 7 7 8 7 7 7 7 8 8 8 8 7 8 8 8 8 7 8 7 9 7 8 8 8 8 8 8 8 8 8 9 8 9 8 8 9 8 8 7 9 8 9 9 8 8 9 9 9 9 9 9 9 9 9 10 9 9 9 9 9 10 9 8 9 9 9 10 10 10 9 10 9 10 9 9 10 10 10 10 11 10 10 10 10 10 10 10 10 11 10 10 10 10 10 11 10 10 10 11 10 11 11 11 10 10 10 11 10 11 11 11 11 12 11 12 11 12 12 12 11 11 11 12 12 11 12 12 13 12 13 12 12 13 13 14 13 13 14 13 13 13 14 13 13 13 13 13 14 13 14 14 14 14 15 14 14 15 15 14 14 14 14 15 15 15 15 15 15 15 15 15 15 16 15 15 15 15 15 15 16 15 15 15 16 15 16 16 15 17 16 16 16 16 16 17 16 17 17 17 17 17 17 17 17 17 17 18 18 18 19 18 19 18 20 19 20 19 19 20 21 23 21 21 21 22 23 24 24 24 25 26 25 26 26 26 27 27 27 27 28 29 30 32 33 33 35 37 39 42 41 53 65 54 47 48 46 44 41 42 44 49 58 63 51 43 46 43 41 36 37 40 42 45 40 43 39 40 36 33 32 31 29 28 26 26 26 27 27 30 30 29 28 28 28 30 29 28 28 30 29 28 28 27 25 25 24 24 25 23 23 25 27 27 32 34 33 26 26 24 23 23 22 22 24 23 20 20 18 19 18 19 17 18 19 17 18 17 16 16 16 15 16 15 14 15 13 13 14 14 13 13 13 12 12 12 12 12 12 11 10 12 10 11 11 10 11 10 11 10 10 10 11 10 10 10 10 9 10 10 10 9 9 9 10 9 10 9 10 9 9 9 9 9 10 9 9 8 9 9 9 8 9 8 9 9 9 8 8 9 8 8 8 8 7 8 8 8 8 8 8 8 8 8 8 8 8 8 8 8 8 7 8 8 7 8 7 7 7 7 8 7 8 7 7 7 7 8 7 7 7 7 7 7 7 8 7 7 7 7 7 7 7 7 7 6 7 7 7 7 6 7 6 7 6 6 7 7 7 7 0 
5 6 6 6 6 6 6 6 6 6 6 6 6 6 6 6 6 6 6 6 6 6 6 6 6 6 6 6 5 6 7 6 6 6 6 6 6 6 7 6 6 6 6 7 7 6 6 6 6 6 7 6 6 7 6 7 6 6 7 7 6 6 6 7 6 7 6 7 6 6 7 7 7 7 7 7 7 6 6 7 6 7 7 7 7 7 7 7 7 7 7 7 7 7 7 7 7 7 7 7 7 7 8 7 8 7 8 7 7 7 7 7 8 7 7 8 7 8 7 7 7 7 7 7 8 8 7 7 7 8 7 8 8 8 8 7 8 8 8 8 9 8 9 8 8 8 8 8 8 8 8 8 8 8 8 9 8 8 8 8 8 8 8 9 8 9 8 9 8 8 9 9 9 9 9 8 9 9 9 9 9 9 9 9 9 10 9 10 9 10 9 10 9 10 10 10 10 10 10 10 10 10 11 10 10 9 10 10 10 10 10 11 10 11 10 11 10 11 11 11 10 11 11 10 11 11 11 11 11 11 11 12 12 12 12 11 12 11 11 12 13 13 13 13 11 12 12 12 13 13 13 13 13 12 13 13 12 14 13 13 14 13 12 13 13 13 14 14 14 14 14 15 14 14 14 14 16 18 16 14 14 15 15 15 15 15 15 15 15 14 16 15 15 16 15 15 15 16 16 15 15 15 16 15 15 15 15 16 16 16 17 17 16 16 17 17 17 17 17 17 18 18 17 17 18 17 18 18 18 19 18 19 19 20 20 20 21 20 20 23 24 23 23 24 24 24 24 26 24 26 27 27 27 27 27 27 28 29 30 31 31 33 34 36 38 39 42 47 52 54 62 67 60 51 48 44 50 47 47 47 56 63 65 52 46 45 45 42 38 38 40 41 41 44 47 42 41 39 34 32 30 30 33 27 26 28 28 29 29 30 29 30 30 30 28 30 28 28 30 29 27 27 27 26 25 25 24 24 23 24 24 25 26 32 33 33 28 24 23 23 23 22 21 20 21 19 19 19 18 18 19 18 19 18 19 18 18 17 17 17 16 16 16 15 14 14 14 14 13 13 14 13 13 12 12 12 12 12 11 12 12 11 11 11 11 10 10 11 10 10 10 10 10 10 10 11 10 10 10 10 10 9 9 10 9 10 9 9 10 9 9 9 9 9 9 9 9 8 9 9 9 9 9 8 9 9 8 8 8 8 8 8 8 8 8 8 7 8 9 8 8 8 8 8 8 8 8 7 8 8 8 8 8 8 8 7 7 7 8 7 8 7 8 7 7 7 7 7 7 7 7 7 7 8 7 7 6 6 7 7 7 7 7 7 7 6 7 7 7 7 7 6 7 7 7 7 6 7 7 0 
6 6 6 6 6 6 6 6 6 6 6 7 6 6 6 6 6 6 6 5 6 6 6 6 6 6 6 6 6 6 6 6 6 6 6 6 7 7 6 7 6 6 6 7 6 7 7 7 7 6 6 6 7 6 7 6 6 6 6 6 7 7 7 7 7 7 6 7 7 7 6 7 6 7 6 7 7 7 7 7 8 7 7 8 8 7 7 7 7 7 7 6 7 7 7 7 7 8 7 7 8 7 7 7 7 7 7 7 7 7 8 7 7 7 8 7 7 7 8 7 7 8 8 8 8 7 8 8 7 8 8 8 8 8 8 8 8 8 8 8 8 8 8 8 8 8 8 7 8 8 8 8 8 9 8 8 9 8 8 9 9 9 9 8 8 8 9 8 9 8 9 9 9 9 9 8 8 9 9 9 9 8 9 9 9 9 10 10 10 10 10 9 10 9 10 10 9 9 9 10 10 10 10 10 10 10 10 10 10 10 10 10 10 10 10 10 10 10 10 11 10 10 11 11 11 11 11 11 12 11 12 12 11 12 11 12 12 11 12 11 12 11 12 13 13 13 12 13 13 12 13 13 12 12 12 13 14 13 13 13 14 13 14 13 15 15 14 14 14 15 13 15 14 14 14 15 15 16 15 15 15 14 14 15 14 14 15 15 15 15 14 15 15 15 15 16 15 15 16 15 16 17 16 15 16 17 16 17 16 17 17 17 17 17 17 17 17 17 17 17 18 19 17 18 18 19 19 19 20 18 20 19 21 19 20 21 20 21 22 22 23 22 23 25 26 28 26 27 25 28 27 28 28 29 31 29 30 31 32 34 34 36 38 42 45 45 54 64 65 70 71 81 71 62 52 50 55 50 52 55 68 71 67 57 54 48 45 46 43 41 43 42 41 44 44 43 39 39 37 35 34 30 29 28 29 29 29 29 29 30 30 30 29 30 27 29 29 28 33 30 29 26 28 27 26 25 24 24 25 24 24 25 26 31 32 31 28 27 25 23 21 21 21 20 21 19 19 19 18 18 18 18 19 20 19 19 19 18 18 17 16 16 16 16 14 14 14 14 13 13 13 14 12 12 12 12 12 12 11 12 11 11 11 11 11 11 10 11 10 10 11 11 11 11 10 10 9 10 10 9 9 10 9 9 9 10 9 9 8 9 9 9 9 9 9 9 8 9 8 9 9 9 8 8 9 8 9 8 8 8 8 8 8 8 8 8 8 8 8 8 8 8 8 8 8 8 7 8 8 8 7 8 7 7 7 8 7 7 8 8 8 7 7 7 7 7 7 7 8 7 7 7 8 7 7 7 7 7 7 7 7 7 7 7 6 7 7 7 7 7 7 7 7 7 7 7 6 7 7 0 
6 6 6 6 6 6 6 6 5 6 6 7 6 6 6 6 6 6 6 6 6 6 6 6 6 6 7 6 6 6 6 7 6 6 6 6 6 6 6 6 6 6 6 6 6 6 6 6 7 6 6 6 6 6 6 6 6 6 6 7 7 7 7 6 7 7 6 7 7 7 6 6 7 7 7 6 7 7 7 6 7 7 7 7 7 8 7 7 7 7 6 7 6 7 8 7 7 7 7 7 7 7 7 8 8 7 7 7 7 8 7 8 7 7 7 7 7 8 7 7 8 8 7 8 8 8 8 8 8 7 8 8 8 7 8 8 7 8 7 9 8 8 8 9 7 8 9 7 8 8 8 8 8 8 8 8 9 8 9 8 8 9 9 9 8 9 8 9 8 8 8 8 9 9 9 9 9 10 9 9 8 9 10 9 10 9 9 9 10 10 10 10 10 9 10 10 10 10 10 9 10 10 10 11 10 10 10 10 10 10 10 10 10 11 11 10 10 11 11 10 10 11 11 11 11 12 11 12 11 11 11 11 11 12 12 12 11 11 12 11 12 12 12 12 13 12 12 12 12 13 14 12 13 13 14 14 13 14 14 14 14 13 13 14 14 14 14 14 14 14 14 14 15 14 14 14 14 15 15 14 16 16 15 15 15 15 15 16 15 16 16 16 16 17 15 17 16 16 16 16 16 17 16 16 17 17 17 16 17 16 17 17 18 17 18 17 17 18 17 18 19 18 18 19 19 18 19 20 20 19 20 20 20 20 21 20 21 22 21 22 23 23 24 25 26 30 27 27 28 28 28 29 30 31 32 30 32 34 35 35 36 39 42 49 60 63 69 84 88 95 92 93 87 71 57 57 54 48 56 63 66 66 65 59 56 55 54 48 46 45 46 42 43 43 45 47 44 41 41 39 35 33 31 29 30 32 31 31 30 31 30 31 31 30 32 30 29 30 30 28 28 26 25 27 26 25 26 25 22 24 23 25 29 28 30 30 27 28 26 24 22 21 21 19 20 20 19 19 18 18 18 19 19 19 20 20 20 18 18 17 16 17 17 15 16 15 15 13 14 14 13 13 13 13 13 12 12 12 12 11 12 10 11 11 11 11 11 10 11 10 11 11 10 10 10 11 10 10 10 10 10 10 9 10 10 10 10 9 9 9 9 9 9 9 9 9 8 9 9 9 8 9 8 9 8 9 8 9 8 8 8 9 9 9 9 8 8 8 8 8 8 8 8 8 8 8 8 8 8 8 7 7 7 7 8 8 7 8 8 7 7 8 7 8 7 8 8 7 7 7 7 8 8 7 7 7 8 7 7 6 7 7 7 7 7 6 7 7 7 7 7 7 7 7 7 7 7 6 7 0 
6 6 6 6 6 7 5 5 6 6 5 6 6 6 6 6 6 6 6 6 6 6 6 6 5 7 6 6 6 6 6 7 6 6 6 6 6 6 6 6 6 7 7 6 6 6 7 6 7 7 6 6 7 6 6 6 7 7 6 6 6 6 6 7 6 6 6 6 7 7 6 6 6 7 7 7 7 7 7 7 7 6 6 7 7 7 7 7 7 7 6 7 7 7 7 7 7 6 7 7 7 7 7 7 7 7 7 7 7 7 7 7 7 8 7 8 8 7 7 8 8 7 7 8 7 7 8 7 8 7 7 8 8 7 8 7 8 8 8 8 8 8 8 8 8 8 8 8 9 8 8 8 8 8 9 8 9 8 8 8 9 8 8 9 8 8 9 9 8 9 9 9 9 9 8 9 9 9 9 9 10 9 9 10 9 9 9 9 10 10 10 10 10 10 10 10 10 11 10 10 10 10 11 11 10 10 10 11 11 10 10 10 10 11 11 11 11 11 11 11 11 11 11 12 11 10 11 12 11 11 12 11 12 11 12 12 11 11 12 12 13 12 12 12 12 12 13 12 13 14 13 13 13 14 13 13 13 14 13 15 14 14 14 14 14 14 14 14 16 14 15 14 14 15 15 15 15 15 15 15 16 15 16 15 16 15 16 15 16 16 16 16 16 16 17 16 17 16 16 15 16 16 16 17 17 16 17 18 18 17 17 17 18 18 18 18 19 17 18 18 19 19 19 19 18 19 19 20 20 20 20 20 20 21 22 21 21 22 21 23 24 24 25 25 27 27 27 27 28 29 31 31 32 31 35 34 36 35 36 39 40 43 49 67 95 92 93 99 91 92 87 89 83 73 58 56 51 49 56 65 72 69 65 60 61 56 58 54 52 47 47 45 46 45 48 43 41 43 41 38 35 33 32 33 32 33 32 31 30 32 32 31 30 32 32 29 29 30 30 28 28 26 26 25 26 25 23 23 23 22 23 29 29 30 28 28 28 27 25 24 24 22 22 20 21 19 19 19 18 17 17 18 17 19 19 20 22 18 18 17 17 16 16 16 16 15 15 14 13 14 14 12 13 13 13 12 12 12 12 12 12 11 12 11 11 11 11 11 11 11 10 10 10 11 10 11 10 10 10 10 10 10 10 9 10 9 9 9 10 9 10 8 9 9 9 9 9 9 9 9 9 9 9 9 9 9 8 8 9 8 8 8 8 8 8 9 8 8 8 8 8 8 8 8 8 8 8 8 8 7 8 8 8 7 8 8 7 7 7 7 7 7 6 7 7 8 7 7 7 7 7 8 7 7 7 8 7 7 7 6 7 7 7 7 7 7 7 7 7 7 6 7 7 7 7 7 7 7 6 0 
6 5 7 6 6 6 6 6 6 6 6 6 6 6 6 5 6 6 6 6 6 6 6 6 6 6 6 6 6 6 6 6 6 7 6 7 6 6 7 6 6 6 7 6 6 6 6 6 6 6 6 7 6 7 6 6 7 7 7 6 7 7 6 6 7 6 6 7 7 7 7 7 7 7 7 7 7 7 7 7 7 7 7 6 7 7 7 7 7 7 7 7 7 8 7 6 7 8 7 7 7 7 7 7 7 7 8 7 8 8 7 7 7 7 7 8 7 8 8 7 7 7 8 7 7 7 8 8 8 8 8 8 8 8 8 8 8 8 8 8 8 9 8 8 7 8 8 9 8 8 8 8 8 8 8 9 8 9 9 8 8 8 9 9 8 8 9 10 9 9 8 9 8 9 9 9 9 9 9 9 9 9 10 10 10 10 10 10 9 10 9 10 10 10 10 10 10 12 10 10 10 10 9 10 10 11 10 11 10 11 10 10 11 10 11 11 10 10 11 11 11 11 11 11 11 11 11 11 12 12 11 12 11 11 12 11 11 13 12 12 12 12 13 12 12 12 12 12 13 13 13 13 13 13 14 13 13 14 13 14 14 14 14 14 15 14 15 14 15 15 15 15 15 15 14 14 14 15 17 15 16 15 15 15 16 16 16 16 17 15 16 15 17 16 16 16 16 16 17 18 17 16 17 17 17 17 18 17 18 18 18 19 18 18 19 18 19 19 18 18 19 19 18 20 19 19 20 20 20 21 21 21 21 22 22 22 23 23 23 24 24 25 25 26 26 27 28 29 30 32 32 33 36 34 35 36 38 41 42 42 45 51 57 90 104 94 90 82 73 65 71 77 73 64 59 56 53 51 54 58 59 61 61 65 65 63 59 59 58 51 50 48 45 47 46 42 43 40 41 41 38 35 33 33 32 32 31 31 31 31 32 32 32 32 31 32 30 29 27 27 27 26 26 26 25 25 22 24 23 23 25 25 26 26 25 27 27 27 28 25 23 22 20 20 21 20 20 20 18 19 18 19 18 20 19 19 20 20 18 18 17 16 16 16 16 16 16 14 13 13 14 14 14 13 12 12 13 13 12 12 12 12 12 11 11 11 11 11 11 11 11 11 11 10 11 11 10 10 10 10 9 10 9 9 9 9 10 10 10 9 9 9 8 9 9 9 9 9 8 9 9 8 9 9 8 9 9 8 9 8 8 7 8 8 8 8 8 8 8 8 8 8 9 7 8 8 8 9 8 8 8 8 7 7 8 8 7 8 7 8 7 8 7 7 7 8 7 7 8 7 8 7 7 7 7 7 7 7 7 7 7 7 7 7 7 7 6 8 7 7 7 7 7 7 7 7 7 7 7 0 
6 6 6 6 6 6 7 7 6 6 6 6 6 6 7 6 6 6 6 6 6 6 7 6 6 6 6 6 6 7 6 6 7 6 6 6 6 7 6 6 6 7 6 7 6 7 6 6 6 6 6 7 7 7 6 6 7 7 6 7 6 6 7 7 6 6 7 7 6 6 7 6 7 7 7 6 7 6 7 7 7 7 8 7 6 7 7 8 7 7 7 7 7 8 7 8 7 7 8 7 7 8 8 7 7 7 8 7 7 7 7 8 8 7 7 8 7 8 7 7 8 7 7 8 8 8 8 8 8 8 7 8 8 8 8 8 7 7 8 8 8 8 9 8 8 8 8 8 8 8 8 9 8 9 9 9 9 8 9 9 9 8 8 8 9 9 8 9 8 9 9 9 8 9 9 9 10 9 9 10 9 9 9 9 9 9 10 10 10 10 10 10 10 10 10 9 11 15 10 10 10 10 11 10 11 11 10 10 11 11 10 10 10 11 11 11 11 11 11 11 11 12 12 10 11 11 12 12 11 12 12 11 12 11 12 12 12 12 11 12 13 13 12 14 13 12 12 12 13 13 13 13 13 14 13 13 14 14 14 14 14 14 14 14 15 14 15 15 14 15 15 15 15 15 15 16 15 15 15 16 15 15 15 16 16 16 16 17 16 16 16 16 16 16 17 18 17 17 17 17 18 17 17 17 18 18 17 19 19 19 19 19 19 19 18 18 20 18 19 19 18 21 20 20 20 20 21 22 21 22 22 22 22 23 22 23 24 24 24 26 24 25 26 29 27 28 30 30 32 32 34 37 38 37 38 40 43 48 48 49 53 63 80 97 97 83 70 67 61 59 67 79 67 61 55 56 53 55 54 53 55 59 59 63 67 66 68 66 62 58 55 53 54 49 47 43 44 44 42 42 40 38 35 33 31 32 31 33 31 31 32 33 31 32 31 29 32 28 27 26 27 26 25 25 24 24 23 21 24 24 23 24 26 25 25 25 27 27 28 25 24 22 21 19 21 21 20 19 18 19 18 17 17 19 18 19 19 19 18 18 17 16 15 16 16 16 15 15 14 14 14 13 13 13 14 14 14 13 12 12 12 12 12 12 11 11 11 11 11 11 11 10 11 11 10 10 10 11 10 10 10 10 10 10 10 10 9 10 10 9 9 10 9 9 10 9 9 9 9 9 9 8 9 9 8 8 9 9 8 9 8 9 8 9 8 8 8 8 8 8 8 9 8 8 8 8 7 8 7 8 7 7 7 8 8 8 8 7 7 7 7 7 8 7 8 7 7 8 8 8 8 7 7 8 8 8 7 7 7 6 7 7 7 7 7 7 6 6 7 7 7 7 7 7 7 7 6 7 7 0 
6 6 6 6 6 6 6 6 7 6 6 6 6 6 6 5 6 6 6 6 6 6 6 6 6 7 6 6 6 6 6 6 6 6 6 6 6 6 6 6 6 7 6 6 7 7 6 6 6 7 6 6 7 7 7 6 7 6 6 6 6 7 6 7 7 7 7 7 7 7 7 6 7 7 7 7 7 7 7 7 6 7 7 7 7 7 7 7 7 7 7 7 7 8 7 7 6 8 8 8 7 7 7 7 6 8 8 7 7 7 7 7 8 8 8 7 8 8 7 8 8 7 7 8 8 7 8 8 8 8 8 7 8 8 8 8 9 8 7 9 8 9 8 8 8 9 8 8 9 8 8 9 8 8 8 8 9 9 9 9 10 9 8 9 8 8 9 10 9 9 9 9 9 9 9 9 9 9 10 9 9 9 10 9 10 9 10 10 10 10 10 9 9 10 10 10 10 10 10 10 9 10 10 10 10 11 11 10 10 10 11 10 11 11 11 11 11 10 11 11 12 11 12 11 12 12 12 12 13 12 12 12 12 12 12 12 12 12 13 13 12 13 13 14 13 13 13 13 13 13 13 13 13 14 14 13 14 14 14 14 14 14 15 15 15 14 15 14 16 15 15 15 15 16 15 15 16 16 16 15 16 17 16 16 16 17 17 16 17 17 17 18 18 18 18 20 18 18 17 18 17 18 16 17 17 18 19 18 19 20 20 18 20 19 20 19 21 21 21 20 21 22 21 21 23 22 22 24 23 22 23 23 24 23 24 25 25 25 24 25 27 27 27 27 27 29 31 32 35 35 34 39 39 42 45 49 63 65 67 68 74 87 99 99 85 76 68 62 62 64 75 86 67 60 57 55 54 55 51 51 52 57 62 63 63 67 70 78 64 62 58 57 58 54 48 45 44 44 44 42 42 39 36 35 33 33 33 33 32 31 32 32 31 33 31 31 29 29 27 26 26 26 25 27 25 24 23 22 22 24 24 24 26 25 24 25 28 27 28 27 25 22 20 21 20 20 20 19 20 18 18 18 18 18 19 18 18 19 20 19 17 16 16 16 16 17 16 15 14 15 15 14 15 14 14 14 13 13 12 13 12 12 12 12 11 12 11 11 11 11 11 10 11 10 11 11 11 10 10 11 10 10 9 10 10 10 10 9 9 9 10 9 10 9 9 8 9 9 9 9 9 9 9 9 9 9 8 9 8 9 9 8 8 9 8 9 8 8 8 8 9 8 8 8 8 8 8 8 8 7 8 8 8 7 7 8 7 8 7 7 7 6 7 8 7 8 8 7 7 8 7 7 7 7 7 7 7 7 7 8 7 7 8 7 7 7 7 6 7 7 7 7 7 7 6 7 7 6 7 0 
6 5 5 6 6 6 5 6 6 6 6 6 6 6 6 6 6 6 5 6 6 6 6 6 7 6 6 6 6 7 6 6 6 6 6 7 7 6 6 6 7 6 6 7 6 7 6 7 6 7 7 6 6 7 7 7 7 7 6 7 6 7 7 7 7 7 7 7 7 6 7 7 7 7 7 7 7 7 7 7 8 7 6 7 7 7 7 7 7 7 7 7 7 7 7 7 6 6 7 7 7 7 7 7 7 7 7 7 7 7 8 8 8 7 8 8 8 8 7 8 8 8 8 8 8 7 7 9 7 8 8 8 8 8 8 8 8 8 8 8 8 8 8 8 9 9 9 9 8 8 8 9 8 8 9 8 9 9 8 8 8 9 9 8 9 8 9 8 8 9 9 10 9 9 10 9 9 10 9 9 9 10 10 10 10 9 9 10 10 10 10 10 10 11 10 10 10 11 10 11 10 10 10 11 11 11 11 11 11 11 11 11 11 11 11 11 11 11 11 11 11 11 12 12 12 12 12 12 13 12 12 12 12 12 12 12 13 12 12 12 13 13 12 13 13 13 13 12 13 13 13 13 13 13 14 14 14 14 15 14 15 15 14 15 15 15 15 15 15 15 15 15 16 16 15 16 16 16 16 17 17 17 17 17 17 17 19 18 19 18 18 19 20 20 20 20 18 18 18 18 18 19 18 19 18 19 18 18 19 19 19 19 20 20 20 20 21 22 21 22 23 23 22 25 25 25 25 25 26 24 25 23 25 24 24 25 26 27 26 26 26 28 28 29 29 30 32 33 35 36 38 40 43 46 57 68 78 72 73 88 96 108 96 92 84 80 67 62 63 68 78 90 68 59 57 59 60 56 52 48 49 55 62 62 58 62 62 67 66 63 61 58 59 59 55 51 48 46 48 41 40 41 38 36 35 34 32 33 32 33 34 32 31 30 30 29 29 26 28 27 25 26 26 25 27 25 24 23 22 24 23 25 27 27 24 26 27 26 27 23 23 22 21 21 20 21 20 19 19 19 18 18 18 18 19 18 19 18 19 19 17 16 17 17 16 16 16 16 15 15 15 14 15 13 14 13 13 13 13 13 12 13 12 12 12 12 11 11 11 11 10 11 11 10 10 10 10 11 10 10 10 10 9 9 10 9 10 10 10 9 9 10 9 9 9 9 9 9 9 9 9 9 9 9 8 8 9 9 9 9 9 8 9 8 8 9 8 8 8 9 9 8 8 8 8 8 9 8 8 8 8 8 8 8 7 8 7 8 8 7 7 7 7 7 7 8 8 8 8 8 7 7 7 8 7 7 7 7 7 7 7 7 7 7 7 7 8 7 6 7 7 6 7 6 7 7 7 7 6 0 
6 6 6 5 6 6 6 6 6 6 6 6 6 6 6 6 6 6 6 6 6 7 6 6 6 7 6 6 6 6 6 6 6 6 7 6 6 7 6 6 6 7 7 6 6 6 6 6 6 7 6 7 6 6 6 7 6 8 7 6 6 6 7 7 6 7 7 7 6 7 7 6 7 7 7 7 7 7 7 6 7 7 7 6 7 7 7 7 7 6 7 7 7 7 7 7 7 7 7 7 7 7 8 7 7 8 8 8 7 7 7 8 7 7 8 7 8 8 8 8 8 8 8 8 7 8 7 8 8 8 8 8 8 7 8 8 7 8 8 8 8 9 9 9 8 8 9 8 8 8 9 8 8 9 9 9 8 9 8 8 8 9 9 9 9 9 9 10 9 9 9 8 9 9 9 9 8 8 9 10 10 10 10 9 9 10 10 10 10 10 10 10 10 10 10 10 10 10 11 10 10 11 11 11 10 10 11 11 11 11 11 11 11 11 11 11 11 10 12 12 11 12 12 12 12 13 14 13 13 13 12 12 13 13 12 13 12 12 13 12 13 14 13 14 14 13 13 14 13 13 13 14 14 14 13 14 14 14 14 14 16 14 15 15 14 15 15 16 16 16 15 16 15 15 16 17 16 16 16 16 16 16 17 16 17 18 21 19 19 19 19 19 21 20 20 20 20 20 19 19 18 19 19 19 19 19 19 19 20 20 20 20 21 21 21 22 21 23 22 21 23 23 24 27 26 25 25 25 27 25 25 24 24 26 26 26 26 26 26 26 28 29 29 30 31 31 33 36 39 39 43 45 47 53 71 80 83 77 81 96 97 94 86 79 69 63 61 63 63 73 80 86 71 65 63 64 60 55 51 47 50 53 60 58 58 62 58 63 69 64 62 60 59 61 60 57 55 49 49 45 43 40 40 38 35 35 33 32 34 32 33 32 33 31 30 31 29 29 27 26 25 26 26 25 25 24 25 24 24 23 23 24 28 25 25 26 26 27 26 26 24 22 22 21 21 20 21 18 20 19 19 19 19 19 19 19 18 18 20 19 18 17 16 17 15 15 16 17 17 15 15 15 14 14 13 14 13 13 14 13 12 12 12 12 12 11 11 11 11 11 11 11 11 11 11 11 10 10 9 10 10 10 11 10 10 10 10 10 9 10 10 9 9 9 9 10 9 9 9 9 10 9 8 8 9 9 8 9 9 9 9 8 8 9 8 8 8 9 8 8 8 7 8 8 8 7 8 8 8 8 8 7 8 8 8 8 8 7 8 8 8 8 7 7 7 7 7 7 7 8 7 7 8 7 7 7 7 7 7 7 7 7 7 7 7 7 7 8 7 6 6 7 7 7 7 7 7 7 7 0 
6 7 6 6 6 6 6 6 6 6 6 6 6 6 6 5 6 6 6 6 6 6 6 6 7 6 6 6 6 6 6 6 6 6 7 6 6 7 7 6 6 6 7 6 7 7 7 6 6 7 6 6 6 6 7 7 7 6 7 7 7 6 6 6 7 7 6 7 7 7 6 7 7 7 8 6 7 7 7 6 7 7 7 7 7 7 7 7 7 7 7 7 8 7 8 7 7 7 7 7 7 7 7 7 8 7 8 7 8 8 7 7 8 7 8 8 7 8 8 7 8 7 8 7 7 7 8 8 8 8 8 8 8 7 8 8 8 8 8 8 8 8 8 8 8 9 8 8 9 8 8 9 8 8 9 9 8 9 9 9 9 9 9 9 8 9 9 9 10 9 9 9 9 9 10 9 9 10 10 10 10 9 10 10 10 10 9 10 10 10 11 11 10 10 9 10 10 10 10 10 11 10 10 10 11 10 11 10 11 11 11 11 11 10 11 12 11 11 11 11 12 12 11 12 12 14 13 14 13 12 13 15 13 13 12 14 13 13 13 13 12 13 13 13 13 14 14 14 14 14 14 13 15 13 14 15 15 15 15 15 15 16 15 16 16 16 16 16 15 16 15 17 16 16 17 17 17 19 17 16 16 17 18 17 18 18 18 18 18 22 19 19 19 20 19 19 19 19 19 20 20 19 20 19 21 19 20 20 19 20 21 20 21 23 23 22 23 23 24 23 26 24 24 25 24 25 25 27 26 26 25 25 25 26 26 27 26 25 25 28 28 30 30 31 33 32 36 38 41 46 46 54 60 63 77 84 81 82 89 88 84 84 76 67 62 58 56 59 65 70 76 74 79 80 79 76 69 58 50 51 53 55 54 58 59 63 56 59 65 67 67 67 73 75 67 59 57 58 52 47 45 41 40 38 36 36 34 32 33 31 32 31 32 32 31 29 28 28 27 26 26 25 25 25 24 24 23 23 22 23 24 25 27 27 26 26 28 27 25 26 25 23 23 20 21 20 20 20 19 19 19 19 19 19 20 19 19 19 19 18 18 18 17 16 17 16 16 16 16 15 14 14 14 15 15 14 14 14 13 14 14 11 12 12 12 12 12 11 12 11 11 11 11 10 11 10 11 10 11 10 11 10 10 9 11 10 10 10 10 9 10 9 9 9 9 9 8 9 9 10 9 9 9 8 9 9 9 9 9 8 9 8 9 8 8 8 8 9 9 9 9 8 8 9 9 8 8 8 8 8 8 8 8 7 8 8 8 8 8 7 7 8 8 8 7 7 7 8 7 8 7 7 7 7 7 7 8 7 7 7 7 8 7 7 8 7 7 7 7 7 7 7 7 6 7 7 7 7 6 0 
6 6 6 6 6 6 6 7 6 6 6 6 6 6 6 6 6 5 6 6 6 6 6 6 6 6 6 6 6 6 6 6 6 6 6 6 6 7 6 7 7 6 6 7 7 6 6 7 7 6 6 7 7 6 7 6 7 6 6 6 7 7 7 6 6 7 7 6 7 7 7 7 7 7 7 6 7 7 7 6 7 7 7 7 7 7 7 7 7 7 7 8 8 7 7 7 8 7 7 7 8 8 7 7 7 8 7 8 7 8 7 7 8 7 8 8 8 8 7 8 8 8 8 8 8 8 8 8 8 7 9 9 8 9 7 8 8 9 8 8 8 8 8 8 8 8 8 8 8 9 9 9 8 9 9 8 8 9 9 8 9 8 9 9 9 9 9 9 9 9 9 9 9 9 10 10 10 9 9 10 10 9 10 9 9 10 10 9 10 10 10 10 9 10 10 10 10 11 10 10 10 11 10 11 11 11 10 11 11 11 12 11 11 11 11 12 10 11 11 12 12 12 11 12 12 13 13 13 14 13 13 13 15 13 12 13 14 13 13 13 13 13 12 13 14 13 14 14 15 14 14 14 14 14 15 15 14 15 16 15 16 16 16 16 17 16 17 17 18 17 16 16 16 17 17 17 17 18 18 17 17 18 18 18 18 19 19 19 19 21 19 20 19 19 19 20 19 19 19 20 19 21 20 20 20 20 19 21 22 20 22 23 23 22 24 24 24 24 24 24 24 25 25 24 25 25 24 25 25 25 25 26 25 27 26 27 27 28 27 28 29 30 32 33 34 37 40 44 47 53 52 59 68 80 87 92 82 84 88 81 74 79 73 61 55 57 56 57 63 68 72 71 76 89 100 88 70 59 53 52 53 52 55 57 57 67 60 57 60 62 70 69 73 86 78 68 60 58 52 48 46 43 40 39 39 36 34 33 33 32 32 31 31 31 32 31 30 28 28 26 26 25 25 23 24 26 23 23 23 23 27 26 27 25 25 25 26 26 25 23 24 23 22 21 20 20 19 20 20 18 19 19 18 20 20 19 19 19 17 19 18 16 18 16 16 16 15 15 16 16 16 15 14 15 16 15 13 14 13 12 13 13 12 12 12 12 12 11 11 11 11 11 11 11 11 11 11 11 11 11 11 10 10 10 11 10 10 10 9 10 10 10 10 9 9 10 9 9 8 9 10 9 9 9 9 9 9 9 9 8 9 9 8 9 10 8 8 8 8 9 8 8 8 8 8 8 8 9 8 8 8 8 8 8 8 8 8 8 7 8 8 7 8 8 7 8 8 8 7 7 7 7 7 8 7 8 7 7 7 7 7 7 7 7 7 7 6 7 7 7 7 7 7 7 7 7 7 7 7 0 
6 6 6 5 6 6 5 6 6 6 6 6 6 6 6 6 5 6 6 6 6 6 6 7 7 6 6 6 6 6 6 5 6 6 6 6 6 6 6 6 6 6 7 6 6 6 6 7 7 6 7 6 7 7 7 7 6 7 7 7 6 6 7 7 7 7 7 7 7 7 7 6 7 7 6 7 7 7 6 7 7 7 7 7 6 7 7 7 8 7 7 7 7 7 7 7 7 7 7 8 7 7 7 8 7 8 7 7 8 8 7 8 7 7 7 7 8 7 7 8 8 8 8 8 8 8 8 8 7 8 8 8 8 8 8 8 8 8 8 8 8 8 8 8 8 8 9 8 8 9 9 8 8 9 9 9 9 9 9 8 9 10 8 10 9 8 9 9 9 9 9 9 9 9 9 9 10 9 10 9 10 9 9 10 9 9 10 10 10 10 10 10 11 10 10 10 10 11 11 10 10 11 10 11 11 10 11 10 10 11 11 11 10 11 11 11 12 12 12 12 11 12 12 12 12 13 13 13 14 13 12 13 12 13 13 12 13 13 13 13 14 14 14 14 13 13 14 12 14 14 15 14 15 15 15 15 15 15 17 15 17 16 17 17 16 17 17 18 17 17 17 17 17 17 18 16 18 18 18 17 18 17 18 17 19 19 19 20 21 20 24 21 21 21 19 20 19 19 19 20 20 21 21 21 21 20 20 21 23 23 23 22 23 23 23 24 23 24 23 24 25 25 25 23 24 25 24 24 25 25 26 25 26 26 28 27 28 28 29 29 30 31 33 35 37 38 42 48 50 52 54 66 80 89 87 93 91 90 84 77 75 74 71 59 55 52 56 57 64 64 72 70 82 99 104 89 66 59 53 53 55 56 57 59 59 64 59 58 57 58 61 60 58 72 68 71 60 57 54 52 46 42 42 40 41 39 36 34 33 32 32 32 31 32 30 29 28 27 27 27 25 26 25 25 26 26 23 23 24 24 26 26 25 25 25 26 26 27 25 24 24 21 21 21 20 19 20 20 20 18 19 18 18 20 19 20 19 19 19 19 18 18 18 17 17 15 17 16 16 16 16 15 15 16 14 14 14 14 14 14 14 12 13 13 12 11 11 11 11 11 11 11 11 11 10 10 10 11 10 11 11 11 10 11 10 10 10 10 10 10 9 10 10 10 10 9 8 9 9 8 9 9 9 9 9 9 9 9 9 9 9 9 9 9 8 9 8 8 8 8 8 8 8 7 8 8 8 8 8 8 7 8 8 8 8 8 8 8 7 8 7 7 7 7 8 7 7 7 7 8 7 8 7 8 7 7 7 7 7 7 7 7 7 7 7 7 7 7 7 7 7 7 6 7 7 7 6 6 7 0 
6 6 6 6 6 6 6 6 6 6 6 6 6 6 6 6 6 6 6 6 5 6 6 6 6 6 7 7 7 6 6 7 6 6 7 6 6 6 6 6 6 6 6 7 6 6 7 6 7 7 7 6 6 7 7 7 6 6 6 7 7 7 6 6 7 7 7 7 7 7 7 7 7 7 6 7 7 7 7 7 7 7 7 6 7 7 7 7 7 7 7 7 7 7 7 8 7 7 7 7 7 7 8 7 7 8 8 8 7 7 8 7 8 7 7 8 8 8 7 8 8 8 8 8 8 7 8 8 8 8 8 8 8 8 8 8 8 8 8 8 8 9 9 8 8 8 9 9 8 8 8 9 9 9 9 8 9 9 9 9 9 9 9 9 9 9 10 9 9 9 9 9 9 9 9 10 10 9 9 9 10 10 9 10 10 10 10 10 10 10 11 10 10 10 11 10 10 10 11 10 11 11 11 11 11 11 10 11 11 12 11 11 12 11 11 12 12 12 12 11 12 12 12 12 13 14 12 14 14 13 14 13 12 13 13 12 14 14 12 13 13 13 14 14 14 14 14 14 14 14 15 15 15 15 15 16 16 16 15 16 16 16 18 18 18 18 17 18 18 17 18 17 17 18 18 18 19 17 18 19 18 18 19 19 19 19 20 21 21 20 21 21 21 21 20 20 19 19 20 20 21 21 20 21 23 23 22 22 24 24 24 23 24 23 22 23 23 23 22 24 24 25 25 24 24 24 25 26 25 25 27 25 26 28 28 28 29 30 30 31 33 34 34 37 42 43 46 51 52 54 58 71 79 84 84 90 95 90 81 75 71 72 68 59 57 55 57 61 64 72 70 79 94 115 103 81 66 61 56 54 59 58 59 61 61 59 62 60 53 51 52 54 53 57 69 76 61 57 57 55 48 45 44 42 38 41 37 35 33 33 35 34 33 32 31 29 29 28 28 29 26 27 24 26 25 24 25 23 24 25 27 25 25 24 23 26 25 26 26 23 23 23 22 20 21 21 20 19 19 19 19 19 20 19 19 20 20 20 18 18 19 18 18 16 17 16 16 15 17 16 17 16 16 15 16 14 14 13 13 13 14 13 13 12 13 12 13 12 11 11 11 12 11 11 11 11 11 11 11 10 11 11 10 10 11 10 10 10 10 10 10 10 9 10 10 10 10 9 9 9 9 10 10 9 9 8 9 9 9 9 9 9 9 9 8 9 9 8 8 8 8 8 8 8 8 8 8 8 8 8 8 8 9 8 8 8 8 8 7 8 7 8 8 7 8 8 7 8 8 7 8 7 7 7 7 7 7 7 8 7 7 7 7 7 7 7 7 7 8 7 7 7 7 7 7 7 7 7 7 0 
6 6 6 7 6 7 6 6 6 6 5 6 6 6 6 6 6 6 6 6 6 6 6 6 6 6 6 6 6 7 6 6 6 7 7 6 6 7 7 7 6 6 6 6 6 6 6 7 6 6 6 7 7 7 7 7 6 7 6 7 7 7 6 6 7 7 7 7 7 7 7 7 7 7 7 7 7 8 7 7 7 7 7 7 7 7 7 7 8 7 7 8 7 7 7 8 7 7 7 7 7 7 7 7 7 8 7 8 8 7 8 8 7 7 8 8 8 7 7 8 8 8 8 8 8 9 8 8 8 8 8 8 9 8 8 8 9 8 8 8 9 8 9 9 8 8 8 8 9 9 9 8 8 8 8 8 9 8 9 9 9 9 9 9 9 9 8 9 9 10 9 10 9 10 9 10 9 10 10 9 10 10 10 10 10 10 10 10 10 10 11 10 11 11 10 11 10 10 11 11 10 10 11 11 11 11 10 11 11 12 11 11 12 12 11 12 11 12 11 12 11 11 12 13 12 13 13 13 13 12 13 13 13 13 13 13 13 14 14 13 15 13 13 14 14 14 15 15 14 14 15 15 15 15 15 16 16 16 16 16 17 17 17 17 18 18 19 19 18 18 18 18 19 19 18 17 18 19 18 19 18 19 19 19 21 20 21 21 20 19 23 21 21 19 20 21 18 20 20 20 20 22 21 21 22 22 22 22 23 24 24 23 23 23 22 22 24 23 23 24 23 23 23 25 25 24 24 26 25 26 26 26 25 27 27 29 30 30 32 32 33 36 36 39 42 47 48 53 55 58 63 71 77 82 81 87 91 88 77 72 71 73 64 62 60 58 63 65 69 71 76 88 104 110 91 78 71 67 61 59 63 59 61 63 64 63 64 59 54 53 54 57 59 61 61 63 57 57 60 50 52 48 48 44 39 40 36 35 33 33 33 32 32 32 32 29 28 28 27 27 28 27 25 25 25 24 26 24 26 27 27 26 26 25 24 28 26 26 24 23 23 22 22 21 21 20 20 19 20 19 19 19 20 20 19 19 20 19 19 19 18 18 16 17 16 16 17 17 16 16 16 17 15 15 14 14 14 15 14 14 13 13 13 13 13 12 12 12 12 12 12 11 11 11 10 10 11 11 11 11 10 10 10 10 10 10 10 10 9 10 10 9 10 10 10 10 9 10 10 9 10 9 9 9 9 9 8 9 8 9 8 9 9 8 9 8 9 8 8 8 9 8 8 8 8 8 8 8 8 8 8 8 8 8 8 8 8 8 8 8 7 8 8 7 8 8 8 8 7 7 7 8 7 7 8 7 7 7 7 7 8 6 7 7 7 7 7 7 7 7 7 6 7 7 6 6 7 7 7 0 
6 5 6 7 6 6 6 6 5 6 6 6 6 6 6 6 6 6 7 6 6 7 6 7 6 6 6 6 6 6 6 6 6 6 6 7 6 6 6 6 6 6 6 7 7 6 7 6 7 7 7 6 6 6 7 7 7 7 6 6 7 7 7 7 7 7 7 6 7 7 7 7 6 7 7 7 6 7 7 7 7 7 7 7 7 7 7 7 7 7 7 7 7 7 7 7 7 7 8 7 7 8 8 7 7 8 7 7 8 8 7 7 8 7 8 8 8 8 8 8 8 8 8 8 8 8 7 8 8 8 8 8 9 8 9 9 8 8 8 9 8 8 8 8 9 8 9 9 8 8 9 9 8 9 9 9 9 8 9 9 9 9 9 9 9 9 9 9 10 9 9 10 9 10 10 9 10 9 9 9 10 9 10 10 9 10 9 10 11 10 10 10 11 11 11 10 11 11 11 11 10 11 11 10 11 11 11 10 11 12 11 11 11 12 12 11 11 12 12 11 12 12 13 12 12 13 13 13 13 12 13 14 13 14 13 14 13 13 13 14 14 14 14 14 15 14 14 14 15 16 16 15 15 16 16 16 17 16 16 16 18 17 18 18 18 17 18 17 19 19 19 19 19 19 18 19 19 20 20 20 19 20 20 21 21 20 21 21 20 20 24 22 21 20 20 20 20 21 20 20 21 21 22 23 23 23 23 25 24 23 22 23 22 23 22 24 23 22 24 24 25 24 23 23 24 25 25 25 26 27 26 28 27 28 30 28 29 30 32 34 35 37 38 40 45 47 54 55 54 58 60 66 79 79 83 82 86 79 69 68 69 73 67 69 63 61 65 71 71 77 82 92 102 96 82 76 75 71 66 62 64 66 71 73 71 67 62 55 54 55 56 60 61 62 63 59 56 55 58 50 53 56 56 46 42 38 40 37 34 34 34 33 32 32 31 31 29 29 29 28 27 27 26 25 26 26 25 25 26 27 27 25 25 25 25 27 27 25 24 23 23 23 21 21 20 20 19 20 20 19 19 20 20 19 20 19 20 20 19 18 18 18 18 17 18 17 17 16 16 16 16 18 16 16 15 15 15 15 14 14 13 13 13 13 12 12 13 13 12 12 11 11 11 12 12 12 11 11 11 10 11 11 10 10 11 10 10 10 10 10 10 10 10 10 9 10 9 10 10 9 9 9 9 9 9 9 10 9 9 10 8 9 9 9 8 8 8 8 9 9 8 9 9 8 8 8 8 8 7 8 8 8 7 8 7 8 7 8 8 7 7 8 8 8 8 8 7 8 7 8 7 7 8 7 8 7 7 7 7 7 8 7 7 7 8 7 7 7 7 7 7 7 7 7 7 7 7 7 7 0 
6 6 6 7 6 6 6 6 6 6 6 6 6 6 6 6 6 6 6 6 6 6 6 6 6 6 6 6 7 6 6 6 6 6 6 7 7 6 6 6 7 7 7 6 6 6 7 6 6 7 7 6 6 7 6 6 7 7 7 7 6 7 7 6 6 7 7 7 6 7 7 7 6 7 6 7 7 7 7 8 7 7 7 7 7 7 7 7 7 7 7 7 7 7 7 7 7 7 7 7 7 7 7 7 7 7 8 7 8 7 8 8 7 7 8 8 8 8 8 8 8 7 8 8 8 8 8 8 8 8 8 8 8 8 8 8 8 8 8 8 8 9 8 8 9 9 8 8 8 8 9 8 9 8 9 9 9 9 9 8 8 9 9 9 9 10 9 9 9 9 9 9 9 10 10 10 10 10 9 10 10 10 10 10 10 10 10 10 10 10 11 10 10 11 10 11 11 11 11 10 10 11 10 10 12 11 11 11 11 11 11 12 11 11 12 11 12 11 12 12 12 12 13 13 13 13 12 13 14 13 13 13 14 15 14 14 14 14 14 14 14 15 15 14 14 15 15 15 15 15 16 16 16 17 16 17 17 17 17 18 17 18 17 18 19 18 19 20 20 19 21 20 20 20 19 21 22 22 20 22 19 21 20 22 23 24 21 23 21 23 22 22 21 21 20 20 20 20 21 21 20 22 22 23 24 24 24 24 24 23 22 22 21 22 23 23 22 23 23 24 23 25 25 25 25 25 24 24 26 27 27 26 28 28 30 30 31 31 34 35 36 36 40 44 46 47 56 51 54 59 61 67 79 81 79 80 82 73 63 64 70 74 70 69 64 62 69 71 73 80 93 94 94 88 77 74 71 70 67 70 66 68 68 71 66 65 58 53 55 55 55 61 64 61 58 56 54 55 57 54 53 57 61 49 42 38 38 38 35 34 34 33 32 32 32 30 29 29 30 29 28 26 27 26 26 27 26 26 26 27 25 25 26 26 26 26 26 27 25 23 23 22 21 21 20 20 20 20 19 19 20 21 20 20 19 19 20 19 19 19 19 18 17 17 16 16 17 17 17 16 16 17 16 15 14 14 15 15 14 14 12 13 13 12 13 13 13 13 11 12 12 12 12 11 11 11 11 11 11 11 11 10 10 10 11 10 10 10 10 10 10 10 10 10 10 10 9 10 10 10 9 9 9 9 9 9 9 9 9 9 9 9 9 8 9 8 9 9 8 8 8 8 8 8 8 8 8 7 8 8 8 8 8 7 7 8 8 8 8 7 8 8 8 7 7 8 7 7 8 7 7 7 7 7 7 7 7 7 6 7 7 7 7 7 7 8 7 7 6 7 7 7 7 7 7 6 7 7 7 0 
6 5 6 6 6 6 6 7 6 6 6 6 6 6 7 7 6 6 6 6 6 6 6 6 6 6 6 7 6 6 7 6 7 6 6 6 6 6 6 6 6 6 6 7 7 6 7 6 7 7 7 6 7 7 6 7 6 6 7 7 7 7 6 6 7 7 7 6 7 7 7 6 6 7 7 7 6 7 7 7 7 7 7 7 7 7 7 7 7 8 7 7 7 7 7 8 7 7 7 7 7 8 8 8 7 8 8 7 8 8 8 7 8 8 7 8 8 8 7 8 8 8 8 7 8 8 8 8 7 8 8 8 8 8 8 8 8 8 9 9 9 8 8 8 8 9 9 8 9 8 8 9 9 9 9 9 9 9 9 9 9 9 10 9 9 9 11 9 9 10 9 10 9 9 9 10 10 10 9 10 10 10 10 10 10 10 10 10 10 10 10 11 11 10 11 10 10 10 11 10 11 11 11 11 11 11 12 11 12 11 11 12 12 12 11 11 13 12 13 12 12 13 13 13 13 13 12 13 13 13 14 13 13 14 15 14 14 14 14 13 14 14 14 15 16 17 15 15 15 17 15 17 16 16 18 17 17 17 18 17 17 18 18 19 20 21 21 20 24 23 22 21 21 22 23 27 24 24 24 24 21 23 22 23 24 25 24 22 22 22 22 21 20 20 20 20 21 21 21 22 22 23 22 24 25 24 24 24 24 23 22 24 23 23 22 23 23 23 24 24 24 25 25 24 25 25 25 25 25 26 29 28 29 30 31 31 31 33 35 36 39 39 42 46 49 50 50 50 55 61 62 67 78 82 77 80 73 67 61 63 67 72 70 64 66 67 70 66 74 83 97 101 93 79 76 72 71 70 68 65 65 65 64 64 57 58 56 55 53 53 54 59 61 62 57 57 52 52 53 51 50 54 62 53 42 38 39 38 36 34 35 33 32 31 31 30 29 30 29 29 28 28 27 27 26 25 28 29 27 27 27 27 27 26 26 25 27 27 25 26 23 21 22 23 22 21 22 19 20 20 20 20 20 19 20 20 19 20 20 18 18 18 18 18 16 17 16 17 17 17 16 17 17 15 15 15 15 14 15 14 15 13 13 13 13 13 12 12 13 12 12 12 12 11 12 11 11 12 11 11 10 11 10 11 10 11 10 11 10 11 10 10 10 9 11 9 9 10 9 10 9 9 9 9 9 9 9 9 8 9 9 9 9 8 8 9 9 9 8 8 8 9 8 8 8 8 8 8 8 7 8 8 8 8 8 8 8 8 8 8 8 8 7 8 7 8 7 8 7 7 7 7 7 7 7 7 7 7 7 7 7 7 7 7 7 7 7 7 7 7 7 7 7 7 7 7 6 6 7 0 
6 6 6 6 6 6 6 6 6 5 5 6 6 6 6 6 7 6 6 6 6 6 6 6 6 6 6 7 6 6 7 6 6 6 6 6 6 6 6 7 7 7 6 7 7 6 6 6 6 6 6 6 7 6 7 6 6 7 6 7 7 7 7 7 7 7 7 6 7 7 7 7 7 6 7 7 7 7 7 7 7 7 7 7 8 7 7 7 7 7 7 8 8 8 7 7 7 7 8 7 8 8 7 7 8 8 8 7 8 7 7 8 8 8 8 7 8 8 8 8 8 8 8 8 8 8 8 8 8 8 8 8 8 9 8 8 8 9 8 8 9 8 8 8 8 8 9 9 8 9 9 9 9 8 9 9 9 9 9 9 9 9 9 10 9 9 10 9 9 9 10 10 10 9 10 9 10 9 10 10 10 10 10 10 10 10 10 10 11 10 10 11 10 10 10 11 11 11 11 10 11 11 11 10 10 11 11 12 12 12 11 12 12 12 11 12 11 12 12 12 12 12 12 13 13 12 14 14 14 13 14 13 14 14 14 14 14 14 15 14 15 15 15 15 16 16 16 16 16 18 17 17 18 16 18 18 18 18 18 19 19 19 20 20 22 22 22 25 29 25 24 23 23 23 24 25 24 27 28 28 26 25 24 25 27 28 24 24 23 23 23 21 21 22 21 21 22 23 22 23 23 24 24 24 24 25 24 23 24 24 23 24 22 24 23 23 24 25 25 25 24 26 25 25 26 26 27 26 25 27 28 28 29 29 31 35 33 34 36 37 39 40 42 45 49 48 51 52 56 62 65 73 79 76 71 82 75 66 60 62 70 71 70 68 67 72 71 69 75 87 95 92 84 78 74 71 69 69 65 64 67 63 62 60 56 55 54 53 49 55 55 56 55 61 54 55 51 52 49 48 47 53 60 51 43 40 37 35 35 35 33 32 30 30 30 30 30 30 29 30 28 27 27 27 25 27 26 27 27 27 27 28 29 27 27 26 27 26 24 24 24 23 23 22 21 22 22 21 22 20 20 20 21 19 21 20 20 21 20 19 19 18 18 18 18 18 17 17 17 16 16 17 16 16 15 16 15 14 14 14 14 14 14 13 13 13 12 13 12 13 12 12 11 12 12 12 12 12 11 11 11 11 11 11 10 11 11 10 10 10 10 11 10 10 11 10 10 10 10 9 9 10 10 10 10 9 9 9 8 9 9 9 9 8 9 8 8 9 9 8 9 9 8 9 9 8 8 8 8 8 8 8 8 8 7 8 8 8 8 8 8 7 8 8 7 7 8 8 7 8 7 8 7 8 8 7 7 8 7 7 7 7 7 7 7 7 7 8 7 7 7 7 7 7 7 7 7 6 6 0 
6 6 6 6 6 6 6 6 6 6 6 6 6 6 6 6 6 6 6 7 7 6 6 6 6 7 6 6 6 6 6 6 6 6 6 6 6 6 7 6 6 6 6 6 7 6 7 7 7 6 7 7 7 7 6 7 7 6 7 6 6 7 7 7 7 7 7 7 7 7 6 7 6 7 7 7 7 7 7 7 8 7 7 7 8 7 7 7 7 7 7 7 7 8 8 7 7 7 7 7 7 8 7 8 8 7 7 7 7 7 8 8 8 7 7 8 7 8 7 8 8 8 8 8 7 7 8 8 8 8 8 8 8 8 8 8 8 8 8 8 8 8 8 9 8 10 9 9 9 9 8 9 8 9 8 9 9 9 9 9 9 9 9 9 9 9 10 9 9 9 9 10 9 10 10 9 10 9 10 10 10 10 10 10 9 10 10 11 10 10 10 11 11 11 10 10 11 10 11 11 11 11 13 11 11 12 11 12 11 11 11 11 12 12 12 12 13 12 12 13 13 12 12 12 13 14 14 14 14 13 14 14 14 14 14 14 14 15 14 14 15 15 15 16 16 16 17 17 17 17 17 17 18 18 19 18 18 19 18 19 19 20 21 22 23 27 31 31 30 29 32 27 26 25 24 27 24 27 26 29 26 26 25 26 27 30 28 25 25 24 25 23 22 22 23 22 23 23 23 23 23 24 25 24 23 25 24 25 24 24 24 24 25 23 26 24 24 25 24 27 25 26 25 26 26 27 26 27 27 27 28 28 29 31 32 34 34 37 37 39 41 40 43 44 46 50 54 54 57 66 71 74 79 81 70 73 66 63 58 62 67 68 70 68 69 74 73 75 80 90 92 86 77 76 70 66 66 65 66 61 61 60 59 55 52 51 52 51 51 52 52 52 52 61 53 53 52 48 47 51 47 49 53 50 46 43 39 35 36 34 32 32 32 32 31 30 29 31 30 29 28 28 26 28 28 28 26 27 26 27 29 28 28 28 27 26 26 26 25 26 24 24 23 23 22 22 22 22 22 20 21 20 20 21 21 21 20 20 20 19 20 19 19 18 18 18 17 18 18 17 17 17 16 17 16 15 15 14 15 14 15 14 14 13 13 13 13 13 12 13 13 12 12 12 12 12 12 12 11 13 11 11 11 10 11 10 11 11 10 10 10 11 10 10 11 10 10 9 9 9 9 10 9 10 9 9 9 9 10 9 9 9 8 9 9 9 9 9 9 8 8 8 8 8 8 8 8 8 8 8 8 8 8 8 8 8 7 8 8 8 8 8 8 7 8 8 8 8 7 8 7 7 8 7 8 7 7 7 7 8 7 8 7 7 7 8 7 7 7 7 7 7 6 6 7 7 7 7 6 0 
6 6 6 6 6 6 6 6 6 6 6 6 6 7 6 6 6 6 6 6 6 6 6 6 6 6 6 6 7 6 6 7 6 6 7 6 6 6 7 6 6 6 6 6 6 6 7 7 6 7 7 7 7 7 7 7 6 7 6 6 6 7 6 7 7 6 7 7 7 7 7 6 7 7 6 7 7 7 7 7 7 7 7 7 7 6 7 7 7 7 7 7 8 8 7 8 7 7 7 7 8 7 8 7 7 7 7 8 7 8 6 7 8 7 7 8 8 7 8 8 8 8 8 8 8 8 8 8 8 8 8 8 8 8 8 8 9 8 8 9 8 9 9 9 9 9 9 9 9 8 9 9 9 9 8 9 10 9 9 9 9 9 9 9 10 10 10 9 9 9 9 9 9 11 10 9 10 10 11 11 9 10 10 10 10 10 10 10 11 11 10 10 11 10 11 11 11 11 11 11 12 11 13 13 12 11 11 12 12 12 12 11 12 12 12 12 12 12 13 12 13 13 13 13 13 13 13 13 14 14 14 14 14 14 14 15 14 14 15 15 16 15 16 17 17 17 17 18 18 19 19 21 19 20 19 19 21 19 21 20 22 21 23 24 30 33 32 34 34 29 30 30 29 27 25 25 24 26 25 27 28 26 25 25 25 28 29 28 26 25 24 23 23 23 23 23 22 23 23 24 24 25 24 25 26 25 25 25 26 24 24 24 23 24 26 24 25 25 25 25 27 26 27 28 28 27 28 28 29 29 29 30 31 31 33 34 35 37 37 39 41 44 44 46 46 51 55 57 64 71 81 77 81 85 67 65 61 57 57 61 67 67 68 70 69 70 70 77 82 85 88 80 73 69 65 62 61 60 58 56 55 53 52 54 51 51 50 50 47 49 48 46 48 52 56 53 49 46 47 46 46 48 48 48 47 42 41 37 36 33 34 34 33 31 31 31 29 30 30 30 29 29 28 28 29 28 27 26 26 26 28 28 28 27 29 27 25 27 28 27 25 25 24 24 22 23 22 21 22 22 22 21 22 22 22 22 20 21 21 20 19 18 18 18 18 18 17 19 17 18 17 17 16 16 15 16 15 15 16 15 15 14 14 14 13 13 13 13 14 13 12 12 13 12 12 11 11 12 11 12 11 11 12 11 11 11 11 11 11 11 10 10 10 10 10 10 9 9 10 9 9 10 10 10 9 9 10 9 9 9 9 8 9 9 9 9 9 9 9 8 8 8 9 8 8 8 8 8 8 9 8 8 8 8 8 8 7 8 7 8 8 8 8 8 8 7 8 8 8 7 7 8 7 8 7 8 7 8 7 6 7 7 8 7 7 7 7 7 7 7 7 7 7 7 7 7 7 7 7 0 
6 6 6 6 7 6 6 6 6 5 6 6 6 6 6 6 6 6 6 7 7 6 6 6 6 7 7 7 6 6 6 6 6 7 6 6 6 6 7 6 6 7 7 7 7 7 7 6 7 7 7 6 7 6 6 7 7 7 7 7 7 7 7 6 7 7 7 7 7 7 7 7 7 7 6 6 7 7 7 7 7 7 7 7 7 7 7 7 7 7 8 7 8 8 7 7 7 7 7 8 7 7 7 7 8 8 7 7 8 7 8 8 7 8 8 8 8 8 8 8 9 8 8 8 8 8 8 8 8 8 8 8 8 8 8 8 8 8 9 8 7 9 8 9 9 9 9 8 9 9 9 9 9 9 9 9 9 8 9 10 9 9 9 10 10 9 10 10 9 9 10 9 9 10 10 10 10 10 10 10 10 10 10 10 10 10 10 10 11 10 11 12 11 11 10 11 11 11 11 11 12 11 12 12 12 12 12 11 12 12 12 12 12 12 13 13 13 13 13 13 13 13 12 14 14 13 14 14 14 14 14 14 15 15 15 15 14 15 15 16 15 17 16 17 19 19 19 21 19 21 22 21 21 21 23 21 22 21 21 21 23 24 26 26 34 33 33 35 34 30 32 31 33 31 27 26 26 26 28 28 27 25 27 26 25 26 27 26 26 25 26 25 25 24 24 24 23 24 24 24 24 25 24 25 26 25 25 25 25 25 27 24 24 25 26 25 26 26 27 26 27 28 27 28 29 28 28 31 30 30 31 31 32 32 34 34 37 38 40 43 44 46 48 47 49 54 58 61 65 72 78 70 74 83 67 60 55 54 53 58 64 65 63 64 65 65 68 69 68 73 75 68 64 61 60 54 51 50 52 51 49 49 46 47 46 47 47 47 44 46 42 41 43 53 58 55 45 46 46 48 46 43 45 43 42 44 41 38 34 33 33 33 33 32 31 32 30 31 30 30 31 30 29 27 28 28 28 29 28 28 28 27 28 28 30 29 27 27 28 27 27 26 25 24 26 24 22 23 23 21 23 22 22 23 22 22 22 22 21 22 20 21 20 19 19 18 19 17 18 16 16 17 17 16 16 16 16 15 14 15 14 14 14 14 15 14 13 13 12 13 13 12 12 12 12 12 12 12 12 12 11 12 11 10 11 10 10 11 10 11 10 10 10 10 10 10 10 10 10 10 9 10 10 9 10 10 9 10 9 9 9 9 9 8 9 8 8 9 9 9 9 9 8 8 8 8 9 8 8 9 8 8 8 8 8 8 7 8 7 8 8 8 8 8 8 8 8 7 7 7 8 8 7 8 7 7 8 7 6 7 7 7 7 7 7 7 7 7 7 7 7 7 7 7 7 7 7 7 7 0 
6 5 6 6 6 7 6 5 6 6 6 6 5 6 6 6 6 6 7 7 6 6 6 6 6 6 6 6 6 6 6 6 7 6 7 7 6 7 6 6 6 7 6 6 7 7 6 7 6 6 6 7 7 6 7 6 7 6 6 7 7 7 7 7 7 7 6 7 6 8 7 7 7 7 7 7 7 7 7 7 7 7 7 7 7 7 7 8 8 7 7 7 7 8 8 7 8 8 6 8 8 7 7 8 7 7 8 7 7 8 7 8 8 8 8 8 8 8 8 8 9 8 8 8 8 8 8 9 8 8 9 8 9 8 8 8 9 9 9 8 8 8 8 8 9 8 9 9 8 9 9 9 9 9 9 10 9 9 9 9 10 9 9 10 9 9 10 10 10 9 10 9 10 10 10 10 10 9 11 10 11 11 10 11 10 11 11 10 11 11 10 11 11 10 11 11 11 10 11 11 11 11 12 11 11 11 13 12 13 12 12 12 13 12 13 12 13 13 12 13 14 13 14 14 14 13 14 15 14 14 15 15 15 15 15 15 15 15 16 15 16 16 17 17 20 19 20 22 22 21 22 22 22 21 24 25 23 23 24 25 25 26 26 31 36 31 31 34 31 31 32 32 34 35 29 27 28 26 26 27 25 27 27 26 26 27 29 29 29 27 26 27 25 25 25 25 26 26 24 25 26 26 26 26 25 26 25 25 26 26 26 26 25 25 26 27 26 27 26 27 27 29 29 29 30 31 31 31 31 33 32 33 33 34 35 36 38 42 43 43 44 46 47 49 54 56 59 60 64 66 69 69 71 68 65 63 52 54 54 52 56 55 57 59 58 59 60 60 60 65 63 62 56 53 51 49 49 47 47 46 45 44 41 43 43 43 44 43 42 42 40 42 42 46 59 57 48 47 45 46 46 43 44 42 43 42 44 38 34 32 32 32 33 32 31 31 31 31 31 31 31 31 29 30 29 28 29 28 29 29 28 29 29 28 29 29 28 27 27 27 26 26 26 24 24 25 22 24 23 23 21 22 22 22 22 23 23 22 21 21 21 21 19 18 19 18 19 18 18 17 18 18 17 17 17 16 17 16 15 15 15 15 14 14 14 13 13 13 13 13 12 13 12 13 13 12 13 13 12 12 13 11 11 12 11 10 11 10 11 10 10 10 10 11 10 10 10 10 10 10 10 9 10 9 9 10 9 9 9 9 8 10 9 9 9 9 9 8 9 8 8 9 8 8 8 8 9 8 8 9 8 7 8 8 8 8 8 8 8 8 8 8 8 7 8 8 8 7 7 8 8 8 8 8 8 8 8 7 8 8 7 7 7 7 7 7 7 7 7 7 7 7 7 7 6 7 7 7 7 0 
6 5 6 6 6 6 6 6 6 7 6 7 6 6 6 6 6 6 6 6 6 6 6 6 7 6 6 6 6 6 6 6 6 6 6 6 7 6 6 6 6 7 6 7 6 7 7 7 6 6 6 6 7 7 6 7 6 6 7 7 6 6 7 6 7 7 7 7 7 7 7 7 7 7 7 6 7 6 7 7 7 7 7 7 7 7 7 7 7 7 7 7 7 8 8 8 7 7 7 8 7 8 7 7 8 7 8 8 8 8 8 8 8 8 8 8 8 8 8 8 8 8 8 8 8 8 8 8 8 8 9 8 9 9 8 8 8 9 8 8 8 9 9 8 9 8 10 9 8 9 9 10 9 9 9 9 10 10 10 10 10 9 9 9 9 10 10 9 9 10 10 9 10 10 10 10 10 10 10 10 11 11 15 11 11 10 11 10 10 10 11 10 11 10 11 11 11 10 11 11 12 11 12 12 11 12 12 12 13 13 12 12 13 12 12 12 13 13 13 13 13 13 14 13 13 14 15 15 15 14 16 15 15 16 16 16 16 17 16 16 17 17 18 18 20 20 20 20 24 22 22 22 23 23 25 26 26 25 27 25 26 29 31 33 33 29 29 32 29 28 29 33 34 31 29 28 27 28 27 28 29 29 28 27 27 30 30 30 31 28 28 27 28 28 27 26 28 26 26 27 26 27 26 26 26 27 28 26 26 27 29 27 27 26 26 26 27 27 29 28 30 30 30 30 33 33 33 32 33 33 34 33 34 36 36 38 42 41 45 47 46 47 50 51 56 55 62 62 63 63 63 66 67 66 61 62 54 53 52 51 50 51 51 54 54 57 54 57 58 57 57 55 53 50 49 45 45 45 42 41 40 39 40 41 39 40 38 37 38 39 40 40 44 44 51 62 48 47 44 44 45 42 41 40 40 41 40 38 36 35 33 31 32 30 30 32 30 31 30 31 31 31 29 31 30 32 30 29 30 30 28 30 31 29 29 28 28 28 28 26 25 26 25 26 24 25 24 23 24 25 23 23 23 23 23 23 24 23 23 23 21 22 21 20 19 19 18 19 19 18 17 18 17 17 18 17 17 16 15 16 15 14 14 14 14 14 14 14 14 13 13 13 13 12 13 12 13 12 11 12 12 11 11 12 11 11 11 10 11 11 10 10 10 10 10 10 10 10 10 9 10 10 9 10 10 9 9 9 9 9 9 9 9 8 9 9 9 9 9 8 8 8 8 8 9 8 8 7 9 8 8 9 8 8 8 8 9 8 8 8 8 8 8 8 8 9 8 7 7 8 7 7 7 7 7 7 7 7 7 7 7 8 7 7 7 7 7 7 7 7 8 7 7 7 7 6 7 7 7 0 
6 6 6 6 6 5 7 6 7 6 6 6 6 6 6 6 6 6 6 6 6 6 6 6 6 6 6 7 6 7 6 6 6 6 6 6 6 7 7 6 6 6 6 6 6 6 6 7 7 6 6 7 7 7 7 6 7 6 7 7 7 7 6 7 7 7 7 6 7 7 7 7 7 7 7 7 8 7 7 7 8 7 7 7 7 7 7 7 7 7 7 7 7 7 8 8 7 8 7 8 7 8 8 7 7 8 8 8 8 8 8 8 8 7 8 8 8 8 8 8 8 8 8 8 8 8 8 8 8 9 8 8 9 8 8 8 9 9 9 9 9 9 9 8 9 9 8 9 9 9 9 9 9 9 9 9 10 10 10 10 10 10 10 10 10 9 9 10 9 10 11 9 10 10 10 10 10 10 10 10 11 14 17 11 11 10 10 10 10 10 10 11 11 11 11 11 12 11 11 11 11 11 12 12 12 12 12 12 15 15 14 13 13 13 13 12 14 13 13 13 13 13 14 14 14 15 15 14 15 16 16 16 16 16 16 16 17 16 17 17 17 17 18 18 19 22 19 20 23 23 23 24 27 27 27 26 27 28 28 29 30 31 32 34 31 26 28 28 26 25 27 28 29 30 28 26 26 28 27 28 29 29 28 30 30 32 31 32 32 31 31 31 31 29 29 31 28 28 28 28 28 26 27 27 28 29 27 27 26 27 28 28 27 28 27 27 27 27 29 29 29 31 30 30 33 34 35 34 34 36 36 35 37 38 40 42 44 45 45 48 52 51 53 55 56 57 62 61 63 61 61 60 61 57 60 58 52 49 49 48 49 45 50 51 50 53 52 53 51 53 53 51 50 48 45 43 41 40 39 38 39 39 36 38 37 39 38 37 38 39 37 41 43 47 48 48 43 42 41 44 43 41 41 39 38 41 40 41 39 34 33 32 32 30 31 31 31 31 30 31 30 30 30 32 31 30 31 31 32 31 32 31 30 30 29 29 29 27 28 27 26 27 26 25 26 25 26 25 24 25 25 25 24 24 25 24 24 22 23 23 22 21 21 21 21 19 19 18 19 19 19 18 19 16 17 17 17 16 16 15 16 16 15 15 15 14 14 14 13 13 13 14 13 13 12 12 13 12 12 11 12 12 12 11 10 11 11 12 11 10 11 10 10 10 10 10 11 10 10 10 10 9 9 9 9 9 9 10 10 10 9 9 9 9 8 9 9 9 9 9 9 8 8 9 8 9 8 8 8 8 8 8 8 8 8 8 7 8 8 8 8 7 8 8 8 8 7 7 8 9 7 7 7 8 7 8 7 7 7 7 7 7 7 7 7 7 7 7 7 8 7 7 7 7 7 7 6 8 6 0 
6 6 6 6 6 7 6 6 6 6 6 6 6 6 6 6 6 7 7 7 6 6 6 6 6 6 6 6 6 7 6 6 7 5 6 6 6 7 6 7 6 6 7 7 7 7 7 6 7 6 7 7 6 7 6 6 6 7 7 7 7 7 7 7 7 7 7 7 7 7 7 8 7 7 7 7 7 7 7 7 7 7 7 7 7 8 7 7 7 7 7 7 7 7 8 8 7 7 7 8 8 8 8 7 8 8 7 8 7 7 8 7 8 7 9 7 7 8 8 8 8 8 8 8 8 8 8 8 8 8 8 8 8 9 9 8 9 9 9 9 8 9 8 9 9 8 9 9 8 9 9 9 9 9 9 10 10 10 10 10 10 10 10 10 10 10 9 10 9 9 10 10 11 10 10 10 11 10 11 10 11 13 13 10 10 10 10 11 11 11 10 11 11 12 12 11 11 11 12 11 11 11 11 12 12 13 13 13 13 19 14 13 12 13 13 12 13 13 14 14 13 14 15 14 14 15 16 16 16 16 16 17 15 17 16 16 17 16 17 17 17 17 17 18 21 21 21 20 22 22 24 24 28 30 30 31 28 32 33 36 38 36 35 32 34 31 27 25 25 25 25 27 29 29 27 27 27 28 28 27 28 29 28 30 30 33 31 32 32 35 33 33 33 33 35 35 32 31 32 30 30 27 27 28 29 28 28 27 28 28 29 29 30 28 30 29 30 28 29 30 31 30 31 31 34 34 36 37 36 36 36 38 41 41 43 43 48 48 50 52 53 52 55 58 57 61 61 60 60 58 60 56 57 52 59 58 49 47 48 47 48 46 48 47 48 49 50 49 48 50 47 50 47 46 40 39 37 37 36 36 37 36 36 36 34 36 38 34 35 40 41 39 39 49 45 44 41 41 40 43 43 40 40 40 39 38 39 39 38 34 34 34 31 31 30 31 30 29 30 29 30 29 29 30 30 29 30 31 31 32 33 32 30 31 33 29 30 28 28 27 28 27 28 27 27 25 25 25 24 26 24 24 25 25 26 26 25 25 23 22 23 22 22 21 20 20 20 20 19 20 19 19 19 17 18 18 18 17 17 17 17 16 15 14 15 15 14 13 14 14 14 13 13 13 13 13 12 12 13 11 12 12 11 12 12 11 11 11 11 11 11 11 11 11 10 10 9 9 10 10 10 10 10 10 10 9 9 10 9 9 9 9 9 10 9 8 9 8 9 9 9 8 9 8 9 8 8 8 8 8 8 8 8 9 9 8 8 8 8 8 9 8 8 8 8 7 7 8 8 8 8 7 7 7 7 7 7 8 7 8 8 8 7 7 7 7 8 7 7 7 7 7 7 7 7 7 7 7 7 0 
6 6 6 6 6 6 6 6 6 6 6 6 6 6 6 6 7 6 6 6 6 6 7 6 6 6 7 7 6 6 6 6 7 6 6 6 7 7 6 7 6 7 6 6 6 7 7 6 6 7 6 7 7 7 7 7 7 6 7 7 6 7 7 7 7 6 6 7 7 7 7 7 7 7 8 7 7 7 7 7 7 7 7 8 7 7 8 7 7 7 7 8 7 7 7 7 7 7 6 8 8 8 7 8 8 8 7 8 8 7 7 7 8 9 8 8 7 8 8 8 8 8 8 8 8 8 8 8 8 8 8 8 8 8 9 9 8 8 8 8 9 9 9 9 8 8 10 9 9 9 9 9 9 9 9 10 10 10 11 11 11 10 10 10 10 10 10 10 10 11 9 10 10 10 9 10 11 10 11 10 10 10 10 10 10 11 10 10 10 10 11 11 11 11 11 11 11 11 11 11 10 11 11 12 13 13 12 12 13 14 13 13 12 14 13 14 13 14 13 15 14 14 14 15 16 15 15 16 17 18 18 18 17 17 18 18 18 18 18 17 17 19 19 20 23 22 22 22 23 24 24 26 32 38 30 34 33 34 36 37 36 37 34 34 32 29 27 24 23 25 26 28 28 29 29 28 27 28 29 28 29 29 28 29 28 33 32 33 34 35 34 35 37 35 35 36 34 33 33 31 31 30 30 29 28 29 28 29 28 28 29 29 32 30 28 30 31 30 30 30 30 31 33 32 34 36 38 38 39 40 40 42 44 47 46 48 47 48 51 52 54 57 60 57 60 61 61 61 57 55 57 54 55 52 58 55 46 45 44 46 45 44 45 45 47 47 49 46 46 44 45 46 43 42 41 38 35 34 35 35 34 34 34 33 34 35 34 38 35 37 39 37 41 46 43 44 41 42 38 47 44 39 38 39 38 37 40 37 38 37 34 34 32 31 31 30 31 31 31 30 30 29 30 31 29 31 31 31 30 31 31 33 32 35 31 32 31 29 29 28 30 30 30 27 26 26 26 27 25 24 25 25 26 26 29 27 26 24 25 23 24 23 23 23 21 22 20 21 20 19 20 20 20 18 20 18 17 18 17 16 17 16 15 15 15 16 14 15 14 14 14 13 13 13 13 13 13 12 11 13 12 12 12 12 11 12 11 12 11 10 10 11 11 11 10 10 10 10 10 9 10 11 9 10 9 10 9 9 8 10 9 9 9 9 9 9 9 9 9 8 9 9 8 9 9 8 8 7 8 8 9 8 8 8 8 8 7 8 8 8 8 8 7 8 7 8 8 8 8 8 8 7 8 8 7 8 7 7 7 7 7 8 7 8 7 7 7 7 8 7 7 7 7 7 7 7 7 6 7 0 
6 6 6 6 6 6 6 6 6 7 6 6 6 6 6 7 6 7 6 7 6 6 6 6 6 6 6 7 6 7 7 6 7 6 6 7 6 6 6 7 7 7 7 6 6 6 7 7 7 6 7 7 7 6 7 7 7 6 6 7 7 7 6 7 7 7 6 7 7 7 8 7 7 6 8 7 7 6 7 7 7 7 7 7 7 7 7 7 7 7 7 8 7 8 7 7 7 7 7 8 7 7 7 8 8 8 8 8 8 8 8 8 8 7 9 8 8 8 8 9 8 8 8 9 8 9 8 8 9 8 8 9 9 8 8 8 9 9 9 9 9 9 9 9 8 9 10 8 9 9 9 9 10 9 9 10 11 12 13 13 11 12 10 11 10 10 10 10 10 10 10 10 9 10 10 10 10 10 9 10 11 10 11 11 11 10 12 11 10 11 10 11 11 11 10 11 11 11 11 11 12 12 11 12 12 12 12 12 13 12 13 13 13 13 14 13 13 13 14 13 15 15 15 15 16 15 17 18 19 17 21 26 20 21 20 19 20 19 18 19 19 19 20 21 23 22 21 22 23 25 25 31 37 35 31 32 34 34 35 31 31 32 32 32 31 27 24 25 24 26 26 26 31 28 27 28 29 29 31 29 28 29 30 30 35 33 34 34 35 34 32 36 34 35 34 33 35 34 33 31 33 30 30 30 32 32 30 30 30 29 29 29 30 30 30 30 31 31 32 32 32 32 33 33 36 37 39 42 45 43 46 46 49 52 49 49 51 51 53 56 59 59 57 57 57 58 57 56 54 53 52 54 53 53 60 53 47 44 44 44 46 43 43 44 48 46 47 46 44 43 43 42 41 39 38 37 35 33 33 33 32 32 34 33 33 34 34 35 35 36 37 39 46 49 45 42 41 42 40 44 45 42 39 38 38 39 37 36 38 36 34 34 33 31 31 30 31 29 31 30 30 30 32 30 31 32 31 32 32 31 34 34 33 31 31 32 33 31 29 32 31 30 31 27 28 25 26 26 25 25 25 24 25 26 27 27 26 25 25 25 25 25 24 22 22 21 20 21 20 19 21 21 20 20 18 19 18 17 18 18 17 17 15 15 16 14 16 14 14 13 14 14 13 13 13 12 13 13 13 13 13 12 12 11 11 11 11 11 11 11 11 10 10 11 11 11 10 10 10 10 10 10 10 10 9 10 9 10 9 9 10 9 10 9 9 9 10 9 9 9 8 9 8 8 8 9 7 8 9 8 8 9 8 8 8 8 8 8 8 8 8 8 8 7 7 8 8 8 7 8 7 8 8 8 7 8 7 8 8 7 7 7 7 7 8 8 7 8 7 7 8 7 7 7 7 7 7 7 7 0 
6 6 6 6 6 7 6 6 6 6 7 6 6 6 6 6 6 6 6 6 6 6 7 6 6 6 6 7 7 6 6 7 6 7 6 6 6 6 7 7 6 7 7 6 7 7 7 6 7 7 7 6 7 6 7 7 7 7 6 7 7 7 7 7 6 7 7 7 7 7 7 7 7 7 7 7 7 7 7 7 7 7 7 8 7 7 7 7 8 7 7 7 8 7 7 7 7 7 8 7 7 8 8 7 7 8 7 7 8 8 8 8 8 8 8 8 8 9 8 8 8 8 8 8 8 8 8 9 8 8 9 8 9 9 9 8 9 8 9 8 8 9 9 9 9 9 9 9 9 9 9 9 9 9 10 10 11 14 15 19 14 12 11 11 9 10 10 10 10 10 10 9 10 10 10 10 10 10 10 11 10 10 11 12 11 11 10 10 11 11 11 11 11 11 11 11 11 11 11 11 12 12 12 13 12 11 12 12 12 12 13 14 13 13 13 13 13 14 14 15 15 16 17 16 16 17 19 22 21 21 27 25 23 22 23 24 24 21 21 20 19 20 22 22 24 24 22 24 25 27 27 31 34 33 31 30 31 32 29 28 27 28 27 27 27 25 26 24 24 25 26 26 25 26 26 28 29 26 30 31 32 31 30 32 35 38 36 35 33 34 32 33 33 33 32 33 33 34 32 32 32 32 31 32 31 31 31 31 29 30 30 30 30 31 31 32 34 33 34 33 34 35 34 36 37 40 43 48 50 49 48 50 51 52 51 52 52 54 55 57 58 56 57 55 51 53 52 51 50 54 53 53 52 50 57 51 52 45 45 43 44 43 45 44 44 45 46 45 41 42 43 41 41 39 37 37 33 33 33 32 32 31 31 31 31 32 32 33 33 34 36 36 43 55 45 41 40 39 40 41 47 43 40 41 37 38 37 35 36 34 34 33 33 33 32 30 32 33 30 30 31 30 31 29 29 31 31 32 31 32 33 31 32 31 31 32 33 32 31 31 30 32 33 29 28 27 27 25 26 26 26 26 26 25 26 26 27 27 26 24 26 24 24 24 23 22 22 21 22 21 21 20 21 20 19 19 18 18 18 19 17 17 16 16 15 15 15 15 15 14 14 14 14 13 13 13 13 14 13 14 13 12 12 12 13 12 12 11 11 11 11 11 11 12 11 11 11 10 10 11 10 10 10 10 11 10 10 10 9 10 10 9 9 8 9 9 8 9 9 9 8 9 8 9 9 8 9 8 8 9 9 9 8 8 9 8 8 7 8 8 8 8 8 8 8 8 8 8 8 8 8 8 8 7 7 7 8 8 7 7 7 8 7 8 7 7 7 7 7 7 7 7 7 7 7 8 7 7 7 0 
6 6 6 6 7 6 6 6 6 6 6 6 7 6 6 6 6 7 6 6 7 6 6 6 6 7 7 6 6 6 6 7 6 6 7 6 6 6 6 7 7 7 6 6 6 7 6 7 6 7 6 7 7 6 6 7 7 7 6 6 7 7 7 7 7 7 7 7 6 7 7 7 7 7 7 7 7 7 7 7 7 7 7 7 7 7 8 7 7 7 8 7 7 7 8 7 7 8 8 7 7 8 7 8 8 7 8 8 9 7 8 8 8 8 8 8 8 7 8 8 8 8 8 8 8 8 8 8 9 8 8 9 8 8 9 8 8 9 8 9 8 9 8 9 8 9 9 9 9 9 9 9 9 10 10 10 11 14 20 20 17 11 11 12 10 10 9 10 10 10 10 10 10 10 10 10 10 10 11 10 10 11 11 11 10 10 11 12 12 11 11 11 11 11 11 11 12 11 11 11 11 11 11 12 12 12 12 13 13 13 13 12 13 14 13 14 13 15 16 15 15 17 17 17 18 18 21 26 24 25 26 22 23 24 24 27 26 24 24 22 21 23 22 22 24 23 25 27 29 31 30 31 33 33 29 29 28 29 27 26 25 26 25 25 25 25 25 24 24 25 25 25 26 27 27 27 26 27 28 30 31 32 32 31 31 39 39 36 31 31 32 32 34 33 33 34 33 34 33 32 31 32 32 33 31 33 32 32 32 30 32 33 34 32 33 32 35 33 35 35 35 35 37 39 39 41 45 51 48 50 52 54 56 53 56 53 56 57 57 56 52 54 53 52 48 49 49 51 51 52 50 49 52 49 49 51 53 47 45 44 45 45 47 47 47 43 42 43 41 41 43 41 38 39 37 34 34 34 33 32 32 31 32 30 31 31 31 31 34 34 35 38 43 48 41 39 38 38 38 40 43 42 39 40 38 36 36 35 35 33 35 33 33 32 33 31 32 33 31 31 30 30 31 31 30 31 30 30 32 31 33 34 32 32 32 30 31 31 33 31 29 28 31 30 29 28 26 25 24 26 26 26 26 27 27 30 28 29 26 25 25 24 24 23 24 22 22 22 22 21 23 22 23 21 20 20 20 18 19 18 18 17 17 16 16 16 16 15 16 14 15 14 14 14 14 13 14 14 19 17 14 12 12 12 12 13 11 11 11 11 11 11 11 13 13 12 10 10 10 11 10 10 11 11 10 10 9 9 10 9 10 9 9 9 9 9 9 9 9 9 9 9 8 8 9 8 9 9 8 9 8 8 8 8 9 8 8 8 8 8 8 8 8 8 8 8 8 8 8 8 7 8 7 7 7 8 7 7 7 8 8 7 7 7 7 7 7 7 7 7 7 7 7 7 7 8 7 8 7 0 
6 6 6 5 6 6 7 6 6 6 6 6 5 6 6 6 7 6 6 6 6 6 6 6 6 6 7 6 6 6 7 6 7 6 6 7 7 6 7 7 6 7 6 6 6 6 7 6 6 7 7 7 7 6 7 7 6 7 7 6 7 7 7 7 7 6 7 7 7 7 7 7 7 7 7 7 8 7 7 7 6 7 8 8 7 7 8 7 7 7 7 7 7 8 7 8 7 7 8 8 8 7 8 8 7 8 8 7 8 8 9 8 8 8 8 8 9 8 8 9 8 9 8 8 8 9 9 9 9 8 8 8 9 9 9 9 9 9 9 8 8 9 9 9 8 9 8 9 9 9 10 8 9 10 10 10 14 14 18 21 17 12 12 11 11 10 11 10 10 10 10 10 10 11 10 10 11 10 11 10 11 10 10 10 11 12 12 10 12 11 11 10 11 10 12 11 11 12 11 12 12 12 12 12 13 12 12 13 12 12 13 13 14 13 13 13 14 15 16 17 18 20 20 20 19 22 27 29 27 25 23 21 22 21 22 21 25 28 28 25 25 24 24 23 25 25 28 30 33 35 33 33 31 30 27 27 28 27 26 26 27 25 24 23 24 24 26 25 24 23 24 24 26 24 24 25 26 25 27 27 28 31 30 28 29 31 34 33 32 32 33 32 34 34 34 35 34 34 34 33 32 33 32 32 34 34 35 34 35 35 33 34 34 34 34 33 36 35 36 35 37 39 40 40 43 43 46 50 48 50 53 54 57 59 56 57 55 56 55 52 47 47 47 47 46 46 47 49 49 49 47 46 50 51 46 48 52 50 45 42 43 41 44 44 44 42 41 42 44 42 43 37 39 38 36 35 33 33 33 32 32 30 32 31 30 31 32 32 32 32 33 39 41 40 37 36 37 38 41 37 38 39 38 38 38 39 36 36 35 33 33 32 33 33 31 30 30 33 32 30 30 30 30 31 31 31 31 31 31 31 33 34 34 32 32 31 31 31 30 30 29 31 31 31 31 30 27 27 26 28 27 30 31 31 30 32 31 29 26 26 27 27 24 25 24 23 22 23 24 24 25 24 25 25 22 20 20 20 19 19 19 18 18 17 18 17 16 16 15 16 14 14 13 13 13 14 14 14 17 17 14 13 12 12 12 12 12 12 12 11 11 11 12 13 12 11 11 11 10 11 10 10 11 10 10 10 9 10 9 9 9 9 9 9 9 9 9 8 9 9 9 9 9 8 9 8 9 8 9 8 9 8 8 8 9 9 8 8 8 8 8 9 8 8 7 8 8 8 8 8 8 8 8 7 8 8 8 8 8 7 7 7 8 7 7 7 8 7 7 7 7 7 7 7 7 7 7 7 7 0 
6 6 7 7 6 5 6 6 6 7 6 6 6 6 6 6 6 6 6 6 7 6 7 6 6 6 7 6 6 7 6 6 6 6 6 6 7 7 6 7 7 7 6 7 7 6 7 7 6 7 6 6 7 6 7 7 7 7 7 7 7 7 7 7 7 7 7 7 7 8 7 7 7 7 7 7 7 7 8 7 7 7 7 7 7 7 8 7 7 7 7 7 7 7 8 7 8 8 8 8 8 8 8 7 8 8 7 8 8 8 8 8 8 7 8 8 7 8 8 8 8 8 8 8 8 9 8 8 8 8 8 8 9 8 9 9 8 9 9 9 9 9 9 9 9 9 9 9 10 10 10 9 9 10 11 11 29 14 18 17 15 13 11 11 11 11 10 10 9 11 11 10 11 10 10 10 10 11 11 11 11 11 10 10 11 10 11 11 11 11 12 11 11 12 11 12 12 12 11 12 12 12 12 13 12 12 13 13 13 13 14 13 14 14 13 13 14 14 16 17 23 30 24 22 22 25 28 28 26 24 23 22 22 19 21 20 21 26 26 27 28 27 24 24 28 27 28 34 33 33 31 30 28 28 26 29 26 25 28 26 25 26 24 25 26 26 25 25 24 23 23 25 26 25 25 25 25 26 26 27 27 27 30 29 28 29 30 33 33 34 34 34 35 35 34 35 34 34 34 34 34 34 34 35 34 36 36 37 37 37 37 37 35 36 35 37 35 37 38 38 38 40 41 41 46 46 48 51 48 52 50 54 57 59 57 57 55 53 50 46 45 44 45 44 45 45 46 47 49 47 47 47 51 48 48 49 50 47 46 46 42 43 42 43 45 43 41 38 40 39 37 37 36 35 34 33 33 33 33 31 30 30 32 30 31 31 30 31 32 33 34 42 40 38 36 36 38 40 39 38 38 37 37 41 38 39 36 37 36 35 34 34 32 31 31 31 31 33 33 31 30 30 31 30 31 32 31 31 33 32 33 33 33 32 31 31 32 31 29 29 30 31 31 31 32 32 29 28 27 28 30 34 35 32 36 34 36 31 29 27 26 26 27 25 25 23 23 25 25 24 25 25 25 27 26 22 20 20 19 20 18 19 19 17 17 16 17 16 16 15 15 16 15 14 14 14 14 14 14 15 13 12 13 12 12 12 12 12 12 12 11 11 12 11 11 11 11 10 10 11 11 10 10 11 10 10 10 10 10 10 9 9 9 10 10 10 9 10 9 8 9 9 8 9 8 9 9 8 9 8 9 9 8 9 9 9 10 8 9 8 8 8 8 8 8 7 8 8 7 7 8 8 7 8 6 7 7 7 8 7 8 8 8 8 8 7 7 8 7 7 7 8 7 7 7 7 7 7 7 0 
6 6 6 6 6 6 6 6 6 6 6 6 6 6 6 6 6 6 7 6 6 6 7 6 6 6 6 6 6 7 7 6 7 7 6 6 7 6 6 6 6 7 6 7 7 6 6 7 6 7 6 7 7 7 7 7 8 7 7 7 7 7 7 6 7 7 7 7 7 7 7 8 7 7 7 7 7 7 7 7 7 7 7 7 7 7 7 8 7 8 7 8 7 8 8 8 7 7 7 8 8 8 8 8 7 8 7 8 8 8 8 8 9 8 7 7 8 8 8 8 8 8 8 8 7 9 9 8 9 8 8 8 9 8 8 9 8 9 9 9 8 10 9 9 9 9 10 9 9 10 9 10 10 10 11 11 15 17 13 16 14 12 11 11 10 11 10 10 10 10 10 10 10 10 10 10 11 11 10 10 10 11 11 10 11 11 11 10 10 11 10 10 11 11 12 11 11 12 12 12 12 12 12 12 12 12 12 13 13 12 14 14 14 13 13 14 14 15 16 17 25 23 19 18 22 31 31 26 23 22 24 21 21 21 20 20 20 25 27 25 26 27 26 25 28 32 31 32 33 31 29 29 26 26 26 24 25 26 27 28 24 25 24 26 26 27 26 26 24 25 25 26 25 25 25 25 25 26 26 26 27 28 30 29 30 30 32 32 33 32 33 34 36 35 36 37 35 35 35 34 34 35 32 35 35 36 37 38 38 39 38 37 36 37 39 37 37 40 40 41 40 44 43 42 47 47 50 54 52 53 53 57 55 59 56 53 51 48 44 44 44 44 44 45 44 44 45 48 49 47 48 48 50 48 48 48 50 51 48 45 42 42 42 42 42 42 41 40 40 38 37 37 35 34 34 33 33 33 31 31 32 30 29 29 30 30 29 30 32 34 38 41 41 37 35 37 37 38 39 36 37 37 38 40 40 38 38 37 35 35 34 33 32 31 31 31 31 33 33 32 32 29 30 30 31 36 33 34 35 35 34 35 33 31 30 31 29 30 30 28 29 31 32 34 34 35 30 29 29 30 30 29 30 32 33 34 32 30 28 27 26 24 26 27 26 25 25 26 25 25 24 24 25 26 24 22 21 22 20 19 20 20 18 17 18 17 17 16 17 16 16 14 15 14 15 14 14 13 14 14 13 13 13 13 12 13 12 12 12 12 11 12 11 12 10 11 12 11 10 11 11 10 10 10 11 9 9 10 9 10 10 9 9 9 9 9 9 10 9 9 9 9 9 10 9 10 8 9 9 8 9 8 9 9 8 8 9 9 9 9 9 8 8 8 8 8 8 8 8 8 7 8 8 8 7 8 8 7 8 8 8 8 7 7 7 7 7 8 7 7 8 7 7 7 7 7 7 7 6 0 
6 6 6 6 6 6 7 6 7 6 6 6 6 6 6 6 7 6 6 6 6 6 6 6 6 7 6 6 7 7 6 6 7 6 6 7 7 7 6 6 6 7 6 6 6 6 6 7 6 7 6 6 7 7 7 7 7 7 7 6 7 7 7 7 7 7 7 7 7 7 7 7 7 7 7 8 7 7 8 7 8 7 8 7 7 7 7 7 7 7 7 8 8 7 8 8 8 7 8 8 7 8 8 8 8 8 8 8 8 8 9 8 7 8 8 8 8 8 8 8 8 8 7 8 7 8 8 8 9 8 9 9 9 8 9 9 9 8 9 9 9 9 9 10 9 9 9 9 9 9 9 9 9 10 9 11 11 11 11 11 11 11 11 11 10 10 10 10 10 11 9 10 10 10 10 10 11 10 10 10 10 10 11 11 11 11 11 11 11 11 11 11 11 11 12 12 11 12 12 12 12 12 11 12 13 12 13 12 13 12 13 14 13 14 13 14 14 15 16 17 21 19 18 19 23 31 33 31 25 21 22 20 22 20 19 19 20 21 23 24 27 26 26 28 28 33 34 33 32 28 27 27 24 25 25 25 24 26 26 25 26 24 23 25 27 26 26 27 26 25 27 26 25 24 25 25 25 25 27 27 26 26 27 31 29 32 32 34 35 35 35 36 36 35 36 36 35 36 36 35 33 34 35 36 35 36 36 38 38 39 39 40 40 39 39 39 40 42 40 43 44 42 46 47 49 50 52 55 55 54 56 55 54 55 54 48 45 44 44 43 43 42 44 45 45 45 45 46 51 49 46 48 49 49 49 47 46 48 52 47 44 42 41 42 41 44 40 39 39 39 36 35 35 33 33 34 35 32 31 32 30 30 31 30 29 30 30 29 31 35 39 39 37 38 37 36 37 42 39 36 37 37 39 42 40 38 36 35 35 34 35 34 35 32 31 31 32 31 32 35 33 30 31 31 30 31 32 34 36 34 34 37 34 32 31 29 30 30 28 29 28 29 28 30 30 36 32 31 28 29 28 26 28 28 33 33 33 29 30 27 27 25 25 26 26 25 25 25 26 25 24 22 24 25 24 23 23 20 21 21 20 20 19 20 19 17 17 16 16 15 16 15 15 16 14 15 14 14 14 15 14 13 13 12 13 12 12 12 12 12 12 12 11 11 10 11 11 11 11 11 10 10 11 10 11 9 10 10 10 10 10 10 9 9 9 10 9 9 9 9 9 9 9 8 9 9 9 8 9 9 8 9 8 8 9 8 8 9 9 9 9 9 8 8 8 8 8 8 8 7 8 8 8 8 8 7 8 7 7 7 7 8 8 7 8 7 7 7 7 7 7 8 7 8 7 7 7 8 7 0 
6 6 6 6 6 6 6 6 6 6 6 6 6 7 6 7 6 6 6 6 6 6 6 7 6 7 6 6 6 6 6 6 6 7 7 7 7 6 6 7 6 6 7 7 7 7 7 7 7 6 7 7 7 6 7 7 7 7 7 7 7 7 7 7 7 7 7 7 7 7 6 7 7 7 7 7 7 7 7 8 8 7 7 8 7 7 7 7 7 8 8 7 8 7 7 7 7 8 8 8 7 8 7 8 7 8 7 8 9 8 8 8 8 8 8 8 8 8 8 9 8 8 8 8 8 8 8 8 8 9 8 8 9 9 9 9 9 9 8 9 8 9 9 8 9 9 9 10 9 10 9 9 9 10 10 10 11 10 11 11 10 11 10 10 10 10 10 10 11 10 10 10 10 11 10 11 10 11 10 11 11 10 11 10 11 11 11 11 11 11 12 10 11 11 11 12 12 12 12 12 13 12 12 12 12 12 13 13 13 14 13 14 13 13 14 14 15 14 16 16 23 20 20 22 23 29 41 35 29 20 19 19 21 21 20 19 20 19 23 24 26 28 28 30 32 33 32 31 28 26 26 26 24 24 24 25 23 25 22 26 26 25 25 25 25 25 25 26 26 25 28 27 25 24 25 26 24 27 26 26 27 26 29 30 30 31 33 33 36 35 35 34 36 36 37 37 38 38 39 35 36 36 35 37 36 35 37 37 38 38 40 40 43 40 41 40 42 42 44 44 47 45 48 51 52 54 55 60 58 57 56 56 52 53 49 46 44 44 42 41 42 42 41 47 45 44 45 47 48 49 50 51 48 48 48 46 46 47 51 49 44 42 41 43 43 40 40 39 41 38 36 37 35 33 34 32 32 31 31 30 30 31 30 28 29 30 29 31 34 39 37 35 36 34 35 36 40 42 38 37 37 35 37 39 37 36 38 36 34 32 35 34 34 33 31 31 30 31 31 32 33 33 31 32 31 33 32 34 34 33 35 34 34 32 30 32 30 30 29 29 28 28 28 29 30 32 32 32 30 29 27 27 27 30 32 33 33 29 29 28 27 26 26 24 24 24 24 25 25 24 24 26 25 27 25 25 25 23 21 21 21 19 22 20 20 18 17 17 18 17 16 16 16 16 16 15 14 14 14 14 14 13 14 13 13 12 12 13 12 12 12 12 11 12 11 11 12 11 11 11 11 11 10 10 10 10 10 11 10 9 10 10 10 9 9 9 9 8 9 9 9 9 9 9 9 8 8 9 8 8 9 8 9 9 9 9 8 9 9 9 9 9 9 8 8 8 8 8 8 8 8 7 8 8 8 8 7 7 7 7 7 7 7 7 8 8 7 7 7 7 7 7 7 7 7 7 7 7 7 0 
6 6 6 6 6 6 7 6 6 7 6 6 7 6 6 6 6 6 7 7 6 6 6 6 6 7 6 7 6 6 6 6 6 7 6 6 7 7 7 7 7 6 7 7 7 6 6 7 7 7 7 7 7 7 6 7 7 7 7 7 7 7 7 7 7 7 7 7 8 7 7 7 7 7 8 7 7 7 7 8 7 8 7 7 7 7 7 8 8 6 7 8 7 7 7 8 7 7 7 8 7 8 7 8 8 8 8 8 8 8 8 7 9 7 9 8 8 9 8 8 9 8 8 8 8 9 8 9 9 8 9 8 9 8 9 8 9 9 8 9 9 9 10 9 9 9 9 10 9 10 10 9 10 10 9 10 10 10 10 11 11 10 10 11 10 10 10 10 10 11 10 10 11 10 11 10 11 11 11 11 10 11 10 11 11 12 11 11 11 11 11 11 11 11 12 12 11 12 12 12 12 12 12 12 12 12 13 13 14 13 13 14 13 14 14 14 14 15 16 17 18 22 23 25 25 28 35 31 25 20 17 18 18 18 19 20 21 20 21 23 24 29 31 34 32 32 30 27 27 26 28 25 25 23 24 25 24 24 25 24 26 25 25 25 25 25 25 25 24 26 27 27 26 25 25 26 27 25 26 25 26 28 29 29 30 31 32 34 38 39 39 39 39 39 36 38 36 35 40 37 36 35 35 38 36 36 37 40 39 39 40 41 41 43 43 45 44 46 47 47 50 52 50 54 58 59 58 62 62 60 61 53 53 51 46 43 43 41 42 43 42 42 44 45 44 44 44 47 49 48 52 50 49 49 48 49 48 47 49 49 46 43 43 42 41 41 40 40 42 38 36 36 36 35 34 32 32 32 32 31 30 30 29 29 28 29 29 33 36 38 37 34 34 35 36 37 39 39 37 37 36 36 39 37 36 38 36 35 34 33 33 33 34 32 32 31 31 31 30 32 34 35 34 33 32 30 33 32 31 33 34 35 36 31 30 31 31 30 28 29 28 28 27 28 29 30 31 30 31 29 28 28 28 30 30 29 35 30 29 29 27 26 24 24 24 24 24 25 23 24 24 24 25 26 26 26 26 25 24 22 22 22 21 21 20 19 19 17 16 17 16 16 16 16 16 16 14 14 15 15 13 14 13 14 13 13 13 12 13 11 11 12 12 12 12 12 10 11 11 10 10 11 10 10 10 10 10 11 10 9 10 10 10 9 9 9 9 10 10 9 8 9 9 9 9 9 8 9 9 8 9 8 9 10 10 9 8 9 9 9 8 9 9 8 8 8 8 9 8 7 8 8 8 8 8 8 7 8 8 8 8 8 8 7 7 8 8 7 7 7 7 7 7 7 7 7 7 7 7 0 
6 6 6 6 7 6 7 7 6 6 6 6 6 6 6 6 6 6 7 7 6 6 6 6 7 7 6 6 6 7 7 6 7 6 6 7 6 7 6 6 7 6 6 7 7 7 6 7 7 7 7 6 6 7 7 7 7 7 7 7 7 7 7 7 7 7 8 7 7 7 7 7 8 7 7 7 7 8 7 8 8 8 8 7 8 7 8 7 7 7 8 7 7 8 8 8 7 8 8 8 8 8 8 7 8 7 7 7 8 8 9 9 8 8 8 8 8 8 9 8 8 8 8 8 9 8 8 8 9 8 9 9 9 8 9 9 9 9 9 9 9 10 9 9 9 9 9 10 9 9 10 9 10 10 10 10 10 11 10 10 10 10 10 10 10 10 10 10 11 10 11 10 11 10 10 10 11 11 11 10 11 11 11 11 11 11 12 11 12 12 11 12 11 12 12 11 12 11 12 12 12 12 12 12 13 13 12 12 14 13 13 12 14 14 14 15 15 15 16 16 18 20 24 27 21 22 23 25 20 19 18 17 17 19 19 20 20 21 20 24 26 27 32 32 31 30 29 27 26 27 26 25 25 24 26 26 26 25 26 25 25 26 27 27 26 26 25 25 26 27 28 27 26 25 25 25 26 27 27 26 28 29 31 29 31 30 33 33 38 41 44 41 42 47 40 40 36 37 36 37 38 38 37 38 37 37 38 38 39 40 41 41 43 44 46 49 52 49 53 53 53 55 55 59 65 63 64 63 63 62 58 53 52 47 47 45 42 42 43 42 43 43 43 44 45 48 46 47 48 49 50 51 49 50 48 49 48 47 48 48 48 48 45 43 42 43 44 46 41 42 39 37 34 35 35 34 32 32 32 30 30 30 30 28 30 30 31 34 36 34 35 34 36 36 38 37 35 36 36 37 38 37 37 36 37 36 36 35 35 34 35 34 34 32 32 32 29 29 30 31 32 32 33 32 33 33 33 32 33 34 34 33 31 30 29 30 29 29 29 29 28 29 27 27 27 28 30 29 31 28 28 27 28 28 29 32 32 31 31 28 28 27 25 25 24 23 23 25 25 24 24 25 24 25 26 26 25 25 25 23 23 22 21 22 20 20 19 20 19 18 18 17 15 16 16 16 16 16 15 19 15 14 13 13 13 12 13 13 13 12 12 12 12 12 12 10 12 10 11 11 11 11 11 11 10 11 10 10 10 10 10 10 10 9 9 10 9 9 9 10 9 9 9 9 8 9 9 9 9 9 9 9 9 10 9 11 10 10 8 9 9 9 9 12 8 8 9 8 8 8 8 8 7 8 8 7 8 7 7 7 7 8 7 7 8 7 8 7 7 7 7 7 7 7 7 7 7 7 7 0 
6 6 6 6 7 5 6 6 6 6 6 6 6 6 6 6 6 6 6 7 6 6 6 7 6 6 6 7 7 6 6 6 7 6 7 6 7 6 6 7 6 7 6 7 7 7 7 7 7 7 6 6 8 7 7 6 7 7 7 7 7 7 7 7 7 7 7 7 7 7 7 7 7 7 7 7 7 7 7 7 8 7 7 7 8 7 7 8 8 8 7 8 7 7 8 7 8 8 7 8 8 7 8 8 8 8 8 8 8 8 8 8 8 8 8 8 8 8 9 9 8 8 9 8 9 8 8 9 8 9 8 9 9 9 9 9 9 8 9 9 10 9 9 9 9 9 9 9 9 9 10 10 9 10 10 10 10 10 10 10 10 10 10 10 10 10 10 10 11 11 11 10 11 11 10 11 10 11 11 11 11 11 11 10 11 11 11 11 11 11 12 11 12 12 12 12 11 12 12 13 12 12 13 12 12 12 13 13 13 13 13 13 14 14 13 14 15 15 15 16 19 21 26 27 21 20 21 20 18 17 17 17 16 17 18 19 19 20 21 22 24 28 30 32 31 29 29 26 26 27 26 27 26 26 26 27 27 26 27 28 27 27 28 28 26 25 25 23 25 26 28 27 26 25 26 26 27 26 28 30 29 30 30 31 32 32 33 35 36 39 45 49 46 49 41 39 39 37 38 37 38 37 39 37 38 39 38 39 41 42 42 44 44 50 49 54 55 55 57 57 59 58 62 61 68 65 70 71 64 61 57 54 52 49 47 48 47 45 46 47 45 46 46 47 47 50 46 47 48 53 51 50 48 51 51 50 51 53 50 49 48 46 50 50 48 48 46 48 43 41 39 38 35 34 33 33 32 32 29 31 29 30 29 29 30 32 33 34 35 34 35 35 34 37 38 39 37 38 37 38 39 38 39 39 39 36 35 34 35 34 34 33 34 33 31 30 30 29 30 30 30 31 32 32 32 31 40 34 34 34 35 33 32 29 29 29 29 30 28 27 28 27 28 26 27 27 28 30 28 27 26 27 29 28 29 33 31 32 30 29 28 28 26 23 24 25 23 23 24 24 23 25 25 25 26 25 26 25 25 24 22 23 23 22 23 22 21 19 19 19 18 17 17 17 17 16 17 16 16 16 14 14 14 14 14 13 14 14 14 13 13 12 12 12 12 12 11 11 11 11 11 11 10 10 10 10 10 10 10 10 10 10 10 9 9 9 9 9 9 9 10 9 9 9 9 9 9 9 9 9 9 10 10 10 10 10 9 9 10 9 9 9 10 10 11 8 9 8 8 8 8 8 7 7 8 8 8 7 8 7 7 7 7 7 8 8 7 7 7 7 7 7 7 7 7 7 7 6 7 0 
6 6 7 6 6 6 6 6 5 6 6 6 7 6 6 6 6 6 7 6 6 6 6 6 7 7 6 6 6 6 7 7 7 7 6 6 7 7 6 7 7 7 6 7 7 6 7 7 6 7 7 7 6 7 7 7 7 6 7 6 7 7 7 7 6 6 7 7 7 8 7 7 8 7 7 7 7 8 8 7 7 7 8 8 7 7 7 7 8 8 8 8 8 8 8 8 8 7 8 8 8 7 8 7 8 7 8 8 7 8 9 8 8 8 8 8 8 8 8 8 8 8 8 9 9 9 9 9 9 9 8 8 8 9 9 9 8 9 9 9 10 9 9 9 9 10 9 9 9 9 9 10 9 9 10 10 10 9 9 10 10 10 10 11 10 10 10 10 10 10 10 10 11 11 10 10 10 11 11 11 11 10 10 10 11 11 12 11 11 11 11 11 12 12 12 12 11 11 12 12 13 12 13 13 12 13 13 13 13 13 13 14 14 14 14 15 15 15 16 17 20 23 28 27 21 21 23 21 19 17 17 17 17 18 18 18 19 21 21 23 24 26 28 30 29 30 30 28 27 28 28 26 25 25 27 26 27 28 27 27 27 28 31 30 28 27 27 25 24 26 28 27 26 26 25 25 26 26 35 31 32 30 32 31 31 33 36 36 38 40 43 46 46 49 45 40 40 39 39 39 40 40 38 40 39 40 39 40 40 40 43 46 49 49 50 55 56 61 64 64 69 68 64 71 73 71 72 70 66 62 60 58 56 52 52 51 49 48 49 50 47 49 50 49 49 49 50 50 52 53 51 49 52 51 52 51 52 52 52 48 48 48 51 53 52 47 46 49 42 40 39 36 36 34 32 32 31 31 32 30 30 31 29 33 33 34 34 35 33 34 35 36 36 37 40 37 36 36 38 38 38 38 39 38 38 35 36 35 35 34 35 35 34 34 32 31 29 29 29 29 27 30 31 32 31 30 33 32 34 34 36 34 32 32 31 30 30 29 28 26 27 26 28 27 25 27 27 28 28 26 28 27 28 27 30 31 30 32 30 29 29 27 26 26 23 24 22 22 23 24 23 26 26 27 27 26 26 26 25 26 24 25 24 23 23 23 20 21 20 20 20 19 18 17 17 16 18 15 15 15 15 15 14 14 14 13 14 14 14 12 12 12 12 12 12 12 12 11 11 11 11 11 11 11 11 10 10 10 9 11 10 10 10 9 9 9 10 9 9 9 8 9 9 9 9 9 9 9 9 10 9 10 11 10 10 10 10 10 10 9 9 9 8 9 9 9 8 7 8 8 8 8 9 7 8 8 8 7 8 8 7 7 8 8 7 7 7 7 7 7 7 7 6 7 7 7 7 7 7 0 
6 6 6 7 6 6 6 6 6 7 7 6 6 6 6 6 6 6 6 6 6 6 6 6 6 6 7 6 6 7 7 6 6 6 7 6 7 6 7 7 6 6 7 7 6 7 7 6 6 6 7 7 7 7 7 7 7 6 7 7 7 7 7 7 7 7 7 7 7 8 7 7 7 7 8 7 7 7 8 7 8 7 7 7 7 7 7 8 7 8 7 7 7 8 8 8 8 8 8 7 8 7 8 8 8 8 8 8 8 8 9 8 8 8 8 8 9 8 9 8 8 8 9 8 8 9 9 8 8 10 9 9 9 9 8 8 9 8 9 9 9 10 9 9 9 9 10 9 9 9 10 9 10 9 10 10 9 10 11 10 10 10 10 11 10 10 10 11 10 10 10 11 11 10 10 10 10 11 10 11 10 11 11 11 11 10 11 11 12 11 11 10 12 11 12 12 12 12 13 13 12 12 13 12 13 13 13 13 13 13 14 14 14 14 14 13 15 16 16 19 22 21 27 24 24 25 24 20 19 18 16 16 17 17 18 20 22 21 23 23 24 27 27 28 31 30 30 31 30 29 28 28 27 27 28 27 29 28 28 28 29 29 30 34 31 29 28 26 27 26 29 28 26 25 27 26 26 27 28 31 36 31 32 32 32 34 37 36 40 42 42 48 46 45 44 42 41 40 41 43 41 41 42 42 41 40 42 38 43 44 44 46 50 49 51 54 55 65 72 74 72 71 73 76 74 70 67 68 68 67 64 64 60 61 60 53 55 54 52 54 55 53 55 56 53 52 55 58 56 55 51 52 53 55 54 55 54 55 54 52 53 50 53 53 49 46 47 45 41 39 39 40 38 36 32 32 32 31 32 31 29 34 33 35 35 34 33 34 32 34 37 39 41 40 37 37 38 38 42 40 39 41 39 41 39 35 36 37 36 36 36 35 37 34 34 32 31 30 30 30 30 30 33 33 32 33 32 32 34 35 35 35 33 31 29 29 29 30 28 25 27 25 27 25 27 26 26 27 28 27 27 28 28 28 28 31 34 32 30 30 29 29 27 26 24 23 22 22 22 24 23 24 27 26 27 27 27 28 26 25 25 26 24 23 25 22 23 23 21 20 21 20 19 18 18 18 17 17 16 16 16 16 15 13 15 14 14 14 14 14 12 13 12 12 12 13 12 12 11 11 11 10 11 12 12 10 10 11 9 10 10 10 10 10 10 9 10 9 10 9 9 9 10 9 8 9 9 9 9 9 8 9 10 9 10 9 9 8 9 9 9 10 9 9 9 9 8 8 8 8 7 8 8 8 8 8 7 7 7 7 8 7 8 7 7 8 8 8 7 6 7 7 7 7 7 7 8 7 8 0 
7 6 6 6 6 6 6 6 6 6 6 6 6 6 6 6 6 6 6 6 6 7 6 6 6 6 6 6 7 7 7 6 7 7 7 7 6 7 6 7 6 6 7 6 6 7 7 7 7 7 7 7 7 7 7 7 7 7 7 7 7 6 7 7 7 7 8 7 7 7 7 6 7 8 8 7 8 7 7 8 7 7 8 7 8 8 7 7 7 8 8 7 7 8 8 7 7 7 8 8 8 8 8 7 8 8 8 8 8 8 8 8 7 8 8 9 8 8 8 8 9 8 9 8 9 8 9 8 8 9 8 8 9 9 9 9 9 9 9 9 9 9 9 9 10 10 9 10 9 10 9 10 9 10 9 10 10 10 10 11 10 10 10 10 10 9 10 10 10 10 11 10 11 10 11 11 10 11 11 11 11 10 12 11 10 11 11 12 11 11 12 12 12 11 13 12 12 12 12 13 13 13 12 13 13 14 13 13 13 13 14 13 14 14 16 15 15 16 16 18 22 22 27 26 23 24 24 21 20 20 17 17 18 18 19 20 21 23 22 23 25 27 27 29 31 30 31 34 33 32 30 29 29 27 29 30 30 31 31 31 31 29 28 32 33 31 28 26 27 27 28 27 28 26 25 26 25 27 29 31 31 32 32 34 32 33 39 39 42 45 47 48 48 50 47 45 45 44 44 43 43 43 43 43 44 44 43 44 45 44 47 47 47 50 53 54 59 66 73 72 70 74 77 79 75 71 68 68 68 68 65 65 67 69 64 61 62 61 62 62 66 61 60 58 58 60 61 62 61 59 59 57 58 59 57 59 59 58 56 58 55 55 56 54 48 46 49 44 42 39 39 43 39 35 33 33 32 32 33 33 33 35 37 35 36 35 35 35 35 36 39 41 41 39 39 40 40 41 40 39 40 42 41 42 40 38 36 38 38 38 39 37 37 37 35 33 32 31 30 30 30 30 32 33 33 32 34 32 33 34 34 34 31 31 31 30 30 30 29 27 26 25 25 25 25 25 25 26 28 28 26 27 27 28 26 31 32 32 32 31 30 31 29 27 26 24 23 23 23 23 25 25 27 26 26 28 29 30 30 29 30 25 26 24 23 23 23 23 23 21 21 20 21 19 20 20 20 18 18 17 17 16 17 15 15 15 14 14 14 13 13 13 13 11 13 12 12 12 11 11 11 12 11 10 11 11 10 10 10 10 10 9 10 9 10 9 10 10 10 9 9 10 9 9 9 9 9 9 9 9 9 9 9 11 10 9 9 9 9 10 8 9 9 12 14 8 9 8 8 7 8 8 8 7 8 8 8 7 7 7 7 8 7 8 7 7 7 8 7 8 8 7 7 7 7 7 7 7 6 0 
6 6 6 5 6 6 6 6 6 7 6 6 6 6 6 6 6 6 6 7 7 6 6 7 7 7 7 6 6 6 7 6 6 7 7 6 7 7 7 7 6 6 7 7 7 7 6 7 7 7 7 7 6 7 7 7 7 7 7 7 7 7 7 7 7 7 7 7 7 7 7 7 6 7 7 7 7 7 7 8 7 7 8 8 8 7 8 7 8 8 8 7 8 8 8 8 8 8 7 8 8 8 8 8 8 8 8 8 8 8 8 8 8 8 8 9 8 8 8 8 8 8 8 9 8 9 9 8 9 8 9 9 9 9 9 8 9 9 9 9 9 9 9 9 9 9 9 9 9 10 10 9 10 10 10 9 10 10 10 10 11 10 10 10 9 10 10 11 10 10 10 10 10 10 10 10 11 11 10 11 11 10 11 11 11 10 11 11 12 11 11 11 11 12 12 12 12 11 13 13 13 12 13 13 13 13 12 12 14 13 14 13 14 14 14 15 15 16 17 19 20 23 28 26 25 23 23 22 20 18 18 18 19 18 20 20 21 22 22 24 26 26 26 30 30 29 29 32 36 37 32 31 30 28 30 30 31 32 32 30 31 29 29 30 32 32 29 27 28 28 29 27 26 26 26 27 27 27 28 29 30 31 32 34 33 37 37 39 43 46 49 45 47 51 50 48 46 47 46 45 45 48 45 45 45 45 46 45 47 48 48 50 51 52 52 54 60 66 73 74 69 71 77 78 77 75 72 68 69 66 65 70 68 64 68 69 66 68 67 76 81 74 71 66 65 65 73 72 70 67 65 65 66 66 62 63 62 61 61 57 56 57 56 50 47 44 43 42 39 38 39 40 39 34 33 32 33 32 32 33 34 31 33 33 34 34 36 37 38 41 42 43 42 39 41 43 46 42 42 45 44 49 44 44 41 39 37 39 39 43 42 41 41 38 37 34 33 32 30 31 31 31 32 33 32 33 32 35 34 35 34 35 32 30 31 31 31 28 27 27 26 25 25 26 24 25 24 26 27 27 26 27 27 28 29 29 30 31 33 31 33 32 34 29 27 26 23 24 24 25 32 29 26 26 28 29 30 30 30 34 37 32 26 26 25 25 25 24 23 23 23 23 21 21 20 21 20 20 19 18 18 17 17 16 16 15 14 14 14 13 13 14 13 12 13 12 12 12 11 12 11 11 10 11 10 10 10 11 11 11 10 10 10 10 9 10 10 9 9 9 9 9 9 9 9 8 9 9 9 9 9 9 9 10 10 8 9 8 9 11 9 8 8 10 10 8 8 8 8 8 8 8 7 8 8 7 7 8 8 8 8 8 7 8 8 7 8 8 7 7 7 7 7 7 7 7 8 7 7 0 
6 6 6 6 6 6 7 6 6 6 7 6 6 6 6 6 6 6 6 7 7 6 6 6 6 7 7 6 6 6 7 7 6 6 6 7 6 6 6 6 7 6 6 7 7 7 7 7 6 6 7 7 7 7 6 7 7 7 7 7 7 7 7 7 7 7 7 7 7 7 7 7 7 7 7 7 7 7 8 7 8 7 8 7 8 7 8 8 7 7 7 7 8 7 7 8 8 8 7 8 7 8 8 8 8 8 8 8 9 8 8 8 8 7 8 8 8 8 9 8 9 9 9 8 8 8 9 9 9 8 9 9 9 9 9 9 9 9 8 9 9 9 9 10 9 9 9 9 9 9 10 10 10 10 9 10 10 10 10 9 10 10 10 10 10 11 11 10 10 11 10 10 11 10 10 11 11 11 11 11 11 11 12 11 11 11 11 12 11 11 12 12 12 12 12 12 12 12 13 12 12 12 13 13 12 13 13 13 13 13 14 15 14 14 15 15 15 15 16 18 18 23 33 26 24 24 22 22 19 19 18 17 18 19 21 20 22 23 24 22 26 27 27 28 28 27 30 34 37 43 36 34 30 29 30 31 30 28 28 30 29 29 28 30 31 33 33 31 30 29 29 28 26 27 26 28 27 27 28 31 33 33 33 33 35 37 36 40 43 49 46 45 48 52 50 50 51 49 48 49 49 49 48 48 47 47 48 50 50 51 50 49 54 56 54 57 63 64 66 69 69 78 70 75 77 84 82 78 68 71 65 71 68 64 66 68 69 70 77 87 89 83 80 73 74 76 77 76 74 74 73 73 71 72 67 63 63 65 59 56 55 56 55 51 45 42 40 38 38 37 38 38 38 35 33 31 33 31 32 32 31 32 30 30 32 32 33 37 37 39 39 39 39 39 45 45 45 45 46 45 50 51 45 43 43 44 40 43 44 49 45 40 40 39 37 36 32 33 33 31 33 34 33 34 35 36 36 38 36 36 36 32 32 30 31 33 32 28 26 27 25 25 25 24 24 24 24 25 24 25 27 26 26 28 28 30 30 32 34 33 32 30 34 33 28 26 25 24 23 26 36 30 26 27 27 32 32 32 33 33 33 34 32 28 28 28 27 27 26 25 24 24 24 22 21 21 20 20 20 19 18 19 18 17 18 16 15 16 17 14 14 13 13 12 13 13 13 11 12 12 11 12 10 11 12 11 10 10 11 10 10 10 10 10 10 10 9 10 9 9 9 9 9 9 9 9 9 9 8 9 8 9 9 10 10 9 9 10 11 10 9 9 8 8 8 9 8 8 8 8 8 9 8 8 7 7 7 8 8 7 7 7 8 7 7 8 7 7 7 7 7 7 7 7 7 7 7 8 7 0 
6 6 7 6 6 6 6 6 6 6 6 6 6 6 6 6 7 6 7 7 6 6 7 6 7 6 6 6 6 6 6 7 6 6 7 7 7 7 7 7 6 7 7 6 7 7 7 7 7 6 6 7 7 7 7 7 7 7 7 7 7 6 7 8 7 7 7 7 7 7 7 7 7 8 7 7 8 8 6 7 7 7 8 8 7 7 8 8 7 8 8 7 8 7 7 8 8 7 8 8 8 8 8 8 7 8 8 8 8 8 8 8 8 8 8 8 9 8 8 9 8 9 8 8 9 9 8 10 8 9 9 9 9 9 9 9 9 9 9 9 9 8 9 9 9 10 10 9 9 10 10 10 10 10 10 11 9 10 10 9 10 10 10 10 10 11 10 11 10 10 11 11 11 10 11 11 11 11 11 11 11 11 11 11 11 11 12 11 11 11 11 11 12 13 12 12 13 12 12 13 13 12 13 12 12 14 13 13 14 14 14 14 14 13 14 15 16 16 18 16 17 21 30 27 27 25 22 21 19 20 19 18 18 20 20 22 24 22 24 26 28 29 28 28 28 30 30 35 34 36 40 38 34 30 30 28 28 27 27 29 29 30 29 28 29 32 34 31 31 31 29 28 27 29 27 27 28 30 29 33 33 32 34 34 35 36 39 42 46 44 44 48 49 53 53 54 51 51 49 50 52 50 51 50 50 50 50 50 51 52 53 54 55 56 56 58 61 64 63 66 65 67 71 70 75 93 89 83 75 69 68 69 65 62 65 63 70 73 80 83 73 80 78 81 78 79 79 76 71 73 73 71 64 66 62 62 61 62 61 58 55 54 52 50 45 41 39 38 38 38 38 38 35 34 33 32 31 30 32 33 32 30 32 31 32 33 34 35 33 35 35 36 37 39 40 39 38 43 44 45 46 44 46 45 45 47 40 46 43 44 45 43 40 39 39 37 35 34 33 36 35 36 38 39 45 46 42 39 37 39 37 36 32 31 31 32 31 30 27 26 26 25 24 23 24 24 24 24 24 24 25 26 26 27 28 30 30 31 32 32 30 31 33 32 29 27 26 25 25 26 36 33 26 27 30 30 30 29 33 33 31 33 36 36 34 33 30 29 28 27 26 26 23 21 21 21 20 21 21 21 21 20 19 19 17 18 17 16 15 15 15 14 14 13 13 11 13 11 12 11 11 11 11 11 11 11 11 10 11 10 10 10 9 10 10 10 9 10 9 9 9 9 9 9 9 9 9 10 9 9 9 9 9 9 9 9 10 10 10 9 9 9 8 8 8 8 8 8 8 9 9 8 7 8 8 8 8 8 8 8 7 7 8 8 7 7 8 8 7 8 7 7 7 7 7 7 7 7 7 0 
6 6 6 6 6 6 7 6 6 7 6 6 6 6 6 6 6 6 6 6 7 6 7 6 6 7 6 7 7 6 7 6 7 7 7 7 7 7 8 7 7 7 7 7 7 6 6 7 7 7 6 7 7 6 7 8 6 7 7 7 7 7 7 7 7 6 7 7 7 7 7 7 7 7 7 8 7 7 7 7 8 7 7 8 8 7 8 8 7 8 8 7 7 8 8 8 8 7 8 8 8 8 8 7 8 8 8 9 8 8 8 8 8 9 8 8 9 9 9 8 9 8 8 9 9 9 8 9 8 8 8 8 9 8 9 9 9 9 9 9 9 9 9 9 9 9 9 9 10 10 10 9 10 10 10 10 10 9 11 10 10 10 10 10 10 10 10 9 10 10 10 11 10 11 11 11 11 11 11 12 11 12 11 11 11 11 12 12 11 12 11 11 12 12 12 12 13 12 12 12 13 12 12 13 13 13 13 13 13 14 13 14 15 15 15 15 15 16 16 17 18 19 24 28 28 24 24 20 20 20 20 21 21 20 22 22 24 24 25 29 29 31 29 28 27 29 34 34 33 35 38 39 38 32 33 30 28 27 28 30 29 28 29 29 30 29 35 32 30 31 31 29 29 27 26 29 29 30 31 31 33 34 34 36 36 41 39 43 45 48 49 49 50 53 53 54 53 51 52 53 56 56 55 54 52 54 52 53 54 55 55 57 59 60 59 61 63 66 63 63 64 64 68 67 77 94 80 81 76 69 70 69 68 64 63 63 63 68 74 69 66 69 72 76 76 71 70 68 67 66 64 61 60 61 56 58 61 60 57 56 53 51 51 48 44 40 41 39 38 42 40 38 37 35 35 33 32 32 32 32 33 32 34 33 35 34 32 34 35 32 34 34 33 35 34 36 36 38 40 40 40 39 43 47 46 47 43 43 38 37 43 45 39 41 41 38 37 37 36 40 41 46 48 48 50 50 52 42 38 39 40 35 33 32 33 35 33 31 29 26 25 24 25 24 23 25 24 23 24 24 25 26 26 26 28 28 29 30 30 31 30 32 34 35 30 28 26 24 25 25 27 25 26 26 28 27 28 28 31 34 31 29 35 35 36 37 33 32 30 30 28 30 27 24 22 21 21 21 21 20 22 21 20 20 19 19 19 18 17 17 15 15 14 13 14 13 12 13 12 12 11 11 11 11 11 11 10 10 10 11 11 10 10 9 10 9 9 9 10 10 9 9 9 9 9 9 9 10 9 9 9 9 9 10 9 9 9 10 9 8 8 9 8 8 7 8 8 8 8 8 8 8 8 8 7 7 8 7 7 8 8 7 8 7 8 7 8 8 8 8 8 7 7 8 7 8 7 7 7 0 
6 7 6 6 6 6 6 6 6 6 6 6 6 6 7 6 7 7 7 6 7 7 6 6 6 7 7 6 8 7 6 6 6 7 7 7 6 7 6 6 7 7 7 7 7 7 7 6 6 7 6 7 7 7 8 7 7 7 7 7 8 7 7 7 7 7 7 7 7 8 7 8 7 8 7 7 7 7 7 7 7 8 8 8 7 8 7 7 8 7 8 7 7 8 8 7 8 8 8 8 8 8 8 8 8 8 8 8 8 8 8 8 8 8 8 8 8 8 8 9 9 8 8 8 8 8 9 9 8 9 9 9 9 9 10 9 9 9 9 9 10 9 9 9 9 9 10 9 9 10 10 10 10 9 10 10 10 10 9 10 10 11 10 10 10 10 11 11 11 11 11 11 11 11 11 11 11 10 11 11 11 11 11 11 12 12 12 11 12 12 12 12 13 12 12 12 13 13 12 12 12 13 13 12 13 13 14 14 14 14 14 15 14 15 15 15 15 16 16 17 18 17 21 24 24 24 25 24 24 22 21 21 22 21 23 24 25 26 30 33 30 28 28 27 29 30 34 36 37 34 34 36 37 35 33 29 29 28 26 27 26 30 29 31 31 31 32 35 32 33 30 28 27 27 27 27 29 31 30 33 35 35 34 36 38 39 41 43 47 53 51 50 50 52 56 54 55 57 58 55 56 56 60 55 55 56 57 53 55 57 58 59 61 63 64 61 64 64 63 64 63 60 65 67 79 75 66 69 72 72 68 65 67 64 65 66 67 65 69 65 64 63 66 67 64 63 62 61 64 63 61 60 59 59 59 58 57 53 51 49 49 48 45 44 40 39 39 39 39 39 42 39 35 34 36 34 32 34 35 35 33 34 33 34 33 33 33 32 34 33 33 34 35 35 35 33 35 37 37 37 37 38 40 43 44 46 43 44 38 36 41 46 42 40 41 42 39 38 37 39 46 52 53 49 51 48 53 45 39 40 40 36 33 33 34 34 34 30 28 26 24 25 23 25 23 24 25 24 24 24 25 25 26 26 27 28 28 29 29 29 30 31 32 35 31 30 27 26 26 26 26 26 26 27 28 25 26 27 30 30 28 28 29 28 31 33 36 34 35 33 31 31 32 27 24 22 20 21 19 20 19 22 22 21 21 18 19 20 18 19 16 16 16 15 14 14 13 12 12 12 11 11 12 11 10 10 11 11 11 11 10 10 10 10 10 9 10 9 10 9 9 8 9 9 9 9 9 9 9 9 9 9 9 9 9 9 9 9 9 9 9 8 8 8 8 8 8 8 8 8 8 8 8 8 8 7 7 7 8 8 8 8 8 7 8 7 8 7 7 7 8 7 7 7 7 7 7 7 7 0 
6 6 6 6 6 6 6 6 6 6 7 6 6 6 6 6 7 6 7 6 7 7 7 6 7 7 7 6 7 6 7 7 6 7 7 7 6 6 6 7 7 7 7 7 6 6 7 7 7 7 6 7 7 7 7 7 7 7 7 7 7 7 7 7 7 7 7 7 7 7 7 7 7 7 7 7 8 8 7 7 7 7 8 8 8 8 8 8 7 7 8 8 8 7 8 8 8 7 8 8 8 8 8 8 8 8 8 8 8 8 9 8 8 8 8 8 9 8 8 8 8 9 8 8 9 9 8 8 9 8 9 9 9 9 9 9 10 10 10 9 9 9 9 9 10 10 10 10 9 10 9 9 9 10 10 11 10 10 9 11 10 10 10 11 11 11 10 10 11 10 10 11 11 10 11 10 11 11 11 11 11 11 11 12 11 11 12 12 11 11 12 12 13 13 12 12 12 12 12 13 13 12 13 13 13 13 13 13 14 13 15 14 14 15 15 16 16 16 17 16 17 17 18 24 25 27 27 25 26 26 24 24 24 25 25 27 26 28 31 30 30 25 28 27 29 30 31 33 31 34 31 31 34 35 34 30 28 28 27 27 27 27 28 29 30 32 32 33 33 31 31 30 30 29 29 29 29 30 31 33 36 38 36 35 38 39 40 43 50 56 52 55 52 52 58 59 59 59 60 61 59 60 62 58 60 58 57 55 60 59 60 63 62 61 60 65 63 65 63 60 61 59 63 69 76 62 57 59 64 62 64 61 64 65 69 68 69 69 68 64 59 58 58 61 59 59 58 57 56 58 62 62 57 55 55 57 51 47 46 45 47 45 44 42 40 37 36 37 38 38 39 38 36 36 35 35 34 33 36 35 33 34 34 34 33 33 33 36 36 35 34 34 34 33 34 34 35 37 36 37 36 37 37 39 38 41 42 41 37 36 38 43 43 42 45 46 43 39 38 41 48 41 38 37 41 46 52 43 38 40 39 36 35 35 37 37 34 33 29 27 27 24 25 23 24 23 23 24 24 24 25 25 26 26 27 27 28 30 29 29 29 32 31 35 32 31 29 26 26 26 26 26 27 28 27 25 25 25 28 29 28 28 29 26 29 30 34 36 37 30 28 30 31 30 26 22 22 20 20 20 20 20 22 20 18 18 18 19 17 18 17 16 15 14 14 14 14 14 13 12 11 12 12 12 11 11 11 10 10 10 11 11 10 10 10 9 9 9 10 9 10 10 9 9 9 9 9 9 9 9 9 9 9 9 9 9 8 9 9 8 9 9 9 8 9 8 7 8 8 8 8 8 7 8 8 8 7 7 8 8 8 8 8 7 8 7 7 7 7 7 8 8 7 7 7 7 8 6 8 0 
6 6 6 7 6 6 6 6 6 6 6 7 6 6 6 6 6 7 6 7 6 6 7 6 6 7 7 6 6 6 6 7 7 7 6 6 7 7 8 7 7 7 7 7 7 6 7 7 7 7 7 7 7 7 7 7 7 7 7 7 7 7 7 7 6 7 7 7 7 7 7 7 8 8 7 7 7 8 8 8 8 7 8 7 8 7 8 8 7 8 8 8 7 8 8 8 8 8 8 8 8 8 8 8 8 8 8 8 9 8 9 8 8 9 8 8 8 8 9 9 8 8 8 8 9 8 8 9 9 10 9 9 9 9 9 9 8 9 9 9 9 9 9 10 10 9 10 10 9 10 10 10 10 10 10 10 10 10 10 10 10 10 10 11 11 10 10 10 10 11 11 11 11 11 11 11 11 11 10 11 11 11 12 11 12 12 12 12 11 11 12 12 12 13 13 12 12 13 13 13 13 12 12 12 13 13 13 13 14 14 14 15 14 14 14 14 15 16 16 16 17 18 18 20 23 24 27 27 26 26 27 25 25 27 26 29 28 30 30 31 29 28 28 26 28 29 28 30 32 33 35 31 32 32 34 29 29 29 27 29 27 27 27 29 30 31 30 31 31 32 30 31 33 30 28 29 29 30 31 34 41 37 35 38 39 40 43 47 49 49 52 60 57 60 63 63 62 64 63 66 65 63 68 66 63 63 62 61 61 62 62 63 64 64 61 63 62 61 58 61 59 62 61 70 65 55 51 55 58 56 60 59 61 62 64 61 62 62 60 55 55 53 52 52 54 54 56 58 53 56 62 57 52 53 52 50 46 44 42 44 44 42 39 39 39 37 36 36 35 36 39 38 36 36 35 36 35 35 34 32 30 32 31 35 35 37 37 33 36 38 35 35 34 35 36 35 36 35 34 36 34 36 36 36 38 38 36 37 35 35 37 39 43 46 42 46 45 41 39 43 43 32 30 31 34 43 46 42 40 37 35 38 36 34 35 41 37 32 29 27 27 25 24 24 25 24 23 24 24 24 26 25 25 27 27 27 28 29 28 30 30 30 29 31 33 33 31 29 27 27 26 27 27 27 26 25 24 26 26 27 26 27 27 28 30 33 32 32 33 28 27 28 29 30 25 23 21 21 21 22 20 22 21 20 20 18 17 18 17 17 16 16 15 15 15 16 15 13 13 12 12 14 11 12 11 11 10 11 11 10 10 10 9 10 10 10 9 10 10 10 10 9 9 9 9 9 9 9 9 9 9 9 10 8 9 9 9 8 8 9 8 8 9 8 8 8 8 8 7 8 8 8 8 8 8 8 8 8 8 8 8 8 7 8 7 7 8 7 7 8 7 8 7 7 7 7 7 7 7 0 
7 6 6 6 6 6 7 6 6 6 6 7 6 7 6 6 6 6 6 6 6 6 6 6 6 7 7 7 6 6 7 7 7 7 7 7 6 7 7 7 7 7 7 7 7 7 7 7 7 7 7 7 7 7 7 7 7 7 7 7 7 6 7 7 7 7 7 8 7 6 7 7 7 8 8 7 8 7 7 8 7 7 7 7 8 7 8 8 8 8 8 8 8 8 8 8 8 8 8 8 8 8 8 8 8 8 8 9 9 8 8 8 8 8 8 8 8 9 8 9 8 8 9 9 9 9 9 9 9 9 9 9 10 9 10 9 9 9 10 9 10 9 9 10 9 9 10 10 9 10 10 9 10 10 10 10 11 10 10 10 10 10 10 10 10 10 11 11 11 10 10 11 11 11 11 11 11 11 11 11 12 12 12 12 11 12 12 12 12 12 12 12 12 12 13 13 12 13 13 13 13 13 13 13 14 13 14 13 14 14 14 15 15 14 16 16 15 16 16 16 17 18 19 19 21 22 24 26 29 26 25 24 28 26 28 29 30 30 30 30 27 26 26 25 27 29 31 30 32 33 35 35 33 34 31 31 31 28 29 29 29 29 27 28 29 30 29 32 32 32 32 32 32 30 29 29 31 31 32 35 35 35 35 40 38 40 44 46 48 51 59 76 72 69 69 70 66 68 69 72 67 70 71 69 67 69 68 67 64 66 61 64 67 63 61 62 60 62 58 56 59 61 61 65 66 55 53 52 52 51 56 58 61 59 57 54 54 56 53 51 51 49 50 48 49 51 51 52 54 52 54 52 50 49 48 45 41 40 40 42 44 41 38 37 36 36 35 34 36 35 37 35 35 36 35 36 34 36 35 34 33 32 33 35 33 34 34 33 33 34 37 36 36 35 38 38 36 36 35 36 36 36 34 34 35 36 36 34 33 32 34 35 37 42 40 46 45 45 42 42 39 30 31 34 37 42 38 42 41 38 35 34 35 34 35 39 37 35 32 29 26 26 25 24 25 26 24 26 26 26 25 27 27 27 27 28 28 30 30 29 31 31 30 29 31 33 32 29 27 26 27 27 26 28 24 24 26 25 26 27 26 27 27 28 32 33 31 30 31 27 26 25 27 30 27 24 22 21 21 22 22 23 23 22 20 19 17 18 17 17 16 17 15 15 15 15 15 16 14 13 13 15 12 11 11 11 11 11 11 10 10 10 10 10 9 9 10 10 9 10 10 9 10 9 9 9 9 9 8 9 9 9 8 9 9 9 9 9 9 9 8 8 8 8 8 8 8 8 8 7 7 7 7 8 8 8 8 8 7 7 8 7 8 7 7 7 7 7 8 8 8 7 6 8 7 7 7 7 7 0 
6 6 6 6 6 6 6 6 6 6 6 6 6 6 6 6 6 6 6 6 6 6 7 6 7 7 6 6 7 6 6 7 7 7 6 7 7 6 7 7 7 7 7 7 7 7 7 7 7 7 7 7 7 7 7 6 7 6 7 7 7 7 8 7 7 7 7 8 7 7 8 8 8 7 7 7 7 7 7 7 7 7 8 7 8 8 7 7 8 8 8 8 8 9 8 8 8 8 8 7 8 8 8 7 8 7 8 8 8 8 8 7 9 9 8 9 9 8 8 9 8 9 8 9 9 9 8 9 9 9 9 9 8 10 10 9 9 9 9 9 10 10 9 10 9 9 9 9 9 10 10 10 10 10 10 10 10 11 10 10 10 10 11 11 10 11 10 11 10 11 10 11 10 12 11 12 12 11 11 11 11 13 11 11 12 11 12 12 13 12 14 13 12 13 12 12 12 13 13 12 13 14 13 13 14 13 14 14 14 14 14 15 14 15 15 15 16 16 16 16 17 18 18 19 19 22 24 24 24 27 27 26 27 27 30 31 31 34 31 30 28 27 26 27 27 30 30 33 35 38 42 40 43 41 40 34 30 30 31 30 30 30 29 29 28 30 31 30 31 33 32 33 33 31 30 30 31 31 32 35 34 36 38 39 39 42 48 48 49 53 70 82 82 73 73 77 75 75 73 73 70 74 73 71 70 66 65 65 64 67 66 68 67 63 63 62 58 61 59 57 58 59 59 62 63 58 53 52 51 51 55 54 54 49 48 49 50 50 50 48 47 46 48 46 48 49 48 49 50 49 51 50 48 45 43 41 40 38 41 41 41 40 36 35 38 38 35 35 34 34 34 35 34 35 38 36 35 35 37 36 35 33 33 31 31 32 32 33 34 35 34 35 35 36 36 37 38 37 36 35 35 34 35 36 36 34 35 32 31 32 33 34 33 36 38 41 41 44 44 41 35 32 32 36 40 38 41 43 39 39 35 35 33 36 36 39 37 36 31 30 26 26 27 25 26 26 25 25 25 26 26 28 28 28 28 28 29 30 30 30 31 30 29 30 29 32 32 33 29 27 28 27 28 26 25 24 23 26 26 27 25 27 25 28 28 29 29 31 27 27 27 26 27 28 25 24 22 22 23 20 20 24 22 22 21 20 19 19 18 18 17 17 15 15 15 16 16 15 14 14 13 12 12 11 12 11 11 11 11 11 10 11 10 10 9 10 10 11 9 10 9 9 9 10 8 9 9 9 9 9 9 10 9 9 9 8 9 9 8 8 8 9 8 8 9 8 8 8 8 8 8 9 8 8 8 9 7 7 7 8 7 8 7 7 8 8 7 7 7 8 7 7 7 7 7 7 7 8 7 0 
6 6 7 7 6 6 6 6 6 6 6 7 6 6 6 6 6 6 7 6 6 7 6 6 7 6 6 6 6 7 7 7 6 7 6 6 7 6 7 7 6 7 7 7 7 7 7 7 8 7 7 7 7 7 7 7 7 6 7 7 7 7 7 8 7 7 7 7 8 7 7 7 7 7 7 7 7 8 7 8 8 7 7 8 8 8 8 8 8 8 8 8 8 8 8 8 8 8 8 8 8 8 7 8 8 9 9 8 8 9 8 8 9 8 9 8 9 9 8 9 9 9 9 9 9 9 9 8 9 9 8 8 9 10 9 9 9 9 9 9 10 9 10 10 10 10 10 10 10 10 10 10 9 9 9 10 10 10 10 10 10 11 10 10 11 11 10 10 11 10 11 11 11 11 11 11 10 12 11 10 12 12 12 11 12 12 12 13 13 13 13 12 13 13 13 12 13 13 13 13 13 13 13 13 13 13 13 15 14 14 14 15 15 15 15 16 16 17 16 16 18 18 18 19 19 20 20 22 22 26 26 27 28 28 31 35 32 33 32 28 27 26 25 26 28 28 33 34 37 37 40 39 40 40 41 34 29 30 32 32 30 30 30 28 28 30 32 30 30 29 31 33 32 31 31 30 30 32 33 34 35 35 36 38 41 44 49 50 51 54 81 83 72 65 70 80 81 77 74 73 75 75 71 72 66 64 68 65 64 66 64 64 64 63 60 61 64 62 63 59 61 60 61 62 62 62 55 56 50 50 50 47 49 47 44 47 46 43 45 45 43 43 46 44 44 47 47 46 49 47 49 50 47 47 42 42 40 39 40 41 40 38 34 35 36 35 35 37 34 32 31 34 35 35 36 37 38 35 36 35 34 35 34 32 33 33 34 33 35 32 33 34 34 34 34 36 36 36 36 36 36 36 34 37 40 36 34 31 31 33 31 34 35 35 37 35 36 37 40 37 36 31 33 34 35 36 37 37 36 37 37 34 35 35 36 37 38 37 32 31 28 27 26 26 26 26 26 27 26 27 29 28 29 29 30 31 31 31 31 30 32 32 30 28 28 30 30 31 30 30 28 27 27 25 26 26 24 25 29 25 26 28 27 30 32 32 29 28 28 28 28 29 26 27 26 24 22 22 23 23 24 23 21 20 22 22 19 19 19 18 18 16 15 14 15 15 17 15 14 13 12 12 13 12 12 11 11 11 11 11 11 9 10 10 10 9 10 10 10 10 9 10 10 9 9 10 9 8 9 9 9 8 9 9 9 9 9 9 9 8 8 8 8 8 9 8 7 8 9 8 8 8 7 8 8 7 8 8 8 7 8 7 8 8 7 8 8 8 7 7 7 8 7 7 7 7 7 7 7 0 
6 6 7 6 6 6 6 6 6 7 7 7 6 7 6 6 6 7 6 6 6 6 6 6 7 7 6 7 7 7 6 6 6 6 7 6 7 7 7 7 6 7 7 7 7 6 7 7 7 7 7 7 7 7 7 7 7 7 7 7 7 7 7 7 6 7 7 7 7 7 7 8 7 7 7 7 7 8 7 7 8 8 7 7 8 8 8 8 8 8 8 8 8 7 8 8 8 8 8 8 8 8 8 8 8 9 8 8 8 8 8 8 9 9 8 8 8 8 9 8 8 9 8 8 9 9 9 10 9 10 9 9 9 9 9 9 10 9 9 10 9 9 9 9 10 10 10 9 10 10 10 11 10 11 10 10 9 9 10 10 10 11 10 11 11 11 10 11 11 11 11 11 11 11 11 11 11 12 12 10 11 12 12 12 11 12 12 12 14 13 13 12 13 12 12 12 12 13 12 12 13 13 13 13 14 13 14 14 14 14 14 14 15 14 15 15 15 16 16 16 17 18 18 19 19 21 22 23 23 23 23 25 26 29 31 32 31 33 30 27 24 24 24 25 25 27 28 28 31 32 35 34 35 35 36 34 28 29 29 29 29 30 31 32 31 29 30 31 31 29 31 32 33 31 30 31 31 33 34 34 35 36 36 37 41 44 46 49 52 58 80 84 75 68 69 77 80 75 73 67 72 70 65 72 65 65 67 66 65 66 63 64 62 61 61 62 67 69 66 63 63 70 68 68 64 63 57 51 51 50 48 49 47 45 45 45 44 40 41 43 41 42 42 43 43 44 42 42 45 45 45 49 45 45 41 40 38 39 40 38 35 35 33 34 35 34 38 36 31 31 31 32 33 33 36 37 36 35 34 36 36 37 34 34 34 34 33 33 34 34 35 35 34 34 32 34 34 35 34 37 38 37 36 37 41 38 33 32 31 32 31 32 32 33 33 33 35 33 35 33 32 30 30 31 33 34 39 36 36 37 38 34 35 35 38 39 42 38 34 32 28 27 27 28 26 27 28 28 29 31 31 33 32 33 34 35 33 31 32 31 33 33 30 29 29 29 30 31 30 30 28 28 27 27 26 26 25 26 25 25 27 27 28 31 33 33 29 27 27 28 30 28 25 24 25 23 20 22 22 23 21 23 21 21 22 22 20 19 17 18 17 16 16 16 14 14 15 13 14 14 14 13 13 13 12 12 11 11 12 12 10 11 10 10 10 10 9 10 9 9 9 9 10 9 9 9 9 9 10 8 8 9 8 9 8 9 8 9 8 9 9 8 8 8 8 8 9 8 8 7 9 8 7 8 7 8 7 8 7 8 8 8 8 8 8 7 7 8 7 7 8 7 8 7 7 7 7 7 7 0 
6 6 6 6 6 7 7 6 6 7 6 6 6 7 6 6 6 6 6 6 6 6 6 7 7 6 7 6 6 7 6 7 6 7 7 7 6 7 7 7 7 6 7 7 6 7 7 7 7 7 7 7 7 7 8 7 7 7 7 7 7 7 7 7 7 7 7 7 7 7 7 7 8 8 8 7 8 7 7 8 8 7 8 7 8 7 7 8 7 8 8 8 8 8 8 8 8 8 8 8 8 8 8 8 8 8 8 8 8 8 9 8 9 8 8 9 9 9 8 8 9 9 9 8 8 8 8 9 9 9 9 10 9 9 10 10 9 10 9 10 9 9 9 9 10 9 10 10 10 9 10 10 10 11 10 10 10 10 10 11 11 10 11 10 11 11 11 11 11 11 11 10 11 11 11 11 11 11 11 11 11 12 11 11 12 13 12 12 13 12 13 14 12 12 13 13 13 13 13 12 12 14 13 13 13 14 14 15 14 14 14 15 14 14 16 16 16 17 16 17 17 17 19 19 21 21 21 22 24 23 24 25 28 29 32 33 33 28 29 25 24 25 25 23 23 25 25 27 28 29 31 30 32 32 31 35 31 29 29 29 29 31 30 32 32 31 33 32 32 31 31 34 33 31 32 32 33 33 33 35 35 36 37 40 41 44 45 50 53 59 76 87 86 77 68 69 71 71 65 64 60 62 66 68 70 70 67 67 66 67 66 65 60 61 63 64 72 70 72 68 67 71 70 70 68 60 54 54 52 49 48 46 46 45 44 42 40 39 39 39 39 39 41 40 40 42 41 41 41 42 44 43 41 39 37 38 38 37 34 35 34 33 33 35 35 38 38 33 31 31 33 33 34 33 34 41 38 37 35 34 37 35 33 32 33 33 33 33 34 34 34 35 34 38 33 33 35 32 33 36 37 37 36 34 35 36 35 31 31 31 32 32 36 33 33 32 31 33 31 32 31 30 30 31 35 37 38 39 40 39 38 36 35 37 39 42 43 42 37 34 28 29 28 28 28 28 29 30 31 33 36 35 38 40 39 38 36 34 33 33 31 32 32 32 30 29 29 29 30 31 30 28 28 27 27 25 25 25 24 24 26 25 26 27 28 27 26 25 25 25 28 27 24 24 24 25 22 21 21 21 20 21 20 20 20 21 20 19 19 18 17 16 15 15 15 15 14 14 14 14 13 12 14 12 12 12 11 11 11 11 10 11 11 10 11 10 10 10 10 10 9 10 9 9 9 9 9 9 9 10 9 8 9 9 9 9 9 9 9 8 9 8 8 8 8 8 8 8 9 8 8 8 7 8 7 7 7 7 7 8 8 8 8 8 7 8 7 7 7 7 8 8 7 7 8 7 7 7 7 0 
6 6 7 6 7 6 7 6 6 7 6 6 6 6 6 6 6 6 6 6 6 6 6 6 7 7 6 7 6 7 6 6 6 6 6 6 7 6 6 7 7 7 7 7 7 7 6 7 7 7 7 7 7 7 7 7 7 7 7 6 7 7 7 7 7 7 8 8 7 7 7 8 7 7 8 8 7 8 8 7 8 7 7 8 8 7 7 8 8 8 7 7 8 8 8 8 8 8 8 8 8 8 8 8 8 8 8 8 8 9 8 9 8 8 9 8 9 9 8 8 9 9 8 8 8 9 9 9 9 9 9 9 8 10 9 9 10 10 10 9 10 9 10 9 10 9 10 10 10 10 10 10 10 10 10 10 11 11 11 11 10 11 10 11 12 13 10 11 11 11 11 11 12 12 11 11 11 12 12 11 12 12 12 12 12 12 13 13 12 13 13 12 13 13 12 13 13 13 12 13 14 13 14 13 14 15 14 14 14 15 14 16 15 14 15 15 15 16 17 17 18 18 19 21 22 23 24 24 23 24 25 26 27 31 33 31 30 30 28 26 23 24 23 23 24 23 25 26 27 28 29 28 30 28 30 33 29 29 29 28 30 28 29 29 33 34 31 31 31 31 33 33 33 31 30 32 33 33 34 36 36 36 39 40 41 45 47 50 54 59 76 88 95 79 66 67 69 64 60 60 63 58 58 61 64 68 68 64 64 63 64 63 65 60 62 64 75 64 66 69 67 65 66 61 58 56 51 52 50 46 45 44 43 44 40 40 38 38 37 37 38 38 39 38 40 40 40 39 42 43 44 41 38 40 38 36 36 36 34 33 33 34 34 35 37 37 37 34 32 31 34 34 34 34 34 37 36 38 38 36 36 36 36 34 35 33 31 32 33 33 32 33 34 34 35 34 35 33 32 33 34 34 34 32 33 36 36 34 32 33 33 36 38 36 31 31 32 31 31 30 29 30 29 30 33 36 40 40 42 42 42 37 38 38 40 44 41 42 41 35 31 31 29 29 29 31 32 33 36 37 36 38 44 57 53 46 42 37 36 35 35 34 34 32 32 31 29 29 30 29 30 28 26 27 26 27 25 25 25 25 26 26 25 25 26 25 23 24 24 25 28 26 24 23 23 23 22 22 20 22 20 19 19 20 21 20 19 19 18 18 17 16 17 16 15 15 15 15 14 13 14 13 13 12 13 14 13 12 11 11 10 11 10 10 10 10 10 10 10 10 9 9 9 9 8 10 9 9 8 8 9 9 9 9 9 8 8 8 9 8 8 8 8 8 8 8 8 8 8 8 7 8 8 8 8 7 7 8 8 8 7 7 8 7 7 8 7 7 8 7 7 7 7 7 7 7 7 7 7 0 
6 6 6 6 6 7 6 7 6 7 6 6 7 6 6 6 7 7 6 7 7 7 6 7 7 6 6 7 7 7 6 6 6 6 6 7 7 7 7 6 7 7 7 7 7 6 7 7 7 7 7 7 6 7 7 7 7 7 7 7 7 7 7 7 7 7 7 7 7 7 7 7 8 7 7 8 8 8 7 7 8 7 8 8 7 7 8 8 8 8 8 7 7 8 8 8 8 8 8 8 8 9 8 8 8 8 8 9 8 9 8 8 8 9 9 8 9 9 10 9 9 9 9 9 10 10 9 9 9 9 9 9 8 9 9 9 10 9 9 9 10 9 10 9 11 10 9 11 10 10 10 10 10 10 10 10 10 10 11 11 10 11 10 11 11 11 11 11 10 11 12 12 11 11 11 11 12 10 11 12 12 11 12 12 12 12 12 12 12 12 12 12 12 13 12 13 14 14 14 14 13 14 14 14 14 14 15 15 14 15 14 15 15 16 15 15 15 17 17 18 18 19 20 22 22 24 23 22 23 23 24 27 28 31 32 31 31 29 26 25 23 23 23 23 23 24 23 25 27 27 26 29 27 29 28 28 29 29 29 28 28 28 30 30 31 32 31 30 30 30 31 31 32 30 31 33 32 34 35 35 37 38 38 40 44 45 47 51 56 61 74 96 92 80 70 70 72 70 61 62 65 56 56 58 59 64 67 64 61 61 62 61 61 62 62 66 74 62 61 63 63 60 56 53 53 53 49 48 43 44 42 41 40 40 39 37 37 36 36 36 37 36 38 36 38 40 38 38 41 40 40 38 37 38 37 37 35 34 33 34 34 32 34 38 36 37 36 34 33 33 34 35 34 34 34 35 34 38 39 37 37 36 36 34 33 33 33 34 33 33 33 32 33 33 33 32 33 32 33 35 33 33 33 31 33 34 36 37 33 32 34 34 35 35 34 32 30 29 29 28 28 29 29 30 32 34 37 41 44 46 45 40 42 41 47 44 46 48 43 37 32 31 31 31 30 31 36 36 38 38 39 43 51 64 63 57 52 49 43 39 37 36 38 38 35 32 31 30 30 33 29 27 26 26 25 26 25 24 25 25 26 24 23 23 24 23 23 24 26 24 27 26 24 22 23 21 21 20 21 20 19 19 19 20 20 20 19 18 18 16 16 17 17 17 16 16 14 15 14 14 14 13 12 12 12 13 12 12 11 10 10 11 10 10 11 10 11 10 10 10 10 10 9 10 9 10 9 8 9 9 8 9 8 9 9 9 9 8 8 9 9 8 8 8 8 9 8 8 8 8 8 8 7 8 9 8 8 8 8 8 8 8 8 8 8 8 8 7 7 7 7 7 7 7 7 7 8 7 7 0 
6 6 6 7 6 6 6 6 6 6 6 7 6 6 6 6 6 7 6 7 6 7 6 6 7 7 7 7 6 6 6 6 7 7 6 6 6 6 6 6 7 7 7 7 8 7 7 7 7 7 7 7 7 7 7 7 7 7 8 7 8 7 7 7 8 7 7 7 7 7 8 7 7 7 8 8 8 8 7 7 8 7 7 8 7 8 8 7 8 8 8 8 8 8 9 8 8 8 8 8 8 9 9 8 8 8 9 8 9 8 8 8 8 9 8 8 8 8 8 9 9 9 9 9 8 9 9 9 10 9 9 9 9 9 9 10 9 9 9 9 9 10 10 10 10 10 9 10 11 10 10 10 10 9 10 10 11 10 11 11 12 10 11 11 11 12 11 10 11 11 11 11 11 11 12 11 12 11 11 12 11 12 12 12 11 11 12 13 12 11 12 13 12 13 13 13 12 13 13 13 14 13 14 13 14 15 14 14 15 15 14 14 16 16 16 15 16 17 17 17 19 20 21 22 21 23 24 25 24 24 25 26 29 33 34 29 29 28 26 25 24 23 22 23 23 23 25 25 26 27 27 26 26 29 30 28 28 29 29 29 28 30 30 30 29 32 29 29 30 30 32 32 31 31 32 33 33 34 36 36 37 38 41 41 42 46 48 50 53 63 83 92 77 75 69 67 72 77 65 68 66 57 58 60 60 59 67 62 58 62 61 61 64 67 66 68 71 63 62 59 57 55 53 51 49 49 48 44 43 41 41 39 38 38 37 36 36 35 35 35 35 36 37 35 36 37 38 37 39 37 38 36 35 34 35 36 35 34 32 32 32 33 34 35 37 36 36 35 33 33 33 33 34 36 34 34 35 36 37 38 36 36 34 36 34 34 32 33 33 32 32 32 31 33 33 31 32 33 33 35 32 34 34 31 32 33 34 35 33 35 33 32 33 34 33 31 30 28 28 28 30 29 31 31 31 33 35 38 40 42 45 42 43 41 48 49 45 49 43 37 34 31 31 31 31 35 37 38 40 42 43 48 58 55 53 65 66 66 63 51 46 45 48 56 51 41 38 31 31 37 28 25 26 26 25 26 26 25 24 23 23 23 22 23 23 24 21 22 23 25 25 24 23 22 22 22 19 20 19 19 19 19 18 20 21 20 18 18 17 16 17 17 16 16 15 15 14 14 14 14 14 13 13 12 12 12 11 12 12 11 10 11 10 10 10 10 10 10 10 9 10 10 10 9 10 10 8 9 9 9 9 9 9 8 8 9 9 8 9 9 8 9 8 8 8 8 8 9 8 8 8 8 7 8 8 8 8 7 7 8 7 7 8 8 7 8 7 7 7 8 7 8 8 7 8 7 7 7 7 0 
6 6 6 6 6 6 7 6 7 7 6 7 6 7 6 7 7 6 7 7 6 7 6 6 7 7 7 7 7 6 7 7 6 6 6 6 7 6 7 7 7 7 7 6 7 7 7 7 7 7 7 7 7 7 7 7 7 7 7 7 7 7 7 7 7 8 7 8 7 7 7 8 8 8 8 7 7 8 7 8 7 7 8 8 7 8 8 8 8 8 8 8 8 8 8 8 7 8 8 8 8 8 8 9 9 8 9 9 8 8 9 8 8 8 9 8 9 8 9 9 9 9 9 9 9 8 8 9 9 9 9 9 10 9 10 10 10 10 9 9 9 10 10 10 10 10 10 10 10 10 10 10 10 10 10 11 11 10 10 11 10 10 10 11 10 12 11 11 11 11 11 11 12 12 11 11 11 11 11 12 13 12 12 11 13 13 13 12 13 13 12 13 13 13 13 14 12 14 14 13 13 14 13 15 13 14 14 14 15 15 15 15 15 15 16 16 17 17 17 19 19 20 21 20 21 22 23 24 24 24 25 26 30 31 33 30 28 28 27 25 25 23 22 24 23 24 24 25 26 26 28 26 27 27 30 29 28 29 29 30 30 32 29 29 32 30 28 30 30 31 30 30 31 32 32 34 34 36 36 37 39 39 40 42 45 48 48 51 58 69 95 81 68 73 68 60 69 78 67 68 62 58 57 58 57 57 64 62 60 61 60 65 66 68 67 65 64 58 54 57 58 56 55 51 49 47 47 45 43 41 40 39 38 39 37 36 34 34 35 35 35 34 35 36 36 36 36 36 38 37 37 36 35 34 34 35 35 34 32 33 33 32 34 37 38 38 38 33 35 35 35 35 35 35 36 38 39 36 36 35 35 36 34 37 35 34 32 33 32 32 31 32 33 32 32 31 32 35 31 32 33 34 33 32 32 33 33 31 33 32 31 28 31 33 31 29 31 28 28 27 27 27 29 29 31 31 32 35 35 38 41 43 44 42 49 49 45 45 45 39 35 34 32 35 34 34 40 39 44 47 48 51 53 46 39 50 60 68 72 69 61 55 60 67 64 56 47 35 31 28 28 26 24 25 25 24 26 26 23 24 26 23 24 23 22 20 22 22 22 23 25 24 22 21 20 21 20 19 18 18 18 18 19 18 19 19 18 18 17 16 15 16 16 16 16 15 15 13 14 14 15 12 13 12 11 13 11 12 12 11 10 11 10 10 10 10 10 10 10 9 10 10 10 9 9 9 9 9 9 9 9 9 8 9 8 8 8 8 9 8 8 9 9 9 8 8 9 9 8 8 8 8 7 8 7 8 8 8 8 7 8 8 8 8 8 8 7 7 8 7 7 8 7 7 7 7 7 7 7 0 
6 6 6 6 6 6 6 7 6 6 6 6 6 6 6 6 7 6 6 7 6 7 7 7 7 6 7 7 6 6 7 7 7 6 7 6 7 7 7 6 7 7 7 7 7 7 7 7 6 6 7 8 7 7 6 7 8 7 8 7 7 7 7 8 7 8 8 7 7 7 7 8 7 7 8 8 8 8 8 7 7 8 8 8 8 8 7 8 8 8 8 8 8 8 8 8 8 8 8 8 8 8 8 8 8 8 8 8 8 9 8 9 8 9 8 8 8 9 9 9 8 9 8 8 9 9 9 10 9 9 9 9 9 9 10 8 10 9 9 10 10 9 10 10 10 10 10 10 10 10 10 10 11 11 11 11 10 10 11 11 10 10 11 11 11 11 12 11 11 11 11 11 11 12 11 12 12 12 12 11 13 12 12 12 12 12 12 12 12 12 12 13 12 13 13 13 13 13 14 14 14 14 14 14 14 14 15 14 15 15 15 15 16 15 16 16 18 18 19 20 21 21 20 20 20 20 21 22 23 23 24 28 30 30 30 31 30 28 28 26 26 25 25 25 24 24 25 25 25 27 26 27 26 28 31 29 29 28 30 32 31 30 30 29 29 29 28 28 30 29 31 31 31 32 32 34 34 35 38 38 38 40 41 43 45 48 50 54 59 70 99 75 64 63 61 55 61 71 70 65 59 57 55 60 56 56 63 62 61 61 62 66 64 63 62 61 58 57 55 53 55 55 51 51 50 48 45 43 43 40 40 38 39 38 36 36 35 36 36 35 35 37 36 35 35 34 35 34 34 37 36 34 33 32 32 34 37 34 34 33 34 33 34 35 36 37 39 37 35 34 34 34 34 34 36 39 39 38 36 34 34 35 34 35 35 35 34 32 32 32 31 31 31 31 32 33 31 32 31 31 33 34 33 33 32 32 31 30 31 30 31 29 30 32 32 31 31 29 28 28 27 28 28 30 30 31 33 34 35 36 38 39 38 37 43 48 43 42 43 41 36 35 34 34 34 34 37 37 48 48 48 48 42 34 31 35 42 57 67 68 67 65 59 53 66 57 56 39 29 28 27 25 25 25 25 24 25 25 23 22 23 24 22 20 22 20 21 21 21 21 29 25 24 21 22 20 20 19 19 17 17 18 19 18 19 21 19 17 17 16 16 16 16 16 16 15 14 15 15 13 13 13 13 12 12 12 11 11 12 11 11 11 10 10 10 10 10 10 10 10 9 9 9 9 9 10 9 9 9 9 9 9 9 9 9 8 9 9 8 8 9 8 9 9 8 8 8 8 8 7 8 8 8 8 8 8 8 8 8 8 8 8 7 8 8 8 8 8 7 7 8 7 8 7 7 7 7 7 7 0 
6 6 6 6 6 6 6 6 5 6 6 6 6 6 6 7 6 7 7 6 6 7 7 6 6 7 6 7 7 6 6 6 6 7 7 7 7 7 7 7 7 6 7 7 6 7 7 7 6 7 7 7 7 7 6 7 7 7 8 7 8 7 7 7 7 7 7 7 7 8 8 7 8 7 7 7 7 7 7 7 8 7 8 7 8 8 8 8 8 8 7 7 8 8 8 8 9 8 8 8 8 8 8 8 8 8 8 8 8 8 8 8 9 8 9 9 8 9 8 9 9 9 9 8 9 9 9 9 9 9 9 9 10 9 9 9 9 10 10 10 9 10 10 10 10 9 11 10 10 10 11 10 10 11 11 10 11 10 11 10 10 11 11 11 11 11 11 11 11 11 11 12 11 12 11 12 13 12 12 12 12 11 12 12 12 12 12 12 13 14 13 13 13 13 13 13 13 14 13 14 13 14 14 14 14 14 15 15 15 15 15 15 15 16 15 18 17 18 19 19 22 20 19 20 20 19 20 22 22 22 26 27 30 30 31 30 30 27 27 25 27 26 25 27 27 26 26 26 26 27 28 27 27 28 29 29 29 29 28 30 30 30 31 29 29 29 29 28 28 29 31 31 32 33 34 34 35 36 38 38 39 41 42 44 46 48 51 56 68 84 84 66 59 56 54 54 54 61 63 60 59 58 58 61 56 56 61 61 65 68 62 64 63 61 57 58 56 54 54 52 53 52 51 49 48 46 46 44 41 40 40 40 39 38 36 37 36 34 38 35 35 36 35 36 37 35 36 35 33 36 34 33 33 34 34 34 33 35 35 34 33 33 35 33 34 36 36 35 33 34 32 33 33 34 34 38 37 35 35 34 34 35 34 35 34 34 35 34 33 31 32 31 30 31 31 31 33 31 32 32 31 31 33 32 31 32 33 31 31 29 28 30 31 32 34 32 31 30 27 26 28 28 28 29 30 31 32 34 37 34 34 34 36 37 41 44 43 42 48 45 40 35 33 33 33 34 37 37 47 40 42 35 32 29 28 30 35 40 48 53 56 57 53 50 53 48 54 38 32 28 27 28 26 24 24 25 23 23 22 23 23 24 23 21 22 21 21 22 23 22 26 25 24 21 21 21 19 19 18 18 18 18 18 18 19 19 18 17 18 17 17 17 17 17 16 15 14 14 14 14 13 13 13 12 13 12 12 12 11 11 11 11 11 10 11 10 10 11 10 10 10 10 10 9 9 9 9 9 9 9 9 9 9 8 8 8 9 8 8 8 9 8 8 9 8 8 8 8 8 8 9 8 8 8 8 8 7 8 8 8 7 7 8 7 8 7 7 7 7 7 7 7 8 7 7 7 7 7 7 0 
6 6 6 7 6 6 6 7 7 7 6 6 6 6 7 6 7 7 7 7 6 6 7 6 6 7 7 7 7 7 7 7 7 7 6 7 7 7 6 6 7 7 7 7 7 7 6 7 7 7 8 7 7 7 6 7 6 7 7 7 7 7 7 7 8 7 7 7 7 7 8 8 7 8 7 8 7 7 8 8 8 7 8 8 8 8 7 8 8 8 8 8 9 9 8 8 8 8 8 8 8 9 9 9 9 9 9 8 9 8 8 8 8 8 9 8 9 8 9 8 9 9 9 9 9 10 9 9 9 9 9 9 9 9 10 10 10 10 9 10 9 10 9 10 11 10 10 10 10 11 10 11 10 10 11 11 11 11 10 10 11 12 11 11 11 11 10 11 11 11 12 11 12 12 11 12 12 12 12 12 12 13 12 12 12 13 13 12 13 13 13 13 13 13 13 13 13 14 13 13 13 13 14 14 14 14 15 14 14 16 16 15 15 15 17 16 18 21 19 21 22 20 19 21 22 20 21 21 21 23 24 26 27 30 29 29 30 28 27 27 27 26 27 27 26 28 28 27 27 27 27 27 29 28 28 29 29 29 30 33 30 29 31 30 29 30 29 29 28 31 29 30 32 34 34 35 36 38 37 38 38 41 41 45 45 51 53 61 75 93 76 68 57 54 53 52 54 57 63 61 60 64 61 57 57 55 62 62 65 65 63 59 58 60 59 56 54 56 56 52 52 51 51 50 47 47 46 45 43 42 41 41 39 37 37 36 36 36 36 34 36 36 35 37 37 35 35 35 34 36 34 34 34 35 34 35 34 36 33 33 34 35 35 34 35 35 33 34 34 32 33 34 33 33 35 37 38 36 34 34 35 35 33 34 35 34 35 33 32 32 31 31 32 30 32 31 31 32 32 32 32 31 32 33 31 31 29 32 29 30 30 29 31 33 33 36 35 33 30 28 27 28 31 30 32 33 35 39 36 34 33 33 34 35 38 39 45 45 47 48 42 36 34 36 35 36 37 37 42 36 35 31 29 27 25 27 30 31 36 40 39 45 50 44 39 49 51 43 34 32 28 26 26 25 23 24 25 25 24 24 22 23 21 21 21 21 22 21 23 24 23 25 22 20 21 20 19 19 19 19 19 18 18 17 18 18 17 17 17 17 16 17 17 16 16 14 13 14 14 14 13 13 13 12 13 11 12 11 12 11 11 11 11 10 11 10 10 10 10 10 9 9 10 9 9 9 9 9 10 9 9 9 8 9 9 9 9 9 9 8 8 8 8 9 8 8 8 8 9 8 8 8 7 8 8 8 7 8 7 8 8 8 8 7 8 8 8 8 7 7 8 7 7 8 7 7 7 7 7 0 
6 6 6 6 6 6 7 7 6 6 6 6 6 6 6 7 7 6 7 7 7 7 6 6 6 6 6 7 6 7 7 7 7 7 6 6 7 6 7 7 7 7 7 7 7 7 7 7 7 7 7 7 7 7 7 7 7 8 7 7 6 8 7 7 7 7 8 7 8 8 7 8 7 7 7 8 7 7 8 8 8 7 8 8 8 8 7 8 8 8 8 8 8 8 7 8 8 8 8 8 8 8 8 9 8 8 8 8 9 9 9 9 8 9 9 8 9 9 9 8 9 10 9 9 9 9 9 9 9 9 10 9 9 9 10 10 10 9 9 9 10 10 10 10 9 10 10 10 10 10 10 11 11 10 10 11 10 11 11 10 11 11 11 11 12 12 11 12 11 11 11 11 12 10 13 11 12 13 11 12 12 12 12 12 13 12 12 12 13 13 13 13 14 13 13 13 13 13 13 14 14 14 15 14 15 15 14 16 15 15 16 16 16 17 16 17 19 18 19 21 22 21 20 21 21 21 20 22 23 24 25 26 27 31 29 29 29 29 27 25 28 28 26 28 25 26 27 26 27 26 27 26 29 29 27 28 27 29 30 28 30 30 29 28 29 28 29 29 29 29 30 32 34 34 33 36 37 38 38 39 39 43 44 47 47 50 53 63 74 82 75 69 58 55 56 52 54 53 58 62 60 66 65 59 57 57 61 62 65 64 61 57 59 59 57 58 56 51 53 49 50 49 47 48 46 47 46 45 45 46 45 45 41 39 38 38 36 36 35 38 36 37 36 37 37 36 35 36 34 35 36 33 34 34 35 34 36 36 36 33 35 34 36 36 35 34 34 34 33 33 32 32 33 32 34 38 37 34 32 35 36 35 35 35 35 35 37 33 32 32 32 31 31 30 30 30 30 31 32 31 31 32 33 32 31 31 31 32 32 30 28 29 31 31 34 32 34 34 30 28 30 28 31 31 31 34 35 37 33 32 31 30 33 34 34 36 41 42 45 49 46 39 35 34 36 35 36 38 35 30 29 29 26 27 25 26 28 28 33 35 37 42 49 45 39 46 48 41 35 32 29 28 27 25 24 23 25 24 24 23 23 22 21 21 22 23 24 23 23 23 24 24 22 21 21 19 19 18 19 19 18 19 20 18 17 17 18 17 17 16 16 16 16 16 16 15 16 14 15 14 13 13 13 12 13 12 12 12 12 11 11 10 11 10 10 10 10 10 10 10 10 9 9 9 9 10 9 9 9 10 10 9 9 9 9 9 9 9 9 9 9 8 8 9 8 8 8 9 8 8 8 8 8 8 7 8 8 8 8 7 7 7 8 7 7 8 7 8 8 7 8 7 7 7 7 7 7 7 7 0 
6 7 6 6 6 6 6 6 7 6 6 6 6 6 7 6 6 7 6 7 6 6 6 6 6 7 6 6 7 7 6 7 7 7 7 7 6 7 6 7 7 7 8 7 7 8 8 7 7 7 7 6 6 7 8 7 7 7 7 8 7 7 7 7 7 7 7 7 7 7 7 7 8 8 8 7 7 8 8 8 8 8 7 8 8 9 8 8 8 8 8 8 8 7 8 8 8 8 8 8 8 8 8 9 9 9 7 9 8 9 10 9 9 9 9 9 8 9 8 9 9 10 9 9 9 9 9 9 10 9 10 9 10 10 9 10 10 10 10 9 10 10 10 10 10 10 10 11 10 10 10 11 11 10 11 10 10 11 11 11 12 11 11 12 12 11 11 11 11 12 12 11 12 12 12 12 12 12 13 12 12 12 12 12 13 12 12 13 13 12 13 13 14 13 13 13 13 14 14 14 14 14 15 15 15 15 15 15 15 15 16 16 16 16 18 18 19 18 18 20 22 22 22 22 21 22 22 22 24 24 26 27 34 29 30 29 27 28 29 28 28 27 26 26 26 26 26 26 26 25 26 26 28 28 29 29 29 28 28 30 28 29 29 27 28 29 29 29 29 30 29 31 34 34 36 40 38 40 38 39 44 46 47 47 49 53 56 61 64 68 70 69 60 56 54 52 52 56 55 60 60 62 60 57 56 59 65 62 60 62 60 63 60 58 56 57 54 53 54 49 51 48 46 46 47 47 47 46 49 52 49 46 44 44 40 39 40 40 41 37 37 36 37 36 37 36 36 36 35 36 36 36 35 35 36 35 36 35 34 34 35 34 35 33 34 34 34 33 32 33 33 34 34 35 33 37 38 35 34 34 36 35 35 35 35 35 34 35 32 31 31 31 30 30 32 29 31 29 29 31 30 31 32 32 32 30 30 31 30 30 29 29 30 30 30 30 33 33 31 29 29 29 28 29 27 29 31 34 32 32 33 30 31 32 33 33 36 37 44 47 47 43 39 35 37 35 39 37 30 27 28 27 25 27 27 29 30 32 32 37 44 46 48 45 41 41 40 37 36 30 30 28 28 25 24 24 24 25 25 22 22 22 22 23 23 22 24 24 23 23 23 25 22 22 21 20 18 18 19 19 18 19 17 18 18 18 18 17 16 15 16 16 15 14 15 14 14 14 14 13 14 12 13 13 12 12 12 12 11 12 10 11 10 11 10 10 10 10 10 10 10 10 10 9 9 9 9 9 9 9 9 10 8 9 8 8 9 9 9 8 7 9 8 8 8 8 8 9 8 8 8 8 8 8 8 8 7 8 8 8 9 8 7 8 8 8 8 8 7 7 7 8 8 8 7 7 7 7 8 0 
6 6 6 6 6 6 7 6 6 6 6 7 7 6 7 7 6 7 7 7 7 7 7 6 6 6 7 6 6 7 6 7 6 7 6 7 7 7 6 7 6 6 6 6 6 7 7 6 7 7 7 8 7 7 7 7 7 7 7 7 7 7 7 8 7 8 8 7 8 7 7 8 7 8 8 8 7 8 7 7 8 8 8 7 8 8 8 9 8 8 8 8 8 8 9 8 8 7 8 8 9 8 8 8 9 8 9 8 8 9 9 9 9 9 9 8 8 9 8 8 9 9 9 10 9 9 9 9 10 10 9 10 10 10 10 10 10 10 10 10 10 10 10 10 10 9 10 10 10 10 11 10 10 11 11 10 11 11 12 11 11 11 11 11 11 11 12 12 12 12 12 12 12 12 11 12 13 12 12 12 12 13 12 13 13 13 13 13 12 13 13 13 12 13 13 14 14 13 13 14 15 13 15 15 15 15 15 15 16 16 15 16 16 16 17 18 21 20 19 20 21 22 23 21 21 21 21 22 24 27 28 31 36 32 29 27 28 28 29 28 27 26 25 25 25 25 25 25 26 26 26 29 28 28 28 29 27 27 28 29 29 28 29 28 28 29 30 28 30 31 31 32 34 36 38 38 38 40 42 42 44 46 45 46 52 53 55 56 58 60 60 69 60 52 52 53 54 58 58 58 58 64 59 57 57 60 62 58 58 58 58 62 62 58 57 56 55 52 52 51 50 47 46 46 45 47 47 47 53 53 54 50 48 46 46 42 42 43 43 41 39 39 38 38 37 36 38 38 35 37 37 36 35 34 36 36 37 34 35 35 34 34 34 34 33 33 33 33 32 34 33 32 36 35 37 38 38 35 34 35 36 35 34 35 34 33 35 34 33 32 31 31 30 28 31 30 30 30 31 30 31 30 29 30 32 29 28 29 28 28 29 30 27 29 28 30 31 32 34 31 28 29 27 27 27 29 31 34 31 31 29 29 31 32 32 30 34 36 39 42 46 44 40 35 37 37 37 35 29 28 27 26 26 28 33 33 36 38 40 44 48 45 46 45 44 39 37 34 31 30 31 30 30 27 26 23 23 24 25 24 23 23 23 22 23 23 23 22 23 23 23 23 23 21 22 21 19 19 18 18 19 20 19 19 17 18 16 16 16 15 16 15 15 16 15 14 14 14 14 13 13 13 12 13 13 13 11 11 12 12 11 11 11 10 10 10 10 11 10 10 10 9 10 10 10 10 9 9 9 9 9 9 9 9 9 9 8 8 9 9 9 9 8 8 8 8 8 9 8 8 8 8 8 8 8 8 8 8 8 8 8 8 8 8 8 8 8 8 7 8 7 8 7 8 7 7 8 7 7 0 
6 6 6 6 6 6 6 7 6 7 6 6 6 7 7 7 7 7 7 6 7 7 7 7 6 7 6 7 6 7 7 7 7 6 7 7 7 7 7 6 7 7 7 6 6 7 7 7 6 7 7 7 7 7 7 7 7 7 7 7 8 7 7 7 7 7 8 7 7 7 7 7 7 7 7 8 7 8 7 8 7 8 7 7 8 8 8 8 8 8 8 8 9 8 8 8 7 9 9 8 8 8 8 8 8 9 8 8 8 8 9 9 9 9 9 9 9 9 9 9 9 9 9 9 9 9 9 9 9 10 10 9 9 9 10 10 10 10 10 10 10 10 10 10 10 10 10 11 10 11 11 10 11 11 11 11 10 11 10 11 11 12 11 11 12 11 11 12 12 11 12 11 12 13 11 12 12 12 13 12 11 13 13 13 12 13 13 13 13 13 14 14 13 14 13 13 13 14 14 14 14 14 14 15 15 15 15 15 15 16 16 17 16 16 16 17 21 18 19 20 20 20 23 22 22 21 22 22 24 25 28 34 36 30 28 27 28 29 28 26 25 27 27 25 25 24 24 25 26 27 27 27 28 28 29 28 26 27 27 27 27 29 30 29 29 28 29 29 31 32 32 32 35 35 39 39 39 41 43 44 44 45 44 47 49 49 52 51 53 57 58 63 58 53 52 52 50 56 59 54 56 61 60 58 56 56 54 53 53 54 54 58 60 58 56 56 54 52 55 50 48 47 45 45 46 47 46 51 54 50 52 51 48 47 46 44 45 47 46 45 41 40 40 39 39 37 37 38 37 35 37 35 35 34 36 38 36 35 35 36 32 32 33 32 33 33 32 33 32 32 32 34 35 37 38 37 37 36 35 35 36 34 34 33 33 34 35 33 32 32 30 31 29 29 29 29 30 30 30 31 29 31 30 31 30 29 29 28 28 28 28 28 27 28 27 28 29 30 31 32 29 28 25 27 28 28 30 32 31 30 29 30 31 29 30 29 30 31 35 37 39 44 41 38 36 36 37 32 31 28 24 26 27 30 31 36 40 45 51 48 42 39 41 42 45 38 35 32 31 30 29 30 30 28 26 24 25 25 25 24 23 23 24 23 22 21 23 22 24 23 22 24 21 20 21 21 20 20 18 18 19 18 18 19 18 17 17 16 16 15 15 14 15 15 14 14 14 13 12 14 13 14 13 12 13 12 12 11 11 11 10 11 11 11 10 10 11 10 10 10 9 10 10 9 9 9 10 10 9 10 9 10 9 10 9 9 9 8 9 8 8 8 8 9 8 8 9 8 7 8 7 8 9 8 8 8 8 8 7 8 8 8 8 8 7 7 8 8 7 7 8 8 8 8 7 7 8 7 7 0 
6 6 6 6 6 6 6 6 6 6 6 7 7 6 6 6 6 6 6 6 7 6 6 6 7 6 6 7 7 6 7 7 6 7 7 7 7 7 7 7 7 7 6 7 7 7 7 8 7 7 8 7 7 7 8 7 7 7 7 7 7 7 7 8 8 7 7 7 7 7 8 8 8 8 8 7 7 7 7 8 7 8 8 7 8 8 8 8 8 8 8 8 7 8 8 8 9 8 8 8 8 8 8 8 8 9 8 8 8 8 9 9 8 9 9 9 9 9 9 9 10 9 9 9 9 9 10 10 9 9 9 10 10 9 9 10 10 9 10 10 10 11 10 10 10 10 11 10 10 11 11 10 10 10 10 10 10 12 11 11 11 10 11 11 12 11 12 12 12 11 12 12 12 11 11 12 12 12 12 12 12 12 13 12 13 13 12 12 13 13 13 13 13 13 13 13 14 13 14 14 15 14 15 15 15 15 15 16 15 16 16 16 16 17 17 17 17 19 19 22 20 21 21 21 21 21 22 23 25 26 27 31 34 32 29 28 29 28 28 26 27 26 26 24 25 26 25 26 27 26 27 29 30 28 30 28 27 27 27 28 29 29 28 28 28 30 30 30 29 31 32 36 36 37 42 41 42 43 43 44 42 47 46 46 49 47 48 49 52 57 55 57 55 54 52 51 51 53 58 54 56 64 62 57 56 53 51 52 52 53 54 56 59 55 55 55 53 51 53 50 47 47 48 46 45 46 48 53 50 45 47 51 49 47 48 48 48 49 49 46 47 43 42 43 42 40 40 38 38 36 37 37 38 35 35 36 34 33 34 34 31 33 32 33 33 31 33 33 33 32 33 34 35 37 38 38 35 36 33 35 35 35 34 34 34 35 35 34 32 31 31 29 29 29 29 29 30 30 30 30 30 32 31 30 30 29 27 27 28 27 28 28 27 27 28 28 30 28 28 30 29 27 27 26 27 29 29 30 32 30 28 28 28 29 29 29 29 29 32 34 35 38 41 39 35 33 34 31 31 29 27 25 29 30 32 37 41 50 51 45 38 37 39 35 42 35 34 31 31 30 30 30 29 28 26 26 27 26 25 25 25 23 22 21 21 21 23 25 23 24 22 22 21 20 21 20 19 19 18 17 19 19 19 18 18 17 17 17 17 16 16 15 16 16 13 14 14 14 14 14 14 13 13 12 12 13 12 11 11 11 11 11 11 11 11 10 10 9 10 10 9 10 10 10 10 9 10 9 9 9 9 9 9 9 9 8 8 8 9 8 8 9 8 9 8 8 7 8 8 8 8 8 8 8 8 8 8 8 7 8 8 8 8 7 8 8 7 8 8 7 8 7 8 7 7 7 7 8 7 0 
6 6 6 6 6 7 6 6 6 6 6 6 6 6 6 6 7 7 6 6 6 7 6 5 7 7 7 6 6 7 6 7 7 7 7 6 7 7 7 7 7 7 7 7 7 7 7 7 7 7 7 7 6 7 8 7 7 7 7 7 7 7 7 8 7 8 7 8 8 8 7 7 8 8 7 8 8 8 8 7 8 8 8 8 8 8 8 8 8 8 7 8 8 8 8 7 8 8 8 9 8 9 8 9 9 8 9 8 8 9 9 8 9 9 9 9 9 8 9 10 9 10 9 9 9 10 8 9 9 10 9 9 10 9 10 10 10 10 9 10 10 10 9 10 9 10 10 11 11 11 11 11 10 10 11 12 11 11 11 11 10 12 11 11 11 11 12 12 12 12 11 11 13 12 11 12 12 12 12 13 13 12 13 13 12 12 13 13 14 14 13 13 14 13 14 14 13 14 14 15 14 14 15 15 14 16 16 16 15 17 16 16 17 17 18 17 18 18 18 22 23 20 22 22 21 21 23 24 25 28 26 29 31 31 31 30 27 27 27 27 26 26 26 27 24 26 28 26 28 28 29 30 31 29 29 29 29 28 29 29 29 28 28 29 28 29 31 30 32 31 33 34 36 41 41 42 44 44 44 44 43 45 46 46 48 46 46 48 51 52 51 53 53 53 54 53 53 56 57 57 62 66 56 54 53 52 55 53 50 53 55 54 56 56 53 52 51 52 48 49 49 47 46 45 42 46 48 53 45 43 43 48 48 46 48 49 50 51 48 47 47 46 44 45 42 42 42 40 39 37 37 38 37 37 36 35 32 33 31 32 31 33 32 34 31 31 31 32 32 32 34 34 35 37 38 37 36 36 34 37 37 34 34 35 35 33 34 32 32 32 31 30 29 30 30 30 29 28 29 29 30 30 33 31 28 28 27 28 26 29 26 28 27 27 28 29 29 28 27 27 27 26 26 27 28 27 28 30 32 30 29 27 27 27 27 27 28 29 28 30 32 33 36 38 37 33 35 29 29 27 25 26 28 30 32 34 37 40 42 43 37 36 33 33 36 38 33 31 34 32 31 29 29 29 26 24 24 25 24 25 24 23 23 22 22 22 22 22 23 23 21 22 21 20 18 21 20 20 20 19 19 19 19 17 18 16 17 16 17 17 16 15 15 15 14 14 15 15 13 13 14 13 13 12 12 12 11 12 11 11 11 11 11 11 10 11 10 11 9 11 9 10 10 10 10 9 9 10 9 9 9 9 9 9 9 9 9 8 9 9 9 9 9 8 8 9 8 8 8 8 8 8 8 8 8 8 8 8 8 8 7 8 8 7 7 8 8 8 7 7 7 7 8 7 8 8 7 7 7 0 
7 6 6 6 6 7 6 6 7 6 7 6 6 6 6 6 6 7 7 6 6 6 7 7 6 6 6 7 6 6 7 7 7 7 7 7 7 7 6 7 7 7 7 7 6 7 7 7 7 7 7 7 7 8 7 7 7 8 7 7 7 7 7 7 8 7 8 8 8 7 7 8 8 7 7 7 8 8 8 8 8 8 8 8 8 8 8 8 8 8 8 8 8 8 8 8 9 8 8 9 8 8 8 9 8 8 8 9 9 9 9 9 9 9 9 9 9 8 9 8 9 10 9 9 9 9 9 10 10 10 10 9 9 9 10 10 10 10 11 9 10 11 10 10 11 10 10 11 11 11 11 10 11 10 11 11 10 11 11 11 11 11 11 11 11 12 12 12 11 12 12 11 11 12 13 13 13 13 12 13 13 13 13 13 13 13 13 13 14 13 13 14 14 13 14 13 14 14 15 14 14 14 15 14 15 15 15 15 15 16 16 16 16 16 17 17 18 19 20 20 23 22 22 21 22 22 24 23 24 26 27 29 30 30 31 30 27 27 27 28 28 27 27 26 27 28 28 29 28 30 31 33 32 29 30 29 30 28 28 29 29 29 30 29 29 31 31 31 32 32 35 35 38 41 40 42 43 44 45 44 45 45 45 45 44 43 46 47 48 50 53 53 52 52 52 57 58 58 58 61 65 63 55 54 51 48 51 54 49 52 52 51 52 54 55 52 52 50 49 49 49 47 51 47 45 46 50 51 47 43 42 44 44 46 48 49 47 47 46 45 49 45 42 43 41 44 40 41 39 39 38 36 37 37 37 34 33 31 30 31 30 31 33 32 31 31 33 31 34 33 33 35 35 34 36 34 36 34 36 35 37 35 37 35 35 34 34 34 34 31 30 29 31 29 30 29 31 30 30 31 29 30 31 30 28 28 26 27 28 28 29 28 27 25 28 28 28 28 28 27 26 26 26 26 27 28 29 29 29 28 29 28 27 26 27 27 28 28 30 27 28 28 31 31 33 33 34 28 28 24 26 25 27 28 29 31 32 35 35 37 33 32 28 29 39 38 32 32 33 34 31 30 29 29 27 25 24 24 25 23 25 24 24 24 23 22 22 22 23 24 23 21 21 21 19 21 21 19 20 19 19 18 19 18 17 19 18 18 16 17 16 17 16 15 14 14 14 14 14 13 13 12 13 12 12 12 12 12 11 11 11 11 11 11 11 10 9 10 9 10 10 9 10 10 10 10 9 10 9 8 8 9 9 9 9 9 9 9 8 8 9 8 9 8 8 8 8 8 8 8 8 8 8 8 8 8 8 7 8 8 8 8 8 7 8 8 7 8 8 7 8 8 7 7 7 7 7 7 7 0 
6 6 6 6 5 6 6 6 6 7 7 6 7 7 6 6 6 6 6 7 7 6 7 7 6 6 7 6 7 6 7 7 7 6 6 7 7 6 7 7 7 7 7 6 8 7 7 7 7 7 8 7 7 7 7 7 7 7 7 7 8 7 7 7 7 7 8 8 7 8 7 7 7 8 7 8 8 8 7 8 8 7 7 8 8 8 8 8 8 8 7 8 8 8 8 8 8 8 7 8 8 8 8 8 8 9 9 9 9 9 9 9 9 8 8 10 9 9 9 9 9 10 9 9 10 10 9 9 9 10 9 10 10 10 10 10 10 10 11 11 11 10 10 9 11 11 11 11 11 10 11 11 11 11 11 11 11 11 11 11 12 11 11 11 12 12 11 12 12 12 12 11 12 11 13 12 12 13 12 12 12 13 13 13 13 13 13 14 14 13 13 13 13 14 14 13 14 15 14 14 15 14 15 15 15 15 15 15 16 16 16 16 17 17 17 18 18 19 20 20 22 21 21 21 23 22 22 23 26 27 28 29 30 31 33 32 31 29 28 28 28 27 28 27 28 29 29 30 29 33 34 33 31 29 30 30 29 30 30 29 30 30 30 30 30 30 32 32 33 34 36 36 38 42 43 42 42 41 44 43 46 46 45 42 42 42 43 45 46 49 51 53 53 55 54 54 59 60 61 61 65 58 49 47 45 43 48 52 50 51 51 49 50 52 53 53 52 50 50 50 48 50 52 49 49 51 50 50 46 44 42 44 42 44 45 43 43 42 42 42 42 43 41 39 39 39 39 37 38 38 35 36 35 34 36 34 32 31 31 30 31 30 31 32 31 31 32 32 33 35 37 35 33 35 35 35 34 35 35 35 35 34 35 33 33 34 34 34 34 32 32 29 30 29 30 31 30 32 31 30 30 30 29 29 28 28 28 28 27 26 27 26 26 26 25 28 30 29 28 27 25 26 26 27 28 28 28 29 30 29 29 27 25 26 25 25 24 26 27 28 27 27 28 29 29 31 32 29 26 26 24 23 26 26 26 27 28 29 30 31 30 29 27 30 39 42 34 32 34 32 31 29 28 27 26 25 25 24 24 23 25 25 24 23 24 23 23 23 21 22 23 22 20 21 20 20 20 19 20 19 18 18 18 17 18 16 17 18 16 16 17 16 14 15 15 15 15 15 14 13 13 13 13 13 13 12 12 10 12 13 11 12 10 10 11 9 10 10 10 10 10 10 10 9 10 10 9 10 9 9 9 9 9 8 9 9 9 9 9 9 8 8 9 9 9 9 8 8 9 8 8 8 8 8 8 8 7 8 8 8 8 8 8 8 9 7 8 7 8 7 7 8 8 7 7 7 8 8 7 0 
6 6 7 6 7 7 6 7 6 6 6 6 7 7 6 7 6 6 6 6 6 6 7 6 7 6 6 7 7 7 7 7 7 7 7 6 7 7 7 7 7 7 7 7 6 7 7 7 7 7 7 7 7 7 6 7 7 7 7 7 7 7 7 7 7 8 7 7 7 7 8 8 8 7 7 7 8 8 8 8 8 8 8 8 7 8 8 8 8 8 8 8 8 8 9 8 8 9 8 8 8 7 8 9 9 8 9 9 9 9 9 9 9 9 8 9 9 9 9 9 9 10 9 10 9 10 9 10 10 9 10 10 10 10 10 9 10 10 10 10 10 10 10 10 10 11 10 10 11 11 10 11 11 11 11 11 12 10 11 11 11 12 12 12 11 12 12 12 12 12 13 12 12 12 13 13 12 12 13 12 13 12 13 13 14 14 14 13 13 14 13 13 13 14 15 15 14 14 14 14 15 15 14 15 15 16 15 16 16 17 16 17 16 17 18 17 19 17 18 19 21 24 23 23 25 23 26 24 25 27 28 29 29 31 33 32 31 28 27 30 30 26 30 28 30 30 30 31 31 34 34 31 30 30 30 29 29 30 30 29 29 29 29 30 30 31 33 31 33 35 36 37 38 42 44 42 42 42 43 43 46 44 44 42 41 42 43 45 46 48 50 52 53 57 57 60 62 61 59 62 61 52 50 46 43 44 47 50 54 52 50 48 47 49 50 49 53 50 50 50 50 52 46 50 50 51 51 47 44 43 41 41 43 42 41 41 40 39 39 38 39 40 37 36 38 38 35 37 36 34 35 35 34 33 34 32 30 30 32 30 31 30 30 31 32 31 33 34 34 37 36 35 33 33 35 35 36 36 35 36 37 34 33 34 34 33 33 32 33 33 32 31 31 30 30 29 28 30 29 31 31 31 30 30 28 28 30 28 25 25 27 27 25 26 25 26 28 28 28 26 26 24 26 26 27 27 30 29 30 28 27 26 27 26 25 24 25 26 27 28 26 25 27 26 27 28 29 27 25 24 25 23 24 26 25 26 26 28 29 28 28 26 30 32 37 45 34 34 33 33 30 29 29 28 27 24 24 22 23 23 23 25 25 24 23 22 22 22 21 22 22 22 22 20 20 20 20 20 20 20 19 19 18 17 17 18 18 16 17 17 16 16 15 15 16 14 14 15 14 13 14 12 13 13 12 13 12 12 11 12 12 10 11 11 10 10 10 10 10 10 10 11 10 10 10 9 9 10 10 9 9 9 9 9 9 9 9 9 9 8 9 9 9 9 8 8 8 8 8 8 8 8 8 8 8 9 8 8 8 8 8 7 8 9 7 8 7 8 8 8 7 8 7 8 7 8 7 7 7 0 
6 6 6 6 6 7 6 6 7 6 6 6 6 7 7 6 6 6 7 7 7 7 7 7 6 7 7 7 7 7 6 7 6 7 6 7 7 7 7 7 7 7 7 7 7 7 7 7 7 7 7 7 7 7 7 7 7 8 7 7 7 7 7 8 7 8 8 7 8 7 8 8 7 8 8 7 8 8 7 7 8 8 8 8 8 7 7 8 8 8 8 8 8 8 8 9 8 9 8 8 9 8 8 9 9 9 9 9 9 9 9 9 8 9 9 9 9 9 9 9 9 9 9 9 10 10 10 10 10 9 10 9 10 10 10 10 10 10 10 10 11 10 10 11 10 11 10 10 10 11 10 11 11 11 11 11 11 12 11 11 11 10 12 12 12 12 12 12 12 12 12 13 12 13 13 13 12 13 13 13 13 13 13 13 14 13 13 14 13 14 13 13 14 14 14 14 14 15 15 14 15 14 15 15 15 16 16 17 16 16 16 16 16 17 17 17 18 19 18 19 20 23 24 23 25 25 26 27 26 27 28 32 32 32 33 34 34 29 27 29 33 29 30 30 30 30 32 32 33 34 33 30 29 30 30 29 30 30 30 29 30 30 30 29 31 32 33 35 35 35 36 37 38 43 44 44 42 42 43 43 44 44 42 43 41 43 44 45 47 48 53 54 53 59 59 66 64 61 58 62 59 54 49 46 44 44 44 46 49 51 50 48 48 49 49 50 53 51 51 51 53 50 46 48 46 47 46 46 44 40 41 40 41 38 41 40 38 37 35 36 36 36 36 36 35 35 35 35 35 34 33 33 35 32 32 31 31 31 34 30 30 31 30 32 34 33 34 34 37 36 35 35 32 34 35 36 37 35 36 34 33 35 31 34 34 33 32 33 33 32 32 31 32 32 31 30 29 30 30 30 32 31 32 31 31 28 28 27 26 26 26 27 27 26 25 25 26 27 27 26 26 26 25 27 28 30 31 31 31 30 29 27 26 25 24 23 25 25 25 25 25 25 25 25 25 24 24 27 24 24 24 25 24 24 24 25 25 25 26 26 28 28 31 35 34 37 33 34 31 32 31 29 29 28 26 25 24 24 23 23 23 22 24 24 24 22 23 23 23 21 23 21 20 20 20 20 20 21 20 20 19 18 18 18 19 19 17 17 17 16 15 16 17 15 15 15 14 15 14 14 13 13 12 12 13 12 11 12 12 12 11 11 11 10 10 10 10 10 10 10 9 10 10 9 9 10 9 9 10 9 9 9 10 9 9 9 9 9 9 9 9 9 8 8 9 9 9 9 9 8 8 9 8 8 8 7 8 8 7 8 8 8 8 8 7 7 7 7 7 7 8 7 7 7 8 7 7 7 7 0 
6 6 6 7 7 6 6 6 6 6 6 6 6 7 7 6 6 6 6 7 7 6 7 7 7 6 6 7 7 7 7 6 7 6 7 7 7 7 7 7 7 7 7 7 7 7 7 7 8 7 7 7 7 7 7 7 8 7 7 7 7 6 7 7 7 7 8 7 7 7 8 8 7 7 8 8 9 8 7 8 8 8 8 8 8 8 8 8 8 8 8 8 9 8 8 8 8 8 8 8 9 8 9 8 9 9 8 9 9 8 10 8 9 9 9 9 9 9 8 9 10 10 9 9 10 10 10 9 10 10 10 10 10 10 10 10 10 10 9 10 10 11 11 10 10 11 11 10 11 10 12 11 11 11 11 11 12 12 11 12 11 11 11 12 11 12 13 12 12 13 11 12 12 12 13 13 12 13 12 13 13 14 13 13 13 13 14 14 14 15 14 14 15 14 14 14 15 14 15 14 15 15 15 15 15 16 16 17 16 16 17 16 16 17 17 18 18 19 19 19 20 20 20 23 24 25 25 24 26 27 28 31 31 32 33 34 32 31 31 33 32 33 31 34 32 32 31 32 32 33 32 30 29 28 28 30 30 30 31 31 31 32 31 33 31 32 32 34 36 36 37 40 41 41 42 44 45 45 44 45 43 42 43 41 42 45 45 46 48 51 53 58 60 63 67 66 61 57 57 55 53 52 48 47 45 43 44 45 46 49 48 45 45 46 48 50 52 49 51 51 49 48 47 46 45 45 46 44 40 40 40 40 40 42 39 39 37 37 36 36 36 36 34 35 34 33 34 32 33 32 32 31 32 32 30 31 30 32 31 31 31 31 30 30 32 33 35 36 36 36 35 35 34 33 35 35 36 37 37 37 37 34 35 35 34 34 32 31 32 33 32 31 31 30 30 29 30 28 28 30 31 30 31 31 30 29 27 26 26 26 25 26 26 25 25 25 24 25 25 25 26 26 25 28 26 28 30 29 31 29 28 28 27 25 25 24 23 23 24 26 25 25 25 24 25 23 24 24 26 24 24 24 24 23 23 24 24 25 25 25 26 28 32 33 32 32 32 32 33 33 32 32 30 26 26 25 24 24 24 23 23 24 24 26 24 26 25 23 21 21 22 20 19 20 21 21 21 20 21 21 20 18 18 17 19 19 18 17 18 17 15 16 16 16 16 14 15 14 14 14 13 13 13 14 12 13 12 12 12 11 11 11 11 11 11 11 10 11 10 9 10 10 10 10 9 9 10 9 10 9 9 9 9 10 9 9 9 9 9 9 9 9 9 8 9 8 9 7 8 9 8 8 8 8 9 8 8 8 8 8 7 8 8 7 7 7 8 8 8 8 8 8 8 7 8 7 7 7 7 0 
6 6 6 6 6 7 6 6 6 6 7 6 6 7 7 6 8 7 7 7 6 7 6 6 7 7 7 6 7 7 7 7 6 6 6 6 7 7 7 7 7 7 7 7 7 7 7 7 7 7 8 7 8 7 7 8 7 7 7 7 7 8 7 8 7 7 7 8 7 7 7 8 8 8 7 7 7 8 8 8 8 8 8 9 7 8 8 8 8 8 8 8 9 8 8 8 8 8 9 8 9 9 9 9 9 9 9 9 9 9 9 9 9 9 9 9 9 9 9 9 9 10 10 9 10 9 10 9 10 9 10 10 10 10 10 10 10 10 10 10 11 11 10 10 11 10 11 11 11 10 11 11 11 11 12 11 11 11 11 11 11 12 12 12 12 11 12 12 12 12 12 13 12 12 13 12 13 13 13 13 13 13 13 13 13 13 13 14 14 14 13 14 14 15 15 15 15 15 15 15 14 15 15 15 16 16 16 15 16 17 17 16 17 16 17 18 19 19 19 19 20 20 21 23 22 23 24 25 26 27 30 32 31 31 33 35 37 32 31 31 32 32 33 33 31 32 30 31 32 31 30 30 29 30 28 30 31 31 31 31 32 31 31 32 34 35 33 35 36 39 39 39 40 41 44 44 47 43 46 43 42 44 44 45 46 47 49 49 51 56 65 64 67 72 65 64 58 54 53 53 50 52 46 44 46 46 44 45 49 46 46 42 42 47 48 46 48 47 48 49 48 45 47 44 43 46 43 42 41 40 40 40 39 40 38 38 38 37 37 34 34 35 36 33 34 33 33 32 32 33 32 33 32 31 31 31 31 31 32 31 30 31 29 30 31 30 32 32 35 36 36 36 36 38 37 37 36 37 38 36 38 34 35 36 36 34 33 33 30 30 32 31 30 31 29 29 30 29 28 31 30 30 31 31 29 28 27 27 29 27 26 26 26 28 25 25 26 25 27 27 26 26 25 26 24 26 28 30 31 29 29 27 27 24 23 23 24 23 24 24 25 24 23 23 23 24 25 22 22 24 24 23 24 23 23 23 24 24 26 25 28 31 34 32 31 30 31 33 30 30 31 30 28 26 25 25 23 23 24 23 22 24 23 24 25 26 24 23 21 21 22 21 19 20 21 20 20 20 19 21 19 19 18 20 19 19 19 19 18 17 17 16 17 16 15 15 16 15 14 13 14 14 13 13 13 12 12 11 12 11 11 11 11 10 11 11 11 11 10 10 10 10 10 9 10 9 10 9 9 9 9 9 9 9 9 9 9 9 9 9 9 8 9 9 9 8 8 9 7 8 8 8 7 8 9 8 8 8 8 7 8 8 8 8 8 8 9 8 7 8 7 7 7 7 7 7 7 8 7 0 
6 7 6 6 7 7 6 6 7 6 6 6 6 7 7 6 6 7 6 6 7 6 6 7 7 6 6 7 7 7 7 7 7 7 7 7 6 7 6 7 7 6 7 7 7 7 7 8 7 7 7 7 7 7 7 7 7 7 7 8 7 7 7 7 8 7 7 8 8 8 8 8 8 8 8 8 8 8 8 7 8 7 8 9 7 8 8 8 8 8 9 8 8 8 9 9 8 8 8 8 9 8 9 9 8 8 8 9 8 9 8 9 9 9 9 9 9 10 10 9 9 10 10 9 10 10 9 10 10 9 10 10 10 9 10 10 10 10 10 10 10 10 10 10 10 11 11 11 11 11 11 11 10 10 12 12 11 11 12 12 11 12 12 11 11 12 12 12 13 12 12 13 12 13 13 14 13 12 13 12 13 14 13 14 13 13 15 13 14 14 14 14 13 14 15 15 14 14 15 15 14 15 16 15 17 17 17 16 16 16 17 17 18 18 18 18 18 19 18 19 20 21 21 22 23 22 25 25 25 27 30 32 32 31 32 36 37 37 32 33 32 34 31 32 32 32 31 32 32 32 30 30 30 30 31 31 32 32 33 33 31 31 34 34 35 35 36 37 38 39 42 40 42 43 46 48 46 46 46 44 45 46 44 47 50 50 52 55 58 63 72 74 73 70 60 55 54 51 50 49 48 47 47 42 45 46 44 46 47 44 41 42 42 44 48 46 45 45 46 47 48 46 46 46 47 47 42 41 42 39 40 39 39 41 38 40 39 37 36 35 35 34 37 33 35 33 34 33 33 32 30 32 31 30 31 29 30 31 30 30 30 29 30 29 30 32 31 32 34 36 35 37 36 39 39 38 37 38 39 38 38 35 35 34 35 34 33 32 32 30 31 31 31 30 29 30 29 30 30 31 31 32 30 31 27 29 27 26 27 25 25 27 28 26 25 24 25 24 27 27 26 25 25 25 25 27 27 31 31 30 32 30 27 24 24 23 22 22 23 23 24 24 24 23 24 24 24 23 25 25 25 25 25 24 24 24 24 24 28 29 33 35 35 31 30 29 29 32 30 30 29 28 29 27 25 25 24 23 22 22 22 22 23 22 25 25 25 23 21 21 21 20 21 21 20 20 20 20 20 21 21 19 18 18 19 19 18 18 17 17 17 15 17 16 16 16 15 15 15 14 15 14 13 13 13 12 12 12 11 11 12 11 10 11 11 11 11 10 10 11 10 10 10 10 10 10 10 10 9 9 9 9 10 9 9 9 9 9 9 9 9 8 8 9 8 9 8 8 8 8 9 8 8 9 9 8 8 9 8 8 7 8 8 8 8 8 8 8 8 8 8 7 8 8 7 7 8 8 8 0 
6 6 8 6 7 6 6 7 7 7 7 7 6 6 6 7 7 6 7 6 7 6 6 7 6 6 7 7 6 7 6 7 7 7 7 7 7 7 7 7 7 7 7 7 6 7 7 7 8 6 7 7 7 8 8 7 7 7 7 7 7 8 7 7 7 7 8 8 8 7 7 7 7 8 8 8 7 8 8 7 8 8 8 8 8 8 8 8 8 8 8 8 8 9 8 8 9 8 9 9 8 9 8 8 9 9 8 9 9 9 9 9 9 9 9 9 9 9 9 9 10 10 10 9 9 9 10 10 9 10 10 10 10 10 10 10 10 10 10 11 10 11 11 10 11 11 10 11 11 11 11 11 11 11 11 11 11 10 12 12 12 11 12 12 12 13 12 12 12 13 12 12 13 13 13 13 13 13 13 13 14 13 13 14 13 13 14 13 14 14 15 15 15 14 15 15 15 15 15 15 14 16 15 16 16 16 16 17 17 17 17 18 17 18 19 18 19 19 19 20 20 22 22 22 22 23 25 26 28 28 30 33 33 32 36 39 39 39 35 34 32 32 32 32 30 31 31 31 31 30 29 31 31 30 30 32 32 34 34 34 34 33 34 34 34 38 36 37 40 41 42 43 43 45 47 47 47 46 47 48 47 46 49 52 56 59 63 62 64 69 78 72 71 63 56 54 50 47 48 47 47 46 49 45 44 44 44 47 43 43 42 42 41 41 43 44 45 44 44 44 45 46 42 46 44 45 42 41 40 39 39 40 40 42 40 39 40 39 36 35 36 36 34 35 34 34 32 32 32 32 32 31 32 29 30 29 30 31 31 31 30 30 29 29 30 31 30 32 33 34 34 35 37 37 40 40 39 40 42 39 38 38 36 36 35 36 34 34 32 32 30 31 31 30 30 31 30 30 30 30 32 30 30 31 30 29 29 27 26 25 25 26 26 25 25 24 24 23 25 27 25 24 24 25 26 26 29 29 30 31 29 30 29 26 25 24 23 23 22 23 24 23 24 24 23 22 22 23 24 23 24 26 28 27 27 25 28 29 30 35 34 33 31 29 28 29 29 30 33 31 29 29 27 25 25 24 23 24 23 24 24 24 23 22 24 26 24 23 23 21 22 22 21 21 21 20 20 20 19 20 20 20 18 20 20 19 18 17 17 17 17 18 17 17 15 15 16 15 14 15 14 14 12 12 13 13 12 12 11 12 11 11 11 10 11 11 11 10 10 11 9 10 9 10 9 10 9 10 10 9 10 9 9 9 9 9 9 9 9 9 9 9 8 9 8 8 8 8 8 8 8 8 8 9 7 8 8 8 8 8 8 8 8 8 8 8 8 8 7 7 7 7 7 8 7 7 7 7 7 0 
6 6 6 6 6 6 6 6 6 6 6 7 7 6 7 6 6 6 7 7 7 7 7 7 7 7 7 6 7 7 7 7 7 7 7 7 7 7 7 7 7 7 8 8 7 7 7 7 7 7 7 7 7 7 7 7 7 7 7 7 7 7 8 7 7 8 7 8 7 7 7 8 8 7 8 7 8 8 8 8 7 8 8 7 8 7 8 8 8 8 8 8 8 8 8 8 8 8 8 8 8 9 8 10 9 9 9 9 9 9 9 9 9 9 9 9 10 9 9 9 9 10 10 10 9 10 10 10 10 10 10 10 10 10 10 10 10 10 10 10 11 10 10 11 11 11 10 11 11 10 10 11 12 12 11 11 13 12 11 11 12 12 12 12 12 12 13 13 12 12 13 13 12 12 13 12 12 12 13 13 14 14 13 14 14 13 14 13 14 14 15 14 14 15 15 15 15 15 15 16 16 16 16 16 16 16 16 17 18 17 16 18 18 19 18 18 18 20 19 20 21 22 22 22 22 24 25 27 27 29 32 34 36 36 43 40 35 35 34 34 34 32 32 30 28 31 31 30 30 30 31 31 31 32 31 33 34 33 33 32 34 35 36 36 35 37 38 38 41 45 44 46 46 48 47 50 49 47 49 48 50 53 55 56 64 74 72 70 71 73 75 67 59 55 53 50 48 45 46 46 44 46 46 46 47 43 45 46 44 42 40 40 40 40 42 42 44 41 43 42 43 43 44 45 43 43 41 41 40 40 40 40 40 40 38 38 41 37 37 38 37 35 35 36 35 34 34 33 33 33 32 31 30 30 31 30 30 31 30 30 31 30 30 31 31 31 32 35 34 33 35 36 35 35 38 40 41 43 43 42 40 38 37 37 39 37 37 35 31 32 31 30 30 31 29 30 29 31 31 31 31 30 30 30 28 28 28 27 26 25 24 26 24 25 23 25 23 24 25 26 25 25 24 24 25 27 27 28 30 29 29 32 28 26 23 23 23 23 24 23 23 26 25 24 23 22 23 23 24 23 24 24 29 32 30 30 30 32 30 33 31 29 30 28 30 30 30 34 32 29 29 27 27 25 25 24 24 23 22 23 23 24 22 23 25 25 25 23 24 23 23 22 23 23 21 20 21 20 19 19 20 19 18 20 22 19 18 18 18 17 18 18 19 17 17 16 16 15 15 14 14 14 13 14 13 13 13 12 12 12 12 11 11 11 11 11 11 10 10 11 10 10 10 10 10 10 10 9 10 9 11 9 9 10 10 9 9 10 9 9 9 8 9 9 8 9 9 8 8 8 8 8 8 7 8 8 8 8 8 8 8 8 8 8 8 8 8 8 8 7 7 8 8 7 8 7 8 7 8 0 
6 6 7 6 6 6 6 6 6 7 6 6 7 6 6 7 7 7 7 7 7 6 7 7 7 7 7 6 7 6 7 7 6 7 7 7 8 7 7 7 7 7 7 7 8 7 8 7 7 7 7 7 7 8 7 7 7 7 7 8 8 8 7 8 7 8 7 7 8 8 7 7 7 8 8 8 8 8 8 8 8 8 8 8 7 8 8 8 8 8 8 8 8 8 9 8 8 8 9 9 9 8 9 8 9 9 8 8 9 9 9 10 10 9 9 10 9 9 9 10 10 9 10 9 9 10 10 10 10 10 10 10 10 11 10 10 10 10 11 11 10 10 11 11 10 11 11 12 11 12 11 11 10 11 11 11 12 12 12 11 12 11 12 12 12 12 12 12 13 12 12 13 13 13 13 13 13 13 13 13 14 14 14 14 14 13 14 15 14 14 14 14 15 15 16 16 16 16 16 16 16 16 15 16 16 16 17 17 17 16 17 18 17 18 19 18 19 20 20 20 21 22 23 24 25 26 25 26 28 29 32 37 41 44 43 36 35 34 34 31 32 29 31 29 30 30 30 31 30 31 31 31 32 33 31 33 34 35 33 33 34 36 36 36 38 39 39 41 44 47 48 47 45 49 48 51 51 51 53 53 54 54 55 60 71 74 70 70 68 71 67 58 54 51 50 47 46 46 46 45 46 48 46 46 48 47 45 45 42 41 41 41 39 40 41 41 40 40 41 42 45 44 44 44 44 43 40 43 40 40 41 42 42 40 38 38 37 38 38 38 36 36 39 36 37 36 32 33 31 32 31 31 31 31 30 30 30 30 30 30 30 30 30 31 32 32 33 33 34 33 34 35 34 35 35 39 41 40 42 42 41 38 37 39 38 38 37 36 33 33 32 31 30 31 30 30 31 30 31 31 32 33 31 31 29 29 29 28 27 25 25 25 26 25 24 24 24 25 24 24 24 25 26 24 26 26 25 27 28 28 32 32 28 26 24 24 23 22 24 24 23 23 25 24 25 24 24 23 24 25 25 24 28 31 32 30 31 30 31 30 30 28 30 31 30 32 29 31 30 29 29 27 27 25 26 24 24 23 23 24 23 22 22 23 25 25 26 26 25 27 25 23 23 22 20 19 19 20 19 19 19 19 19 20 20 18 17 18 17 17 16 17 18 16 16 16 16 15 14 14 14 14 14 13 13 12 13 13 12 12 12 12 11 11 11 11 10 11 11 11 10 10 10 10 10 10 10 10 9 9 9 10 9 10 9 9 9 9 9 9 9 9 9 9 8 9 8 9 9 8 8 8 8 8 8 8 8 7 8 8 7 8 7 8 8 7 8 8 8 7 7 7 7 7 8 7 7 7 7 0 
6 6 7 6 7 7 6 7 7 6 7 7 6 6 7 6 7 7 7 6 7 6 7 6 7 7 7 7 6 7 7 6 7 7 7 7 7 7 6 7 7 7 7 7 7 7 7 7 7 7 7 7 7 7 7 7 7 7 8 8 7 8 7 7 8 8 8 8 7 7 8 8 8 8 8 8 7 8 8 8 8 9 8 8 8 8 8 8 9 8 8 8 8 8 9 9 9 9 9 9 9 9 9 9 9 8 9 8 9 9 9 9 9 9 10 9 9 9 9 10 9 9 10 10 10 9 10 10 10 10 10 10 10 10 10 11 11 10 10 11 10 10 10 11 11 11 10 11 11 11 11 11 12 12 12 12 12 12 12 12 12 12 12 12 12 12 13 13 12 13 13 13 13 13 13 13 13 13 13 14 13 13 14 14 14 14 14 14 15 14 14 14 15 15 15 15 15 16 15 15 16 16 15 16 16 17 16 16 18 17 18 18 19 17 19 19 19 19 20 21 22 22 23 24 25 26 28 27 29 29 33 36 45 49 42 34 34 29 31 32 31 31 32 32 31 31 30 29 31 32 31 31 32 33 33 33 35 36 33 33 36 37 40 38 39 40 43 43 49 47 49 49 49 49 50 53 51 52 55 53 57 55 56 61 68 73 61 65 64 62 60 55 52 49 47 46 46 47 48 48 47 50 47 48 47 47 44 45 43 41 38 38 42 40 38 38 39 39 41 40 44 42 43 44 43 41 41 42 41 41 43 41 40 39 38 38 37 39 38 39 39 37 37 36 35 35 33 34 33 31 32 32 30 32 30 30 30 30 30 30 29 30 30 30 32 32 33 34 34 35 34 36 35 35 35 39 40 40 43 41 42 41 42 42 41 40 40 38 35 35 32 32 31 30 31 33 30 31 32 33 34 34 32 31 29 30 28 27 26 26 25 25 25 25 24 23 24 25 24 25 25 25 25 26 25 26 25 28 27 30 31 31 30 26 24 24 25 23 24 24 24 24 24 25 25 24 25 23 24 27 26 26 27 26 34 33 30 30 29 30 30 30 30 31 30 29 27 28 30 31 28 27 26 26 25 25 24 23 24 22 22 22 23 23 25 24 25 26 23 23 27 25 23 21 21 19 18 18 19 20 19 19 18 20 20 19 17 17 17 17 17 17 18 17 17 16 15 15 15 15 15 15 14 14 14 13 13 13 12 11 12 11 11 11 11 10 10 11 10 11 10 9 11 10 10 10 11 9 10 10 10 9 9 9 10 9 9 9 9 9 9 9 8 9 8 9 8 9 8 8 8 8 8 8 9 8 8 8 8 8 8 8 7 7 8 8 7 7 8 7 8 7 8 8 7 7 7 7 8 0 
6 6 6 6 6 6 6 6 6 7 6 6 7 7 6 6 6 7 7 7 7 6 7 6 7 6 7 7 7 7 7 7 7 6 7 7 7 7 8 7 7 7 7 7 7 7 7 7 7 7 7 8 7 7 7 7 8 8 7 7 8 7 8 7 7 8 8 9 7 8 7 7 8 8 8 8 7 8 8 8 8 8 7 7 8 8 8 8 8 8 8 9 9 8 9 8 9 8 8 9 8 9 8 8 9 9 8 9 9 9 10 8 10 9 9 9 9 10 10 10 9 10 10 10 9 10 10 11 10 10 10 10 10 10 10 10 11 11 10 10 10 11 11 11 11 11 11 12 11 12 11 12 11 12 12 11 12 12 12 12 11 12 12 12 13 12 12 12 12 14 13 13 13 13 13 13 13 13 13 13 12 14 14 14 14 14 14 15 14 14 16 15 15 15 16 16 16 16 16 16 17 16 16 17 16 17 17 18 18 17 18 18 18 18 18 19 19 21 21 20 22 23 22 24 26 26 28 27 30 31 32 37 47 46 41 39 33 30 30 30 32 33 32 34 32 31 31 31 32 32 30 32 32 32 34 33 36 36 35 36 37 40 41 43 44 43 43 46 50 51 47 51 52 51 54 56 53 57 60 56 57 56 55 58 66 70 62 62 58 57 56 53 49 49 48 47 47 49 50 51 53 52 50 49 48 45 43 41 41 39 38 39 40 40 38 37 39 40 40 38 41 41 44 43 41 40 38 41 39 40 40 40 40 37 37 37 37 38 38 37 41 38 38 37 36 37 35 35 34 32 33 32 31 30 30 30 29 29 31 31 29 29 31 30 31 31 32 33 33 35 37 34 35 36 37 36 38 41 40 43 42 42 44 42 42 42 41 38 37 36 33 33 32 33 32 32 33 33 33 36 35 34 32 30 31 31 28 26 26 26 26 26 25 24 24 24 24 24 23 23 24 25 23 25 25 25 26 26 26 28 30 31 29 27 25 24 24 24 23 23 23 24 25 26 26 26 26 25 26 26 29 28 30 27 28 35 34 34 31 30 31 31 32 32 29 31 29 30 30 28 28 28 26 26 25 24 23 23 23 22 23 22 22 22 23 23 24 22 23 23 26 28 23 22 20 19 19 18 19 19 19 19 19 20 19 18 19 18 18 17 17 17 18 17 17 15 16 15 15 15 15 15 14 13 14 13 12 13 13 12 12 12 11 12 11 11 11 12 11 10 10 10 10 10 10 10 10 10 10 10 9 9 9 9 9 9 9 9 9 9 8 9 9 8 8 8 8 8 8 8 8 8 8 8 8 8 8 8 8 9 9 8 8 8 8 8 8 8 7 8 7 8 7 7 7 8 7 7 8 0 
6 7 6 6 6 6 7 6 6 7 6 6 6 7 7 6 6 7 6 6 6 7 7 7 7 7 6 6 7 7 7 7 7 7 7 6 8 7 7 7 7 7 7 7 7 7 7 7 7 7 8 7 8 7 8 7 7 7 8 7 7 7 8 7 8 7 8 8 7 7 7 8 7 8 8 8 8 8 8 7 9 8 8 8 8 8 8 8 8 8 8 9 8 8 9 9 9 8 9 8 9 9 9 8 9 9 9 9 9 10 9 9 9 9 9 10 9 9 10 10 9 10 10 10 10 10 10 9 10 10 10 10 11 10 10 11 11 10 10 11 11 10 11 12 11 12 11 11 12 12 11 12 11 12 12 12 12 12 13 12 13 11 12 12 12 12 13 13 13 13 13 13 13 13 14 13 13 13 13 14 15 14 14 15 14 15 15 15 14 13 15 15 15 15 15 15 16 16 16 15 15 16 15 17 16 16 18 18 17 17 19 18 18 19 18 19 20 21 20 22 21 22 23 25 27 27 28 29 31 32 33 37 44 50 46 39 32 30 30 31 34 36 36 34 36 33 33 34 33 32 32 32 32 32 34 33 35 35 36 37 38 42 42 42 44 46 46 49 52 51 51 54 56 55 56 56 56 57 57 58 57 54 56 57 61 69 67 60 56 56 53 51 50 50 51 50 49 51 53 57 56 53 49 47 44 43 42 42 41 40 39 38 38 40 40 38 38 39 40 39 38 40 40 41 41 40 39 37 38 39 38 36 37 37 37 36 36 37 37 36 38 37 35 35 36 34 34 33 35 34 35 31 32 31 31 31 31 30 29 29 29 30 30 30 32 31 32 32 33 34 35 34 37 38 38 37 36 37 39 39 42 43 42 39 40 42 40 39 38 35 33 34 33 32 34 34 34 35 35 37 35 34 34 36 31 31 29 28 28 27 26 26 25 25 24 24 24 23 23 23 23 24 25 24 25 26 26 26 27 26 27 28 29 28 25 25 25 25 25 23 24 24 24 27 28 27 26 27 26 27 30 29 29 28 30 32 36 36 35 35 32 31 33 30 29 29 28 32 30 27 28 26 26 26 27 24 25 23 23 21 22 22 20 21 21 22 23 23 23 23 25 25 23 23 22 19 18 19 19 18 19 20 20 20 20 18 17 17 17 17 17 18 16 17 16 16 16 15 16 14 15 15 15 14 14 14 13 13 12 13 12 12 11 11 11 10 11 11 10 11 10 10 9 10 9 10 10 9 10 10 10 9 9 9 9 9 9 9 9 9 9 9 9 9 8 8 9 8 8 9 8 8 9 9 8 8 8 8 8 8 8 8 8 8 8 8 8 7 7 7 8 8 8 8 7 8 7 7 7 0 
7 7 6 7 6 6 6 6 7 6 6 6 7 7 6 7 6 7 7 7 7 6 7 7 7 7 7 7 7 7 7 6 7 7 7 8 7 7 7 7 7 7 8 7 7 7 7 7 7 7 7 8 7 7 7 8 7 7 7 7 8 8 7 7 8 8 7 8 8 7 8 8 8 8 8 8 8 8 8 8 8 8 8 8 8 8 9 8 8 8 8 9 9 8 8 8 8 9 8 9 9 9 9 9 8 9 9 9 9 9 9 9 9 9 9 10 9 9 9 10 10 10 10 10 11 9 10 10 10 10 11 11 10 10 10 11 10 11 10 11 11 11 11 11 11 12 11 12 11 12 12 11 12 12 12 12 12 12 12 12 11 13 12 12 12 13 12 12 14 13 13 13 13 13 13 15 13 14 14 14 14 14 14 13 15 15 14 15 15 14 15 16 15 16 15 17 16 16 16 16 16 16 16 17 17 17 16 18 17 18 18 19 18 20 20 20 20 20 21 21 22 23 22 24 27 29 30 29 32 33 36 39 42 49 43 40 33 32 31 32 33 34 36 36 33 33 34 34 33 34 33 35 32 32 33 35 36 37 36 35 40 40 41 43 44 47 49 50 53 54 56 59 60 61 60 60 59 62 58 57 57 57 58 64 65 70 62 58 55 56 54 50 53 52 54 53 53 55 57 56 55 50 47 45 42 41 41 40 39 40 38 40 38 39 39 37 37 38 38 36 37 39 37 40 39 37 36 37 38 37 37 36 37 37 35 34 36 36 36 35 37 36 36 34 34 33 34 34 35 34 33 31 32 33 31 31 31 30 29 29 29 29 31 31 31 31 32 32 33 33 32 35 37 37 35 37 39 40 37 40 42 44 39 39 38 44 44 41 38 37 35 36 35 35 35 38 37 38 37 38 37 37 35 39 32 30 30 28 28 27 26 25 26 23 24 23 24 23 23 23 24 25 25 24 24 26 24 26 26 27 27 29 29 28 27 25 26 24 24 24 24 25 25 25 27 29 28 29 27 27 29 28 28 29 29 30 32 35 37 34 34 31 31 31 30 29 29 28 28 27 28 26 24 25 24 25 24 22 22 22 21 21 21 22 21 21 22 22 23 25 25 23 22 22 20 20 19 19 18 20 19 18 22 21 21 18 17 17 17 17 17 18 17 17 16 16 15 15 16 15 14 14 15 14 14 13 14 13 13 13 12 11 12 11 11 11 11 11 11 10 10 10 9 10 10 10 10 9 10 10 10 9 10 10 10 9 9 9 9 8 9 9 9 9 9 9 9 9 8 9 8 8 8 8 8 8 8 8 8 7 7 8 8 8 8 7 8 8 8 7 7 7 8 8 7 8 7 7 8 0 
6 6 7 7 6 6 6 6 7 7 7 6 6 6 6 7 6 6 7 7 7 6 6 6 7 7 7 6 6 7 6 7 7 7 7 7 7 7 6 7 6 7 7 7 7 7 7 7 8 7 7 7 7 7 7 7 7 8 8 7 8 8 8 8 8 8 8 8 7 8 8 8 8 8 8 7 8 8 8 8 8 8 8 8 8 8 8 8 8 9 8 9 9 8 9 9 9 9 8 8 9 9 9 8 9 9 9 9 9 9 9 9 9 9 9 10 10 9 10 9 9 10 9 10 10 10 10 10 10 10 10 10 10 11 10 10 10 11 11 11 11 11 11 11 11 11 12 12 11 12 11 12 12 11 11 12 12 12 12 12 12 13 13 13 13 12 13 13 14 13 14 13 13 13 13 13 13 14 14 13 14 14 15 15 15 14 15 15 15 15 16 15 16 16 16 17 15 16 16 17 17 16 17 16 17 17 18 19 18 19 18 20 19 20 21 20 21 20 21 21 21 22 23 25 25 28 31 32 32 33 35 35 45 44 46 37 36 33 33 33 34 34 38 36 34 35 33 34 33 35 34 33 32 32 35 35 36 36 36 38 38 40 44 45 46 47 50 53 55 58 65 63 61 64 64 66 65 62 61 60 59 61 64 68 67 65 61 57 55 57 52 50 51 54 57 53 55 55 53 51 50 46 45 43 43 42 41 40 39 39 40 40 39 36 37 39 37 38 37 38 36 40 38 38 38 36 38 36 38 36 36 36 36 37 36 35 35 35 37 34 34 34 34 34 35 33 31 33 34 32 32 32 32 30 31 31 30 29 29 29 29 30 30 29 31 31 32 32 32 33 33 34 36 36 37 38 38 38 38 37 38 39 39 39 41 42 42 41 39 37 36 37 37 37 37 37 38 38 40 39 37 37 37 35 32 33 31 28 30 27 25 27 25 25 23 24 23 23 24 24 23 24 24 25 23 24 26 28 27 27 27 27 29 28 27 26 25 25 24 23 25 26 27 26 26 28 27 29 28 27 28 33 30 29 28 29 32 35 39 36 35 33 32 30 31 30 28 27 28 26 25 25 25 24 24 26 26 23 23 22 22 21 22 22 21 22 22 23 25 25 24 23 23 22 19 19 18 17 18 19 19 19 20 22 22 19 18 18 18 17 17 18 18 17 16 17 16 17 17 16 16 15 15 15 13 13 13 13 13 12 12 12 12 11 11 11 11 11 11 10 10 10 10 10 9 10 10 10 10 9 9 9 9 9 9 9 9 9 9 8 9 9 9 8 8 9 8 9 8 9 8 9 9 8 8 9 8 8 8 8 8 8 8 8 8 7 7 8 8 8 7 8 8 8 8 8 8 7 7 0 
7 6 6 7 6 6 7 7 7 7 7 6 7 7 6 7 6 7 7 7 7 6 7 6 7 7 7 7 6 6 7 7 7 7 7 7 7 7 7 7 7 7 8 6 8 7 8 7 7 7 7 7 8 8 7 7 8 8 8 8 7 7 7 8 8 8 7 7 8 8 8 8 8 8 7 8 8 8 8 8 8 8 8 8 9 8 9 8 8 8 8 8 9 8 9 8 9 8 8 9 8 9 9 9 9 10 9 9 9 9 9 9 9 9 9 9 10 9 9 9 9 11 9 10 10 10 10 10 10 11 10 11 10 10 10 10 10 11 10 10 11 11 11 11 11 11 11 12 12 11 11 12 12 12 13 12 12 12 13 13 13 12 13 13 13 13 13 13 14 13 13 15 14 14 13 14 14 14 14 15 15 14 14 15 14 15 15 14 15 15 16 16 16 16 16 15 16 16 16 16 17 18 17 18 18 18 18 17 18 18 19 20 20 20 20 21 21 21 23 22 22 23 24 25 27 27 30 32 33 35 35 37 39 42 43 40 37 34 36 34 36 35 34 35 35 34 33 32 32 35 34 33 34 34 34 37 36 36 37 36 39 44 44 46 46 48 50 52 57 65 71 67 67 65 66 67 69 62 62 59 60 62 67 67 64 64 60 61 56 54 53 51 51 53 57 50 51 52 51 48 47 44 45 42 43 44 41 42 40 40 39 38 37 37 36 36 36 37 37 37 40 37 36 38 37 37 34 35 36 36 35 34 36 37 36 36 38 34 34 35 33 34 34 34 33 35 34 33 32 32 31 33 32 30 30 30 31 31 29 30 30 30 30 30 31 32 31 31 33 33 34 34 34 37 37 38 37 37 38 38 38 37 38 40 43 44 43 41 40 37 37 38 39 36 38 38 39 39 40 41 38 38 38 37 34 34 31 30 28 28 27 25 26 25 25 25 24 23 24 23 23 25 24 24 24 25 25 26 26 27 27 27 29 29 26 25 25 24 24 26 27 25 27 26 25 27 29 30 30 27 28 30 32 29 29 30 31 33 37 38 37 36 35 33 32 28 27 27 27 26 27 26 24 26 25 25 24 23 22 21 21 21 20 22 22 21 22 23 25 27 24 25 23 22 20 20 19 18 19 18 17 19 22 22 22 20 17 18 17 17 17 17 18 17 17 16 16 16 16 15 15 16 14 14 13 14 14 13 12 13 12 12 12 12 11 11 11 11 11 11 11 11 10 10 10 10 9 10 10 10 9 10 10 9 9 10 9 9 9 9 9 9 8 8 8 8 9 9 9 8 8 8 8 8 7 8 8 8 8 8 7 8 7 8 7 8 7 8 8 8 8 7 8 7 8 7 7 8 7 0 
6 7 6 6 7 7 6 7 7 6 7 6 7 6 6 6 7 7 7 7 6 7 7 7 7 7 6 6 7 7 7 7 7 7 7 7 7 7 7 7 7 7 7 7 7 7 7 7 7 7 7 7 7 7 7 7 7 7 7 7 7 8 8 7 7 7 8 8 8 7 8 8 8 8 8 8 7 8 8 7 8 8 8 8 9 9 8 8 8 9 8 8 8 9 8 8 8 9 8 9 9 9 9 9 10 9 9 10 9 9 9 9 9 9 9 10 9 9 9 10 10 10 10 9 9 10 10 10 10 10 11 11 10 11 11 11 10 11 10 12 11 11 11 11 11 12 11 12 12 11 13 12 12 12 12 13 13 13 12 13 13 13 13 13 13 13 14 13 13 13 14 14 14 14 14 14 14 14 15 15 15 15 14 15 15 14 16 15 15 16 16 16 16 16 16 17 17 16 17 18 18 17 18 17 18 17 18 18 18 18 19 20 20 19 20 21 21 22 23 23 23 24 25 25 26 27 30 32 30 31 32 34 34 40 40 38 38 38 36 34 34 34 34 34 37 38 34 33 32 34 32 33 34 34 34 35 36 36 37 37 38 42 44 44 46 46 51 53 58 77 78 73 70 67 62 57 64 61 64 57 63 65 69 66 63 63 60 58 59 54 51 51 51 53 56 51 50 49 46 47 44 46 45 45 43 44 44 43 41 40 38 38 38 36 37 35 37 37 37 37 38 36 34 35 35 35 35 35 35 35 34 35 35 35 34 34 36 34 33 34 32 32 35 34 34 34 37 32 34 33 32 32 32 31 31 30 31 30 30 30 29 30 30 31 31 32 30 30 32 32 33 34 34 35 37 37 37 36 39 38 38 38 37 39 42 45 46 44 41 40 40 39 38 38 39 40 39 41 43 41 39 38 39 39 36 35 32 32 29 27 27 27 26 24 24 24 24 24 24 24 23 23 24 23 25 24 25 25 26 28 28 26 27 28 28 25 24 26 24 24 23 26 25 25 25 25 28 30 31 31 30 32 33 31 29 29 31 30 35 37 37 37 35 34 31 29 29 27 26 27 27 26 26 25 25 24 23 22 22 21 20 21 20 21 22 22 21 22 24 26 27 27 24 22 20 19 20 18 18 19 19 20 20 21 22 18 18 18 16 17 18 17 19 17 17 16 17 16 17 16 16 15 15 15 15 14 13 15 13 13 12 12 12 12 12 11 11 11 11 11 11 10 11 10 10 10 10 10 9 10 9 9 10 9 9 9 9 9 9 9 9 9 8 9 9 8 9 9 8 8 8 8 8 9 8 8 8 8 9 8 8 8 8 8 7 8 8 8 8 7 8 8 8 8 8 8 7 8 7 0 
7 6 7 7 6 6 6 6 6 7 7 6 6 6 7 7 6 7 6 7 7 7 6 6 7 7 7 7 7 7 7 7 7 7 7 7 6 6 7 7 8 6 7 7 7 7 7 7 7 7 7 7 8 8 8 8 8 7 8 7 8 8 8 8 8 7 8 8 8 8 8 7 8 8 8 8 8 8 8 8 8 8 8 8 8 8 8 8 8 9 8 8 8 9 8 9 9 8 9 9 9 9 9 9 9 9 9 10 9 10 10 10 9 8 10 10 10 10 10 9 10 10 10 10 10 10 10 10 10 11 10 10 11 10 11 11 11 11 11 11 12 11 11 11 12 11 12 12 12 12 12 12 12 12 12 13 12 12 13 13 12 13 13 13 14 13 14 14 14 13 13 13 14 14 15 14 14 14 15 15 15 15 14 15 15 15 15 16 16 16 16 16 17 17 16 17 16 16 17 17 16 17 18 17 18 18 18 17 19 20 19 20 21 20 22 21 22 22 24 23 24 24 25 27 27 29 29 31 30 30 31 32 33 35 37 36 37 38 36 34 35 34 33 33 33 37 35 34 32 31 32 32 35 35 35 35 35 35 38 39 39 42 42 44 46 46 50 51 57 75 79 71 73 67 64 59 59 58 62 62 67 71 73 66 65 62 61 59 58 55 52 53 54 55 54 52 48 49 46 46 46 47 45 46 45 46 43 45 41 40 38 37 38 37 37 35 35 36 36 36 36 35 34 34 34 35 34 34 34 36 34 33 34 34 34 33 33 34 34 32 32 33 34 34 34 33 33 33 34 33 32 32 32 31 30 32 30 31 30 30 30 30 31 31 30 31 31 31 31 33 34 34 33 36 36 36 36 35 38 37 38 36 39 39 41 43 44 45 45 40 40 39 38 41 41 43 44 42 43 44 42 41 40 40 38 35 36 33 29 29 28 27 26 26 25 24 24 25 25 23 23 25 24 24 25 24 25 25 25 27 27 28 27 28 29 25 25 25 24 23 26 25 25 24 24 25 27 29 30 31 30 29 32 31 30 29 30 27 31 37 35 38 36 36 30 29 29 28 26 28 27 26 26 26 27 25 23 23 22 20 21 20 22 21 22 21 21 23 26 27 26 25 23 21 19 20 19 19 19 19 18 20 20 22 21 20 18 18 18 17 17 19 20 18 18 17 18 18 17 16 16 17 15 16 15 14 14 14 13 14 13 13 13 13 13 11 11 12 11 11 11 10 10 10 10 10 9 9 9 10 10 10 10 9 9 9 9 10 9 9 9 9 9 9 8 9 8 9 9 9 8 8 8 9 8 9 8 8 8 8 9 8 8 8 8 8 8 8 7 8 8 8 8 7 8 7 8 7 7 0 
6 6 6 6 6 7 6 7 7 6 7 7 6 7 7 6 6 6 6 7 7 6 7 6 7 6 7 6 7 7 7 7 7 7 7 7 7 8 6 7 7 7 8 7 7 7 8 7 7 7 7 7 7 8 8 7 7 8 7 7 8 7 8 7 7 7 8 8 8 8 7 8 8 8 8 8 8 8 8 8 8 8 8 9 8 8 8 8 8 8 9 8 8 9 8 9 9 9 9 9 8 8 9 9 9 9 9 10 9 10 9 9 10 10 10 9 10 10 10 10 10 10 10 10 10 10 10 10 10 11 10 10 10 11 11 10 12 11 11 11 12 11 12 12 13 11 12 12 13 12 12 12 13 13 13 13 13 12 13 13 12 13 14 13 13 14 14 15 14 15 14 14 14 14 15 14 15 14 15 15 15 15 15 14 15 15 17 15 15 15 16 16 16 17 17 16 16 17 17 17 18 17 18 19 18 19 19 19 19 19 22 22 21 21 22 23 22 22 24 25 23 25 26 27 26 28 30 29 29 30 31 32 32 33 36 37 38 35 34 35 33 33 34 33 34 36 35 36 35 34 33 33 33 33 35 37 37 37 37 38 42 43 43 44 47 46 49 50 54 69 85 70 62 60 65 61 57 56 56 66 71 69 66 65 66 61 59 59 55 57 54 54 59 56 55 51 50 47 46 47 48 45 46 47 44 45 43 41 40 39 37 38 36 36 35 36 36 36 36 36 36 35 35 33 34 32 34 34 34 33 32 34 32 33 33 33 34 34 32 34 31 32 32 33 34 34 33 32 33 31 32 31 31 32 32 31 30 29 30 30 31 29 30 29 31 31 32 31 33 34 34 35 34 35 36 35 37 37 39 39 38 37 37 40 41 41 42 44 47 43 41 41 42 43 44 46 46 43 46 46 43 43 42 41 39 40 38 35 36 30 27 28 29 26 25 25 26 25 25 24 23 24 23 25 25 26 26 25 25 26 27 27 26 25 28 24 25 24 23 24 25 24 24 25 25 25 28 26 27 30 31 30 30 33 32 31 30 29 29 32 35 39 38 37 32 30 30 30 28 28 28 26 26 26 26 25 23 22 20 21 20 20 21 22 21 21 20 23 24 26 26 26 24 21 20 19 20 19 20 19 19 19 20 21 21 20 19 19 17 20 19 19 21 20 18 18 17 17 18 16 16 16 15 16 15 15 16 14 13 13 12 13 12 13 12 11 10 11 11 11 11 10 10 11 10 11 10 10 10 9 10 9 9 10 9 9 8 9 9 9 9 9 9 9 8 9 9 9 8 9 9 8 8 9 8 9 9 8 8 8 7 8 8 8 8 7 8 8 7 7 9 9 7 7 8 7 8 7 7 0 
6 6 6 7 7 6 6 6 6 6 6 7 7 6 6 7 6 7 6 7 6 7 7 7 7 7 7 7 6 7 7 7 7 7 7 7 7 7 7 7 7 8 8 7 7 7 7 8 8 7 7 7 7 8 7 7 8 7 8 7 8 8 7 7 8 8 8 8 8 7 8 8 7 8 8 8 8 8 8 8 8 9 8 8 8 8 8 8 8 8 9 9 8 9 9 9 9 8 9 9 9 8 9 9 9 8 9 9 9 9 10 10 10 10 10 10 10 9 10 10 10 10 10 10 11 10 11 10 10 11 10 11 11 11 11 11 10 11 12 11 12 12 12 12 12 12 12 11 13 12 12 12 12 12 12 12 12 13 12 13 13 13 13 13 14 14 14 14 14 13 14 14 14 14 15 15 14 14 14 14 15 15 15 16 15 15 16 16 16 16 17 16 17 17 18 17 17 17 17 18 18 18 17 19 18 19 19 19 19 21 20 23 23 22 23 23 22 23 24 26 25 26 26 27 27 29 28 29 28 29 29 30 31 32 33 35 40 36 35 32 33 34 32 32 34 33 34 35 36 34 34 33 33 34 36 37 38 37 39 40 42 41 44 44 44 46 49 51 52 63 91 67 60 53 58 61 57 55 54 66 73 69 67 64 63 58 59 62 56 57 58 57 57 55 51 49 49 50 48 47 48 47 45 46 45 43 41 40 39 40 40 39 36 35 35 36 35 36 34 35 36 37 34 33 33 33 33 34 33 33 32 32 32 31 32 33 33 31 31 31 32 32 32 33 32 32 32 31 32 33 32 34 32 30 31 31 30 30 30 30 31 29 30 30 31 32 31 32 34 33 34 33 35 35 35 36 36 37 37 37 38 37 38 39 39 40 40 44 45 45 45 44 45 43 42 45 44 47 48 48 51 50 49 43 43 41 38 38 36 35 30 28 28 27 25 26 25 25 24 24 24 25 23 24 24 25 26 26 25 28 27 26 26 25 25 27 25 26 25 24 25 24 24 24 25 26 25 26 28 28 31 30 31 34 32 30 30 29 29 31 31 37 39 35 32 34 31 31 28 28 28 27 27 27 28 25 22 21 21 21 21 19 21 21 20 21 21 23 24 25 26 25 23 21 21 21 20 21 21 20 20 21 20 21 22 21 19 19 17 19 19 20 23 20 21 19 18 18 17 16 16 17 17 16 15 15 15 14 14 14 13 12 12 12 12 11 11 11 11 11 11 10 11 11 11 10 10 10 10 10 10 10 10 10 9 9 9 9 9 9 9 8 8 9 9 9 8 9 9 8 8 9 9 8 8 8 8 8 7 8 8 8 8 7 8 8 8 8 8 7 7 8 8 7 8 8 8 7 7 0 
6 7 6 7 6 7 7 6 7 6 6 6 6 7 7 6 7 7 6 7 6 7 6 7 8 7 7 7 7 7 7 7 7 7 7 7 7 7 6 7 8 7 7 7 7 7 7 7 7 8 7 7 8 7 8 7 7 8 8 7 8 8 7 7 8 8 8 8 8 8 8 8 8 8 8 7 8 8 9 8 8 8 8 8 8 8 8 8 8 8 9 9 9 8 9 9 9 9 9 9 9 9 8 8 8 9 9 10 10 10 10 9 9 10 10 9 10 9 10 10 10 10 10 10 11 10 10 10 10 11 11 10 10 11 11 11 12 11 12 12 11 12 12 12 12 12 12 13 13 13 12 12 12 12 12 13 12 13 14 13 13 14 14 14 15 14 14 14 14 14 15 13 14 14 14 15 14 14 15 15 15 16 16 17 15 16 16 17 15 16 17 16 18 17 17 17 18 18 17 18 18 17 18 17 19 20 19 21 22 21 22 22 22 22 22 22 23 23 24 25 25 25 28 29 28 28 27 27 28 28 28 30 30 32 34 35 36 37 35 33 34 32 32 33 34 35 35 35 35 40 37 34 34 35 35 38 38 40 37 38 40 42 44 45 47 47 50 51 53 64 89 64 51 51 55 61 55 55 56 61 73 68 58 60 60 58 59 62 58 55 55 56 55 54 52 49 52 52 50 49 46 47 46 44 42 43 41 40 40 40 40 37 38 35 36 37 34 36 34 36 35 35 35 33 33 33 32 31 31 31 32 31 32 30 30 30 30 30 31 31 30 32 33 31 32 32 32 31 33 32 31 32 33 32 30 31 30 30 31 30 31 30 30 30 32 31 34 33 34 35 33 34 33 35 36 36 35 35 37 38 36 39 40 39 39 41 40 42 44 45 43 43 45 42 40 40 38 44 46 51 49 52 54 46 43 43 38 37 39 35 32 30 30 26 28 26 26 25 25 26 24 23 24 24 26 26 25 24 26 26 29 26 27 26 27 26 25 25 23 25 24 23 24 24 24 24 26 27 27 29 31 31 30 33 35 33 31 28 29 29 30 35 41 35 38 38 38 35 31 30 30 29 28 27 25 24 23 23 21 20 20 20 21 21 21 21 21 21 24 24 26 26 23 21 21 20 21 22 21 21 21 23 21 21 21 21 19 18 19 20 18 21 26 22 21 19 18 18 16 16 15 16 17 16 15 14 14 14 15 14 13 13 12 12 12 11 11 11 11 11 11 10 11 11 10 10 10 10 10 10 9 10 10 10 10 8 8 9 9 9 9 9 10 9 9 8 9 8 9 8 8 8 9 9 8 8 9 8 9 8 8 8 8 8 9 8 8 8 8 7 8 7 8 8 7 7 8 8 7 0 
7 6 7 7 6 6 6 7 6 6 7 7 6 7 6 7 7 6 6 6 7 7 7 7 7 6 6 6 7 7 7 7 7 7 7 7 7 7 7 7 7 7 7 7 7 7 8 7 7 8 7 7 8 7 7 7 7 8 8 8 8 8 8 7 7 8 8 8 8 7 8 8 8 8 8 8 8 8 8 8 8 8 8 8 9 8 8 9 9 9 9 8 8 8 9 9 9 9 9 9 9 9 9 9 10 9 9 9 9 9 10 9 10 9 10 9 9 10 10 10 11 10 10 10 10 10 11 11 10 11 10 10 11 10 11 11 11 12 11 12 13 11 13 13 11 12 13 12 13 13 13 12 12 13 13 12 12 13 13 13 13 15 13 14 14 14 15 13 14 15 14 14 14 15 15 15 15 15 15 15 15 15 17 17 15 16 16 17 17 16 17 17 20 20 18 17 17 19 18 18 19 19 20 20 18 20 20 21 22 22 22 22 22 22 22 22 23 23 24 26 26 27 27 28 28 28 27 27 27 28 28 29 31 31 33 35 35 36 35 35 34 33 33 32 34 34 35 38 38 40 36 33 33 35 37 37 40 38 39 41 40 43 42 46 48 47 48 51 54 61 78 63 52 51 52 52 52 54 57 59 68 63 55 54 60 58 55 54 55 53 52 53 54 53 51 51 51 50 50 49 48 45 44 44 43 43 41 41 41 41 39 38 36 38 35 36 35 35 35 35 35 35 35 32 32 32 32 32 30 32 31 31 30 30 30 30 30 30 30 31 30 31 33 32 32 31 30 32 32 32 31 32 32 31 31 30 30 30 31 30 30 33 31 31 31 32 32 32 34 33 34 33 36 35 34 35 35 35 37 37 37 37 38 39 40 42 39 40 43 48 46 44 44 44 39 40 39 42 44 49 48 51 56 51 45 41 37 38 36 35 34 32 30 28 27 26 26 25 25 26 25 25 25 25 30 34 26 25 27 27 28 26 27 25 26 26 25 26 24 25 24 24 24 24 24 25 25 27 29 30 31 30 31 30 33 34 32 29 27 30 28 31 37 35 34 34 40 40 34 31 31 30 30 27 25 23 23 21 19 19 20 20 20 21 21 21 23 23 22 22 24 27 24 22 23 21 22 22 23 23 23 23 21 21 22 21 20 19 18 18 18 20 23 20 21 20 18 17 17 16 16 16 16 16 15 15 15 15 15 14 14 13 13 13 12 11 11 12 11 11 10 11 11 11 10 10 10 10 11 10 9 9 9 9 9 9 10 8 9 9 9 9 9 9 9 9 8 9 9 9 9 8 8 8 9 8 8 8 8 9 9 8 8 8 8 8 8 8 8 7 7 7 8 7 8 7 7 8 8 0 
6 7 7 7 6 6 7 7 6 6 7 6 7 6 7 6 7 6 7 7 6 7 7 7 7 7 7 7 7 7 7 7 7 7 7 7 7 7 7 7 7 7 7 7 7 7 7 8 7 8 7 7 7 7 7 8 7 7 7 7 8 8 7 7 8 8 8 8 8 8 8 8 8 8 8 8 7 8 9 8 8 8 8 9 9 8 8 9 8 9 8 8 9 9 9 9 8 9 9 9 9 9 9 9 9 10 10 9 9 9 10 9 9 9 10 9 10 10 10 10 10 10 10 10 10 10 11 11 11 12 11 11 11 10 11 11 12 11 12 12 12 12 12 12 14 13 13 13 13 13 12 12 13 13 12 13 13 13 12 14 14 14 13 14 17 15 15 14 14 14 14 15 15 15 15 15 15 15 15 16 15 15 16 16 16 17 16 17 18 17 17 16 17 18 18 18 18 18 18 18 19 19 19 20 21 21 22 23 23 21 23 23 22 23 22 23 24 22 25 25 27 27 27 28 26 26 26 27 27 28 30 30 30 33 35 35 36 34 34 33 33 31 32 32 34 35 35 37 37 41 35 38 36 35 36 40 41 40 40 42 42 43 43 46 47 49 49 51 56 60 73 69 59 56 57 57 53 54 56 55 65 56 53 51 53 56 54 56 55 53 53 54 54 52 49 49 49 49 49 46 44 44 45 44 42 42 40 40 40 38 37 38 36 36 36 36 35 36 35 35 36 36 34 33 32 31 33 32 31 31 31 29 31 29 29 29 30 30 30 29 29 31 31 30 30 31 32 32 32 33 31 32 33 31 32 31 32 31 32 31 31 31 31 30 32 33 32 32 34 35 35 35 35 36 36 37 35 36 36 38 37 38 38 37 39 40 41 41 41 42 47 45 42 41 39 40 41 43 44 48 49 53 54 51 47 42 41 39 41 37 35 34 35 31 30 28 29 27 26 25 25 25 24 26 28 30 26 25 28 27 27 27 26 26 27 24 25 25 23 24 25 25 26 26 26 26 26 27 29 29 30 30 31 29 33 32 28 27 26 29 27 29 31 32 31 28 37 40 35 33 31 31 32 27 25 23 22 21 21 20 20 19 20 21 21 23 22 23 22 22 23 25 24 21 22 23 22 22 23 26 26 25 21 21 20 19 19 18 18 18 22 20 18 18 21 24 19 17 17 17 16 15 16 16 17 16 15 15 15 15 14 14 13 13 12 12 12 12 12 11 11 11 11 10 10 10 10 10 10 10 10 9 10 9 9 9 9 9 9 9 9 9 9 9 9 8 9 9 8 8 8 8 8 8 8 9 9 8 8 8 8 8 8 8 8 8 8 8 8 7 7 8 8 8 8 7 8 8 7 0 
6 6 7 7 7 6 6 7 6 6 7 7 7 6 6 7 7 6 6 7 7 7 6 6 6 7 7 7 7 7 6 7 7 7 7 6 7 7 7 7 7 7 7 7 8 7 7 7 7 7 8 7 7 8 8 7 8 8 8 7 7 7 7 8 8 8 8 8 8 8 8 8 8 8 9 8 8 8 8 8 8 8 8 8 8 8 8 8 8 8 9 8 8 9 9 10 8 9 9 9 9 9 9 10 9 9 9 9 9 10 10 10 10 9 10 10 10 10 10 10 10 10 10 10 10 11 11 10 11 10 11 11 11 10 12 11 12 12 11 12 12 13 13 13 13 13 13 13 13 12 13 13 13 13 12 13 13 13 14 14 14 14 14 14 15 14 15 15 15 14 14 15 14 16 15 16 16 16 15 15 16 17 17 16 16 17 17 17 18 18 18 17 17 18 17 19 19 20 19 19 18 19 20 21 22 21 21 23 24 24 23 23 22 23 23 21 22 24 23 26 27 27 27 27 27 28 25 27 26 29 30 30 31 33 34 35 35 37 36 34 35 31 32 33 33 36 35 35 36 41 40 41 42 41 38 39 42 42 42 43 46 43 47 48 51 52 52 52 53 58 65 64 65 61 60 59 57 52 53 55 61 58 51 51 53 51 51 56 51 52 48 49 53 48 48 48 48 46 46 46 45 45 45 44 44 41 40 40 40 38 38 37 37 37 36 35 35 36 34 36 34 35 33 32 32 31 32 32 31 31 30 30 29 30 29 30 29 30 29 29 28 30 30 30 30 32 31 31 33 31 32 32 31 32 32 31 30 32 32 31 31 33 32 31 33 33 32 33 34 34 36 36 36 36 36 36 36 36 37 37 38 37 38 38 38 39 40 40 40 44 44 47 42 41 39 40 41 42 44 48 54 55 53 49 48 44 41 39 41 38 36 33 35 34 32 31 29 28 27 27 26 26 26 25 26 26 26 26 26 28 28 25 28 25 25 25 24 24 24 24 24 24 26 28 27 26 28 27 28 28 28 31 31 30 31 31 28 27 26 26 28 28 28 30 29 30 38 36 33 33 33 30 31 27 24 24 22 22 20 20 20 20 20 20 20 21 22 23 22 21 23 23 22 22 22 21 22 22 21 21 23 27 25 21 20 20 19 18 18 18 19 18 17 17 19 22 20 17 18 17 16 15 16 17 16 16 16 15 15 15 16 14 14 13 13 12 13 12 12 11 11 11 11 10 10 11 10 10 10 10 10 9 10 10 10 10 9 9 10 9 9 9 9 9 9 9 9 9 8 9 9 8 8 9 9 9 9 8 8 8 8 7 8 8 8 8 8 8 8 8 8 8 8 8 7 8 8 7 7 0 
7 6 7 6 6 7 6 7 7 6 7 6 6 7 6 6 7 6 7 7 7 7 7 7 7 7 7 7 7 7 6 7 7 7 7 7 7 7 7 7 7 7 7 7 7 7 7 7 7 8 7 8 7 7 7 8 7 8 7 7 7 7 7 8 7 8 8 7 8 8 8 8 8 8 8 8 8 8 8 8 8 8 8 9 8 8 9 8 9 9 9 8 9 9 8 8 9 9 9 9 10 9 8 9 9 9 9 9 9 10 10 9 10 10 10 10 10 10 11 10 10 10 10 11 10 11 10 11 10 11 11 11 12 12 11 12 12 11 12 11 12 12 13 12 14 15 12 13 13 13 13 13 13 13 13 13 13 14 14 13 13 14 14 14 14 14 14 14 14 14 15 15 15 15 16 16 16 15 16 16 17 16 16 17 17 17 17 17 17 17 19 18 19 18 18 17 18 20 19 20 19 20 20 23 23 21 23 23 24 27 24 23 22 21 22 22 22 23 24 25 27 27 26 28 28 28 26 27 28 29 29 30 31 33 35 35 36 37 36 34 34 32 33 34 35 35 35 34 35 39 42 45 44 43 41 40 40 43 44 46 49 47 49 52 51 54 51 53 54 55 58 62 66 64 61 61 57 55 52 53 57 57 54 52 53 52 51 54 48 47 47 46 50 46 45 49 47 44 44 44 43 43 43 42 39 39 38 37 38 37 38 36 35 34 36 35 34 36 36 34 34 34 34 32 33 31 32 30 32 31 30 28 30 29 28 30 30 28 29 29 30 29 29 31 30 32 31 30 32 31 31 31 31 32 30 33 31 32 32 31 32 32 31 32 31 33 33 31 34 33 35 35 36 37 37 38 37 38 37 37 38 38 38 38 38 38 40 39 42 41 40 44 42 41 40 40 41 45 45 50 56 56 51 48 48 44 41 42 40 40 36 34 33 34 33 34 32 29 27 27 27 24 27 26 26 25 27 26 26 28 28 27 27 26 26 24 24 25 24 25 24 26 26 28 28 27 28 28 27 28 30 29 29 30 29 30 30 26 27 27 26 27 28 27 30 33 38 35 32 32 33 32 29 26 26 24 23 21 22 22 21 20 20 21 20 21 21 23 21 21 21 23 24 22 22 21 21 19 19 20 22 26 30 22 21 20 20 18 18 19 18 18 19 18 19 19 19 19 19 17 16 16 16 16 16 15 17 16 15 15 15 14 14 13 13 12 12 12 11 12 11 11 11 10 10 10 10 10 10 10 9 9 10 9 9 9 9 9 9 9 9 9 9 9 9 9 8 8 8 8 9 9 9 8 9 8 8 8 8 8 8 8 8 8 8 8 8 8 7 7 8 8 8 8 7 8 8 7 8 0 
6 7 7 7 6 7 7 7 7 7 6 7 7 7 7 6 6 6 7 7 7 7 7 7 7 6 7 7 6 7 7 7 7 7 7 7 7 7 8 7 7 7 7 7 7 7 7 7 8 7 8 8 7 8 7 8 7 7 7 8 7 8 8 8 7 8 8 8 8 8 8 8 8 8 8 8 8 8 8 9 8 8 9 8 8 8 8 9 9 9 9 9 10 9 9 9 9 9 9 9 9 9 10 10 9 10 9 9 10 10 10 10 10 10 9 10 10 9 10 10 10 10 10 10 11 11 10 11 10 11 10 12 11 11 11 12 12 12 12 12 12 12 13 12 13 13 13 13 13 13 14 14 13 14 13 14 14 14 13 13 14 13 13 14 14 15 14 13 15 14 14 15 15 15 15 16 17 16 16 16 17 17 16 17 17 17 17 17 17 18 18 18 18 20 19 19 20 18 20 19 19 20 21 23 23 24 25 25 26 26 23 24 22 23 23 23 23 23 25 24 27 26 26 27 28 29 29 29 30 29 29 31 32 33 36 34 35 41 39 35 35 34 34 35 35 35 35 35 37 37 40 41 41 39 41 39 42 43 46 47 51 52 52 52 49 48 51 53 52 54 54 61 61 62 62 64 56 54 52 50 54 54 55 54 55 52 51 51 50 45 46 47 49 44 44 44 44 45 43 42 42 42 42 41 39 38 37 37 36 36 36 35 36 37 35 35 34 37 36 35 33 34 33 32 32 32 31 31 31 31 29 28 28 29 29 29 28 27 28 28 29 28 28 30 30 31 30 31 30 32 31 33 30 35 32 32 33 33 32 32 31 33 35 32 33 33 33 34 32 34 34 36 36 37 37 39 37 36 36 38 38 39 39 38 38 38 38 39 39 41 39 41 41 41 41 40 44 45 48 52 55 54 48 44 45 44 46 44 40 38 37 34 32 31 33 32 33 30 28 28 27 27 28 26 26 26 26 27 25 28 27 27 26 26 26 24 26 25 25 24 25 26 26 28 28 28 27 26 27 29 30 30 29 30 28 28 28 29 27 28 27 25 26 28 30 35 36 34 33 33 37 33 29 26 24 23 22 22 21 21 20 21 20 20 21 22 21 22 21 23 22 22 23 21 20 21 20 19 19 19 20 22 28 27 24 22 20 19 20 19 19 19 20 19 20 19 20 21 19 18 16 17 17 16 16 15 15 16 15 15 14 14 13 13 12 13 12 13 12 11 11 11 11 11 10 11 10 11 10 10 10 10 9 10 9 9 9 10 10 9 8 9 9 9 8 9 9 9 9 9 8 8 9 8 9 8 8 9 8 9 8 8 8 9 8 8 8 8 8 8 7 7 8 8 7 7 8 8 7 0 
7 7 7 6 7 6 6 7 7 6 6 7 7 6 6 7 7 6 7 6 7 7 7 7 6 7 7 7 7 6 7 7 7 7 7 7 7 7 7 7 7 7 7 7 7 7 7 7 7 8 7 7 7 7 8 7 8 7 7 8 7 8 7 8 8 7 7 8 8 8 8 8 9 8 8 8 8 8 8 8 9 9 9 8 9 8 8 9 9 9 9 8 9 8 9 8 9 9 9 9 9 9 10 10 9 10 9 9 9 10 10 10 10 9 9 9 10 10 10 11 10 11 10 10 10 10 10 11 11 11 11 11 11 11 12 11 12 12 12 11 12 12 13 13 12 12 14 14 15 14 14 14 13 14 14 13 13 13 14 14 15 15 14 15 13 14 16 15 15 17 15 15 16 15 16 16 16 17 17 16 17 17 17 18 17 18 16 17 18 18 19 19 19 19 19 20 20 20 20 20 20 22 21 21 23 23 24 26 24 25 24 22 22 23 23 23 23 25 25 25 26 26 27 28 28 28 29 30 30 31 29 31 31 33 35 36 35 38 38 37 36 35 36 36 36 37 36 36 38 36 37 38 39 41 40 40 41 43 46 47 47 52 51 50 48 48 50 50 53 54 54 56 63 68 68 62 57 52 52 50 51 54 55 57 59 54 48 48 47 45 47 50 48 43 43 43 44 40 43 43 40 40 39 38 38 37 36 35 34 35 34 35 34 33 36 35 35 34 34 33 33 32 32 32 33 31 32 31 30 30 29 29 28 28 28 28 27 27 28 28 29 27 29 28 28 30 30 31 29 31 31 31 32 30 30 31 31 32 33 33 33 32 35 33 34 35 35 33 33 34 35 34 35 37 37 40 39 37 37 37 39 37 38 38 39 39 39 41 40 40 41 41 42 41 40 42 43 44 49 54 52 51 50 47 47 46 46 45 40 40 37 35 34 33 34 33 32 31 31 28 29 29 28 27 26 26 25 26 27 26 28 27 26 27 26 27 25 24 25 26 26 26 26 26 27 28 27 28 28 28 30 29 28 27 28 27 28 28 28 26 25 26 25 27 29 36 38 36 34 34 37 30 29 26 25 23 24 23 22 23 22 21 21 20 21 22 22 22 21 21 21 21 22 21 20 20 20 20 19 18 20 20 25 25 25 24 21 19 20 18 20 21 19 22 19 19 18 21 22 19 17 19 17 16 16 17 17 15 15 15 14 15 13 14 13 13 12 12 11 11 11 11 11 10 10 10 11 10 10 10 9 9 9 10 10 9 9 9 9 9 9 9 9 9 9 8 9 9 9 8 9 9 9 8 8 9 9 8 8 8 8 8 8 9 8 8 8 8 8 8 7 8 8 8 8 8 8 8 8 0 
6 6 6 6 6 6 6 6 6 6 7 6 7 7 7 6 6 7 6 7 7 7 7 7 7 7 7 7 7 7 7 8 7 8 7 7 7 7 7 7 8 7 7 7 7 8 7 7 7 7 8 8 8 7 7 8 8 8 8 8 7 7 8 8 7 9 8 8 8 8 8 8 8 8 8 8 8 8 8 9 8 8 8 8 8 9 8 8 9 9 9 8 9 9 9 9 9 9 9 9 9 9 9 10 9 10 10 9 10 10 10 10 9 9 10 10 10 9 11 11 10 10 10 11 11 11 11 11 11 11 11 10 11 12 12 12 12 11 12 11 12 12 13 12 13 14 14 14 16 14 13 14 14 14 13 14 13 14 14 14 15 14 14 15 15 15 15 16 15 15 15 15 16 17 17 17 17 16 16 17 17 17 17 18 18 17 18 18 19 18 20 26 19 20 19 20 19 21 20 21 20 21 21 23 22 24 26 25 24 24 24 23 24 23 24 24 24 26 27 28 27 28 27 27 27 28 30 32 31 30 31 31 32 33 34 36 37 39 40 41 39 37 36 36 36 37 36 37 38 39 37 39 40 39 40 40 43 42 44 47 49 49 50 48 48 49 50 50 54 54 59 60 69 70 66 60 55 52 51 52 53 59 60 62 56 49 47 46 47 48 49 48 44 43 43 44 43 39 40 40 38 41 38 40 37 36 35 35 36 35 34 34 36 36 36 37 36 33 31 31 31 33 31 31 31 31 30 29 30 29 29 28 29 29 28 29 28 27 28 28 27 28 28 30 28 29 29 30 30 30 29 31 31 30 30 30 33 33 30 32 34 34 33 35 34 34 36 33 34 34 34 37 37 37 37 39 38 39 37 40 39 40 39 39 38 39 41 40 40 41 42 41 42 42 41 43 43 48 49 52 54 51 49 50 47 44 45 43 41 41 40 38 37 34 33 33 35 33 32 30 30 29 28 29 28 26 27 26 28 28 27 28 27 27 27 27 25 26 27 26 26 26 26 28 27 28 28 28 29 28 30 28 29 28 28 27 28 27 25 25 24 26 27 26 28 32 38 37 36 37 34 31 28 27 27 26 25 24 23 22 21 21 22 21 22 21 22 22 21 20 22 22 20 21 21 20 20 20 20 20 19 22 22 23 24 27 22 19 18 19 19 20 19 20 20 19 18 18 19 17 16 16 16 17 15 16 16 15 15 14 14 14 14 12 14 15 13 13 11 11 12 11 10 11 11 10 10 10 10 9 10 10 10 9 9 10 10 9 9 10 9 9 9 9 9 9 8 9 8 9 8 8 9 9 9 8 8 9 8 8 8 8 8 8 8 8 8 8 8 7 8 7 8 7 8 7 8 7 7 0 
6 6 6 7 6 7 7 6 6 7 7 6 6 6 6 7 7 7 7 7 7 7 7 6 7 7 7 7 7 7 7 6 7 6 6 7 7 7 7 7 7 8 7 7 7 7 7 7 7 7 7 7 8 7 7 7 7 8 7 7 7 8 8 8 8 7 8 8 8 9 8 8 8 9 8 8 8 8 8 8 9 9 8 9 8 8 9 8 9 8 9 9 9 9 8 9 10 9 9 10 9 9 9 10 9 9 9 9 9 9 10 9 10 10 11 10 11 10 10 10 10 10 11 10 11 11 11 10 11 12 10 12 12 11 11 12 11 12 12 12 12 12 12 12 13 13 14 15 29 18 14 14 15 14 14 14 15 15 15 14 14 14 14 14 16 15 15 15 16 16 16 16 16 16 16 17 17 17 17 17 18 18 18 17 18 18 18 19 19 19 20 21 20 20 20 21 20 21 21 20 21 21 21 23 22 24 25 24 23 26 26 24 25 24 24 25 25 27 29 27 28 27 28 29 30 29 30 30 31 32 31 34 33 32 34 36 38 40 41 41 40 39 38 35 35 37 37 39 38 38 39 39 40 39 38 42 45 43 43 48 48 47 49 50 49 48 51 51 54 58 61 63 71 70 62 58 52 52 51 55 56 63 63 61 52 48 48 49 48 49 48 48 44 44 43 42 41 39 40 41 38 37 37 37 36 35 35 35 34 34 34 35 35 35 39 34 36 31 31 31 30 31 32 30 31 31 30 29 29 30 28 30 29 28 28 29 28 28 27 28 29 28 28 29 29 28 28 28 29 31 30 30 31 30 29 29 31 31 34 33 34 34 34 34 33 34 35 35 33 36 36 36 36 36 37 37 38 38 39 38 42 41 40 39 38 39 40 41 42 41 42 42 42 44 47 47 45 47 50 51 52 48 49 49 48 44 44 45 43 40 41 37 38 36 36 36 35 34 33 32 31 29 30 29 28 28 27 26 28 27 27 27 27 28 26 26 28 27 27 27 26 27 27 27 29 27 28 28 28 29 28 27 27 26 27 26 26 27 26 25 24 25 25 24 27 29 36 34 39 35 32 29 28 28 27 28 28 27 24 24 23 21 22 22 22 22 22 22 21 21 21 20 21 20 21 19 19 21 23 25 23 23 22 23 24 26 23 20 21 20 20 19 19 19 21 20 18 17 19 17 16 15 16 17 17 15 15 15 14 15 14 13 13 12 14 14 13 12 12 12 12 12 11 11 10 9 10 11 10 10 10 10 10 9 10 10 10 10 9 8 9 9 9 9 9 9 9 8 9 8 9 9 8 8 8 9 8 8 8 8 8 8 8 8 8 8 8 7 8 7 8 7 7 8 8 7 8 8 7 0 
6 6 6 6 6 7 7 7 6 7 6 7 6 7 6 7 7 7 7 7 7 7 7 7 7 7 7 7 7 6 7 7 7 6 7 7 8 8 7 8 8 7 8 8 8 7 7 8 8 8 7 7 7 7 8 8 7 8 7 8 8 8 9 8 8 8 8 8 8 8 8 8 8 8 9 8 8 8 8 8 8 8 8 9 9 9 8 9 9 8 9 8 9 9 9 9 9 9 9 10 9 9 10 9 10 10 10 10 9 10 9 10 10 10 10 10 11 10 11 11 11 11 10 10 11 11 11 10 11 10 11 12 12 11 12 11 12 12 12 12 13 13 13 14 13 14 14 16 22 16 14 14 14 14 14 13 14 14 15 14 15 14 15 14 15 15 15 15 15 15 16 16 17 16 17 18 16 17 18 18 18 18 18 18 18 19 18 19 19 20 20 20 20 21 22 21 21 22 22 22 21 22 21 23 24 24 27 27 27 25 26 26 25 24 26 25 26 27 27 27 28 27 27 29 30 29 30 29 31 30 32 33 33 34 34 36 36 39 44 42 40 42 37 37 37 37 38 37 38 39 40 39 42 41 41 42 43 43 45 47 49 48 47 49 49 52 51 55 59 64 68 71 71 65 61 56 58 54 57 61 62 65 65 58 52 52 49 52 52 49 48 45 45 44 43 42 40 39 40 39 38 38 38 37 38 35 35 33 35 34 34 35 34 35 37 34 33 31 30 30 32 30 29 30 31 31 31 29 29 30 28 30 29 29 27 28 28 28 28 29 28 29 30 30 29 29 29 29 30 31 29 30 30 30 30 30 30 32 32 31 33 34 33 35 34 35 35 35 36 36 43 38 37 36 36 36 36 38 38 40 42 40 41 40 40 40 39 41 42 44 41 41 42 43 46 48 48 50 51 51 51 49 46 47 45 43 44 44 43 43 42 40 38 37 37 36 36 36 35 34 33 32 31 30 29 30 29 28 28 29 29 28 27 26 29 27 28 29 28 27 27 27 27 27 27 29 29 28 28 30 28 27 28 27 26 26 26 28 28 25 25 25 25 26 27 28 31 34 37 35 33 30 30 28 29 29 29 28 25 25 26 24 21 23 22 23 23 28 24 23 23 20 22 21 19 20 21 20 23 23 24 21 22 24 25 24 21 19 20 19 19 20 19 18 19 21 18 17 18 17 18 15 16 16 15 14 14 14 14 13 14 13 14 13 13 13 13 12 12 11 12 12 11 11 10 11 10 10 9 10 9 9 9 10 9 9 9 9 9 9 9 9 8 8 9 9 8 8 9 9 9 9 9 9 8 9 8 9 8 9 8 8 8 8 8 8 8 8 8 8 8 8 8 7 8 8 7 9 7 0 
7 6 6 6 6 7 7 7 7 7 6 7 7 7 6 7 7 7 7 7 7 7 7 7 6 6 7 6 7 7 7 6 7 7 7 7 7 7 7 7 7 7 7 7 7 7 7 8 8 8 7 8 8 7 8 8 8 8 7 8 8 7 8 8 8 8 8 8 8 8 8 8 8 8 8 7 8 8 8 8 9 8 9 9 9 8 8 9 8 9 9 9 9 9 9 9 9 9 9 9 9 10 9 9 9 10 10 10 10 9 9 9 10 10 10 10 10 11 10 10 10 11 11 10 11 11 10 11 12 12 11 11 11 12 12 11 12 11 11 13 13 13 13 13 13 13 14 14 16 15 15 14 15 14 14 13 14 14 14 15 15 15 16 15 14 16 16 15 16 17 16 16 17 16 17 18 17 18 18 20 20 17 19 18 18 19 20 20 20 21 20 20 20 19 21 23 22 22 22 22 22 22 23 23 24 24 26 29 29 27 27 26 26 25 25 26 27 28 28 29 29 28 29 29 30 29 30 31 30 30 32 32 34 34 35 38 38 37 39 40 39 39 40 37 38 38 39 39 38 40 42 41 42 43 43 43 43 45 46 48 54 50 48 50 51 55 55 60 63 68 69 69 66 64 59 57 57 55 60 62 62 61 62 57 53 51 51 53 50 49 48 45 44 44 44 41 41 39 41 39 38 38 37 37 35 34 34 33 34 32 33 33 33 33 34 34 35 33 32 32 31 31 31 30 30 31 31 30 31 30 29 29 29 30 29 28 28 29 28 28 27 29 27 29 29 30 30 30 30 31 30 31 31 31 31 29 30 32 31 32 32 31 33 35 36 35 37 39 37 37 37 36 36 36 37 36 36 39 38 40 41 40 40 42 39 40 43 43 42 44 43 42 43 44 45 47 50 50 51 50 52 48 46 45 43 42 43 43 42 41 40 38 40 39 42 40 38 37 36 36 34 34 32 32 30 29 29 29 29 29 29 29 29 29 28 28 28 29 29 28 28 29 29 28 29 30 31 31 28 29 28 28 27 28 27 25 25 27 26 26 25 24 25 25 26 28 29 36 36 36 34 30 30 30 29 32 33 32 28 27 25 24 24 24 23 21 24 29 26 22 22 21 21 21 20 20 20 20 21 21 22 22 23 22 22 21 22 21 21 19 19 19 20 20 21 20 18 17 16 17 16 17 18 16 15 16 15 14 13 14 14 14 13 13 13 12 13 12 12 11 11 11 11 11 10 11 10 10 10 10 10 10 10 9 9 9 10 9 10 9 9 9 9 8 9 9 9 8 8 9 9 8 9 8 8 8 9 9 8 8 8 8 9 8 8 8 8 8 8 8 8 8 8 8 8 7 8 8 8 0 
6 6 6 6 7 7 6 6 6 7 7 6 6 6 6 7 7 6 7 7 7 6 7 6 6 7 7 7 7 7 7 7 7 8 7 7 7 7 7 7 7 7 7 7 7 8 7 7 8 7 7 7 7 8 8 8 7 7 8 8 8 8 8 8 7 8 8 9 8 8 8 8 7 8 9 8 9 9 9 8 9 8 9 9 8 9 9 8 9 9 9 9 9 9 9 9 9 9 9 8 9 9 9 10 9 9 9 10 9 9 9 10 10 10 10 10 10 10 10 10 10 11 11 11 10 11 11 12 11 11 11 12 12 12 12 11 12 12 12 13 12 12 13 13 13 13 14 15 15 14 15 14 14 15 15 14 14 15 15 15 16 16 15 15 16 15 15 16 16 17 17 17 16 17 18 18 17 18 19 22 19 20 19 19 20 20 20 19 21 20 21 22 22 21 22 23 23 23 23 23 23 23 25 24 25 27 26 28 30 28 28 28 26 25 26 27 28 28 30 30 30 31 30 29 30 32 32 33 33 33 32 34 34 35 35 36 37 37 40 38 38 39 38 38 37 38 39 39 39 40 42 40 42 43 42 43 45 48 49 50 55 51 51 54 59 56 61 61 64 72 70 67 65 62 60 60 59 58 60 63 62 62 60 55 53 53 52 54 47 47 49 46 46 43 44 43 41 41 39 38 39 40 38 36 35 36 35 31 34 33 33 33 33 32 33 34 33 34 34 33 32 31 32 32 29 31 30 32 31 30 29 30 29 27 27 29 29 28 28 28 28 28 29 30 29 28 30 29 29 30 30 29 29 30 30 29 30 31 31 32 31 30 32 33 38 35 39 38 35 34 35 34 35 34 37 37 38 39 39 41 42 40 39 40 39 41 41 42 42 43 42 43 42 46 47 49 51 52 50 50 52 51 46 45 43 42 40 41 40 41 41 41 38 39 42 41 41 39 40 41 38 36 35 34 32 30 31 29 30 29 30 29 30 29 29 30 28 31 29 28 28 28 27 29 30 30 31 29 30 30 28 29 28 27 25 25 29 28 25 25 25 25 25 25 25 28 30 33 37 36 32 33 32 36 36 36 43 41 34 30 27 25 25 23 24 22 23 24 23 21 22 21 20 21 19 20 20 20 21 22 21 24 23 22 22 21 22 21 19 19 18 19 19 19 21 20 18 17 17 17 17 17 16 15 16 14 13 15 13 14 14 13 12 12 13 12 11 12 12 11 11 11 12 11 11 11 10 10 10 9 9 10 10 10 10 10 10 9 9 9 9 8 9 9 9 8 9 8 9 9 9 9 8 9 9 9 9 8 8 8 9 8 8 8 8 8 8 8 8 8 8 8 8 8 7 7 7 7 7 0 
6 6 6 7 7 6 7 6 7 7 7 6 7 6 7 7 7 7 7 7 7 7 7 7 6 6 6 6 7 7 7 7 7 7 7 7 7 7 7 7 7 8 7 8 7 7 8 8 7 7 8 7 8 8 7 8 7 7 7 8 8 8 8 8 7 8 8 8 8 8 8 7 9 8 9 8 8 9 8 8 9 8 9 9 9 8 9 9 8 9 9 9 9 9 9 9 9 9 9 9 9 9 9 10 10 9 10 10 10 9 10 10 10 10 9 10 10 10 10 11 11 11 12 11 11 11 10 12 11 10 12 11 12 12 12 12 11 13 12 13 13 12 13 12 13 14 14 14 15 14 15 15 14 15 14 14 15 14 16 15 15 16 15 15 16 16 16 16 17 17 17 17 17 17 18 18 18 18 19 22 20 19 20 20 19 20 20 21 22 21 21 22 23 23 25 24 24 24 24 24 24 25 24 27 27 30 26 27 31 30 31 30 28 29 29 29 30 30 31 33 32 31 30 30 33 32 32 34 35 36 37 38 36 34 37 36 37 38 38 38 38 39 39 39 39 39 39 41 40 40 41 42 45 42 44 45 47 49 50 52 56 55 56 58 59 60 59 64 67 71 73 71 64 61 65 61 60 62 64 67 62 60 57 57 55 54 51 49 48 49 47 46 45 44 44 41 41 41 38 37 41 37 39 37 36 35 35 33 33 32 34 32 32 32 33 33 34 33 33 33 33 33 31 30 31 30 31 31 29 29 29 30 30 29 28 28 29 29 29 28 29 29 28 29 29 30 30 31 30 30 30 30 31 30 31 30 30 31 32 29 30 30 33 34 36 35 38 35 36 36 35 34 35 37 37 38 40 39 40 42 41 39 40 38 40 41 41 42 41 40 42 43 43 44 45 47 51 51 51 52 52 52 48 43 42 40 42 40 39 39 40 40 39 40 42 44 44 42 45 47 49 39 35 35 34 33 31 32 30 30 30 31 30 29 30 30 30 32 31 30 30 29 30 30 30 30 30 29 28 29 27 29 27 27 26 26 27 27 26 26 25 26 24 27 27 26 28 31 37 35 32 32 36 38 37 35 42 48 41 35 30 26 26 23 23 22 24 23 23 22 21 21 20 22 23 22 22 21 22 21 23 25 24 23 23 21 21 21 19 19 19 18 19 19 19 19 18 16 15 16 16 16 16 15 15 14 14 14 14 14 13 13 12 13 13 13 12 12 11 12 12 11 11 10 11 11 11 10 10 9 10 10 10 9 10 9 9 10 9 9 9 9 9 10 9 9 9 9 8 8 9 9 8 8 9 9 8 9 8 9 8 8 8 8 8 8 8 7 8 8 8 8 8 7 8 8 8 7 8 0 
6 6 6 7 7 7 6 6 7 7 6 6 6 7 7 7 7 7 7 7 7 7 7 6 7 7 7 6 7 7 7 7 7 7 7 8 6 7 7 7 8 7 8 7 7 8 7 7 7 7 7 8 8 7 8 8 7 8 8 8 8 8 8 8 8 8 8 7 8 8 8 8 8 8 8 8 8 9 8 8 8 8 7 9 8 9 8 9 8 9 9 9 9 9 10 10 9 9 9 10 9 9 10 9 9 9 10 10 9 9 10 10 11 10 11 10 10 11 10 10 10 11 11 11 11 12 11 11 11 11 11 12 12 12 12 13 12 12 12 12 13 13 13 14 13 13 14 14 14 14 14 14 14 14 15 15 15 15 16 15 16 15 15 15 15 17 17 16 16 17 17 16 17 18 18 18 19 19 19 19 20 21 21 21 21 20 21 22 23 22 23 23 22 24 25 25 28 27 26 25 25 26 26 28 28 27 29 30 30 31 31 32 32 31 31 32 32 31 32 34 34 32 33 32 35 34 34 34 36 39 36 36 37 34 36 36 37 40 39 38 38 39 39 38 39 39 40 40 41 42 41 42 46 45 47 48 50 51 54 52 56 57 58 59 64 65 61 62 68 72 72 70 66 66 65 62 60 65 66 66 63 61 59 57 58 54 50 49 51 50 48 46 44 45 45 41 41 40 39 39 38 37 37 37 34 35 35 34 33 33 31 31 32 31 32 31 32 33 34 32 31 33 31 31 31 30 30 31 30 30 29 29 30 30 30 29 29 29 29 29 30 29 28 29 29 30 30 31 31 31 31 31 31 32 29 32 30 30 30 32 31 32 31 33 35 34 36 37 34 35 34 33 36 38 37 38 39 40 39 40 41 40 40 40 40 41 41 42 43 42 42 42 44 46 47 47 50 52 54 53 53 52 47 44 43 40 41 39 41 38 40 38 41 44 44 45 46 46 54 54 57 46 39 36 37 35 34 33 33 32 32 32 31 31 30 32 32 34 34 32 30 31 31 30 30 31 28 29 27 27 28 28 27 27 26 26 26 26 25 27 24 26 25 26 25 27 28 28 34 33 32 33 35 32 30 32 33 43 46 40 36 31 28 24 23 23 25 23 22 22 22 22 21 22 24 22 21 22 22 22 22 23 23 23 21 22 21 20 20 19 19 18 18 18 19 19 18 16 17 17 16 17 16 15 14 15 15 15 14 14 13 13 12 13 13 12 12 12 12 12 12 11 11 11 11 10 10 10 10 10 9 10 10 10 9 10 9 9 9 9 9 9 9 10 8 9 8 9 9 8 9 9 8 8 9 8 8 8 8 8 8 8 8 8 7 7 8 8 8 8 8 8 7 8 7 7 8 8 7 0 
7 7 7 7 7 6 6 7 7 6 7 7 6 7 7 6 7 6 7 7 6 7 7 7 7 6 7 7 7 7 7 7 7 7 7 7 7 7 7 7 7 7 8 7 7 7 8 8 7 7 7 8 8 7 8 8 8 7 8 8 8 8 8 8 8 8 8 8 8 8 8 8 8 8 8 9 9 8 8 9 9 8 9 8 8 9 9 8 9 8 9 8 9 9 9 9 9 9 9 9 10 9 9 9 9 10 10 9 10 10 10 9 10 10 10 11 10 10 11 11 11 10 11 10 11 11 11 12 11 12 12 12 12 12 12 12 12 12 12 13 13 13 13 14 13 14 15 15 15 15 14 16 14 15 14 15 16 15 16 16 16 15 17 16 16 16 17 17 17 17 17 18 18 18 19 18 19 20 19 20 20 21 22 22 22 22 23 22 23 23 23 26 26 25 26 29 33 28 28 26 27 29 31 33 30 31 29 32 32 34 39 33 35 33 32 33 33 34 36 36 36 33 34 33 33 34 34 36 35 38 37 38 39 37 37 36 35 36 40 41 42 41 41 39 40 41 41 40 41 42 41 44 48 49 50 51 51 52 51 54 57 60 63 65 66 64 63 63 67 67 68 70 67 63 59 58 61 66 65 65 61 65 61 58 56 55 51 50 51 51 48 45 44 44 45 42 40 40 37 37 38 36 38 37 36 34 34 32 32 31 32 31 32 32 32 32 32 31 34 34 33 33 31 29 30 31 31 30 31 32 30 29 31 31 30 29 29 29 31 30 30 30 30 30 29 31 31 31 31 30 29 32 31 31 31 30 29 31 32 31 31 30 31 33 35 33 34 35 34 34 36 36 37 39 39 40 41 42 40 39 40 39 39 40 39 42 43 46 47 44 45 46 45 46 48 46 51 53 56 56 54 50 48 46 45 43 41 39 38 40 42 41 42 42 44 45 47 49 50 48 57 52 43 40 40 37 35 36 35 35 33 33 33 32 32 34 33 36 37 35 32 33 31 29 29 30 30 30 28 28 27 28 28 27 27 27 24 25 25 23 24 26 26 26 25 26 25 27 30 34 33 33 29 25 24 25 27 34 43 44 37 35 30 26 24 24 23 24 24 22 22 22 22 23 25 23 23 23 22 21 21 23 23 22 21 21 20 21 19 19 18 18 18 18 17 19 17 16 17 16 18 17 16 14 15 14 15 14 15 13 12 14 12 13 13 12 12 13 11 11 12 11 10 10 10 11 10 11 10 10 11 10 10 10 10 9 10 9 9 9 10 9 10 9 9 9 9 8 9 9 9 8 9 9 8 9 8 9 9 9 8 8 8 8 8 8 8 8 8 8 8 8 7 8 7 8 7 7 8 0 
7 6 6 7 6 6 6 7 6 7 7 7 6 7 7 7 6 7 6 7 7 6 7 7 7 7 7 8 7 7 7 7 7 7 7 7 8 7 8 7 7 7 7 7 7 7 7 8 8 7 7 8 8 8 7 7 8 7 8 8 7 8 8 8 8 8 8 8 8 8 8 8 8 8 8 9 8 8 9 8 8 9 8 9 9 9 9 8 9 9 8 10 9 9 10 9 9 9 9 10 10 10 10 9 10 10 10 10 10 9 10 10 10 10 10 10 10 11 11 11 11 11 11 11 10 11 11 10 11 11 12 11 12 12 12 12 13 13 13 12 13 13 14 13 14 14 15 14 15 15 15 14 15 15 15 15 15 15 14 16 16 16 17 16 17 18 17 17 18 18 18 18 18 18 19 18 19 19 21 21 21 20 22 22 22 24 23 24 24 23 25 25 27 26 28 29 32 30 32 30 31 32 31 32 34 36 37 36 36 35 38 35 35 38 36 37 36 36 38 40 38 38 35 35 37 35 39 37 37 38 36 38 38 40 36 37 36 36 39 41 41 42 41 41 41 41 42 40 42 43 44 45 45 48 51 50 49 52 50 52 55 69 68 71 68 66 64 63 63 63 67 70 65 60 59 56 62 68 65 62 61 64 57 55 55 53 51 49 51 48 46 45 43 43 42 40 40 41 38 38 37 35 36 35 34 34 33 31 31 33 32 30 31 30 29 32 31 32 33 34 33 32 31 30 29 30 32 32 31 30 30 30 29 31 30 31 30 30 30 30 31 31 29 30 29 31 31 31 31 30 31 32 30 30 30 31 32 31 32 32 32 32 33 33 33 31 33 33 34 33 38 39 41 42 41 42 41 42 40 41 40 39 39 41 43 43 46 46 47 44 45 47 45 48 48 47 50 52 55 56 53 52 48 47 46 44 44 40 39 41 42 40 43 45 46 48 48 51 48 45 51 52 49 45 41 39 38 38 36 35 36 36 34 34 34 34 35 36 35 36 34 32 31 31 30 31 29 31 30 28 28 26 28 27 27 27 24 25 24 24 23 24 25 28 26 25 24 26 27 32 31 27 25 25 23 23 24 24 34 48 41 45 34 27 26 24 24 23 25 23 23 22 24 22 24 24 23 23 22 23 22 22 22 22 20 20 21 20 20 18 18 18 19 18 18 18 18 17 17 16 16 17 15 15 15 14 15 14 13 13 13 13 14 13 12 12 11 11 12 11 11 11 11 10 11 11 10 10 10 10 9 10 10 10 9 10 9 9 10 9 9 9 9 8 9 9 9 9 8 9 9 9 8 9 9 8 9 8 8 8 8 8 8 8 8 8 8 7 8 8 7 7 8 8 8 8 8 8 8 0 
6 7 7 6 6 7 7 6 7 7 7 7 6 7 7 7 7 6 7 7 6 7 7 7 7 7 6 7 8 7 7 7 7 7 7 7 7 7 7 7 7 7 7 8 7 8 8 7 8 8 8 7 7 8 8 8 7 7 8 8 8 8 8 8 8 8 8 8 8 8 8 7 8 8 8 8 8 8 9 9 9 8 9 9 9 9 9 9 9 9 9 10 9 9 9 10 9 9 10 9 10 9 10 10 9 9 10 9 10 10 10 10 10 11 11 11 11 10 11 10 11 10 11 11 11 11 11 12 11 12 12 12 12 12 12 12 12 12 13 12 13 12 14 13 14 14 14 14 16 19 15 15 15 15 15 15 15 15 16 17 16 17 17 17 17 17 18 17 18 18 18 18 19 19 19 19 21 20 20 21 21 22 23 24 25 29 25 26 25 25 26 27 27 28 29 32 34 35 33 35 37 35 34 32 34 36 37 37 37 35 38 37 34 36 39 39 38 37 40 41 42 43 40 40 39 39 39 40 37 40 39 40 41 38 38 39 38 39 37 40 41 40 41 40 41 40 40 39 41 44 44 45 45 50 49 49 47 51 49 52 57 77 69 63 60 62 60 60 62 58 62 68 62 56 56 54 57 65 61 58 58 57 56 51 52 49 48 48 48 49 44 42 44 43 42 39 40 39 37 36 36 36 34 35 35 35 33 31 29 31 31 31 30 30 30 32 32 32 34 32 35 34 30 32 30 30 29 30 31 31 30 30 30 30 31 31 30 30 30 30 32 33 30 30 32 32 31 31 32 32 30 31 30 30 31 30 31 31 32 34 32 32 33 34 33 32 31 33 35 34 37 40 45 44 42 41 38 40 41 41 40 41 42 43 46 45 47 46 46 44 47 50 47 48 48 49 49 53 57 52 51 52 51 47 45 46 43 42 41 42 41 44 47 46 48 52 53 52 51 47 51 56 58 53 48 45 42 40 40 39 39 38 37 34 36 33 35 34 34 34 34 33 33 30 32 29 31 31 30 31 29 27 26 26 27 27 25 25 24 26 24 24 24 25 26 24 24 25 27 30 29 25 24 26 26 24 24 26 29 43 41 43 44 29 28 25 24 25 24 24 23 21 22 22 24 25 24 21 22 22 21 22 21 20 20 20 19 19 19 19 19 18 17 18 18 17 17 16 16 16 15 16 15 16 14 15 14 15 14 14 13 13 13 13 12 12 12 11 13 11 12 11 10 10 10 11 10 10 11 10 10 9 9 9 9 9 10 10 10 9 9 9 9 9 9 8 9 9 9 9 8 8 9 8 8 9 8 8 8 8 7 7 8 8 8 8 8 8 8 7 8 8 8 8 8 7 7 8 8 0 
7 6 7 6 6 7 6 7 7 7 7 6 6 6 7 6 7 7 7 7 7 6 7 6 6 6 7 7 7 7 7 7 7 8 7 7 8 8 7 7 7 8 7 7 7 7 7 7 8 8 7 8 8 7 7 7 8 8 7 7 8 8 8 8 8 8 8 8 8 8 8 8 8 9 8 8 8 9 9 8 9 9 9 8 9 9 9 9 9 9 9 9 9 9 9 10 10 9 9 10 10 10 10 10 10 10 10 11 10 10 10 11 10 10 10 10 11 10 10 11 11 10 11 11 12 12 12 12 12 12 12 12 12 12 13 12 13 12 12 12 14 14 13 13 15 14 14 15 15 18 16 15 15 16 15 16 16 15 16 16 17 16 17 17 17 17 18 18 19 18 19 19 20 20 20 21 21 20 21 22 22 23 23 26 29 32 32 28 26 27 28 28 31 32 31 32 35 39 33 34 40 37 34 33 34 36 37 35 35 36 37 39 37 38 39 40 41 41 42 45 48 45 42 45 45 42 44 43 39 42 41 41 41 41 42 40 39 41 41 42 41 41 43 40 40 43 41 41 42 43 44 44 46 48 46 48 48 49 51 52 55 74 77 52 52 62 58 59 57 58 60 66 60 57 55 53 55 62 59 55 58 55 54 50 51 51 48 49 49 46 43 41 40 42 41 40 39 40 36 37 36 37 35 35 34 33 32 33 29 31 30 30 30 30 29 31 32 33 33 33 35 34 31 31 31 31 31 30 31 30 30 30 31 31 31 30 30 32 31 31 33 31 31 31 31 31 31 30 30 31 31 31 31 30 30 30 32 31 32 33 33 32 31 33 33 33 33 32 32 34 35 39 38 40 38 37 37 38 40 40 42 42 43 46 46 48 46 48 46 45 46 50 48 50 48 49 51 52 56 53 52 52 52 49 46 46 44 42 42 41 43 46 48 48 47 48 51 49 51 50 58 66 67 62 57 51 47 44 43 42 40 40 40 40 38 36 38 36 36 36 34 35 34 32 32 32 33 31 32 32 29 29 28 27 27 28 25 26 26 26 25 26 25 24 25 24 24 24 25 26 27 24 26 25 26 26 26 26 30 36 36 37 45 32 28 25 25 24 26 24 23 22 24 23 24 25 22 22 21 22 22 20 20 21 19 20 19 19 19 18 17 17 17 17 18 16 17 16 16 16 15 15 14 15 14 15 14 14 14 14 14 13 13 13 13 13 12 12 11 11 11 12 11 10 11 10 10 10 10 11 10 10 10 11 10 10 9 9 9 8 9 9 8 9 9 9 9 8 8 8 9 9 9 9 8 9 9 9 9 9 8 9 8 8 8 8 8 8 8 8 7 8 8 8 7 8 7 8 8 0 
7 7 7 6 7 6 7 7 7 7 6 7 8 7 6 7 7 7 7 7 7 7 6 7 6 6 8 7 7 8 7 7 8 7 7 7 7 7 7 7 8 8 8 7 7 8 7 7 7 8 8 8 7 7 8 8 8 8 8 8 7 7 8 8 7 8 8 7 8 8 8 8 8 8 8 9 8 8 8 8 9 9 9 9 8 9 9 10 10 9 9 9 9 9 9 9 9 10 10 10 9 9 10 10 9 10 10 10 10 11 10 11 10 10 11 11 11 11 11 11 11 12 11 12 12 11 12 12 12 11 13 12 12 12 12 14 13 12 14 13 14 14 13 13 14 14 14 14 16 15 16 15 16 16 15 16 16 15 17 18 17 18 17 17 18 18 18 19 20 19 20 19 20 20 20 21 21 20 22 22 23 24 24 28 39 33 32 31 31 33 30 31 34 33 31 31 35 37 35 35 36 40 37 35 36 38 35 36 36 40 40 40 38 40 43 43 47 49 55 52 49 48 48 45 45 46 44 42 40 43 43 42 40 40 41 41 42 40 41 39 41 42 41 42 40 41 40 41 43 44 44 44 46 46 46 48 50 47 49 52 56 67 73 59 54 57 58 58 57 54 56 57 60 58 57 56 55 57 57 57 59 58 55 51 50 48 47 47 48 45 43 42 41 40 41 40 38 39 36 34 35 35 35 35 34 32 32 32 30 31 30 31 31 30 30 30 31 32 32 34 34 34 33 32 31 30 29 31 31 30 30 30 30 31 30 30 32 31 32 32 32 32 32 31 32 31 32 31 32 32 31 32 32 31 31 32 31 33 31 31 32 32 33 34 34 32 32 33 33 33 36 41 39 38 39 38 35 37 40 40 40 43 45 47 47 47 48 46 44 44 45 44 47 48 48 47 52 50 54 55 55 57 54 52 49 46 46 43 45 41 43 46 53 48 47 47 47 47 48 52 56 62 61 65 66 60 55 51 49 47 46 48 43 43 43 39 37 36 37 36 36 33 35 32 32 32 31 32 32 30 30 29 27 29 27 27 27 26 26 26 27 25 26 25 25 24 25 24 23 24 24 25 25 28 28 30 29 31 34 38 39 39 36 30 28 27 25 25 25 23 24 23 24 23 23 25 24 22 21 21 21 20 20 20 19 19 19 19 19 18 18 18 17 17 17 17 17 17 16 16 16 15 15 16 14 15 15 14 14 14 13 13 12 12 12 12 12 12 11 12 12 10 11 11 10 11 10 10 10 10 10 9 11 10 9 10 9 9 9 9 9 9 9 9 9 8 9 9 8 9 9 9 8 8 9 9 9 9 8 8 8 9 8 9 8 8 8 8 8 8 8 7 8 8 7 8 8 7 8 0 
6 7 7 6 6 7 7 7 6 6 6 6 6 6 7 7 7 7 6 7 7 7 7 7 7 7 7 7 7 7 7 7 7 7 7 8 7 7 7 7 8 7 8 7 8 7 7 7 8 8 8 8 7 7 7 8 8 8 8 8 8 8 8 8 8 8 8 8 9 7 8 8 8 9 8 9 8 9 8 8 9 9 8 9 9 9 8 9 9 9 9 9 9 10 9 10 10 9 10 9 9 9 10 10 10 10 10 10 10 10 10 10 10 11 11 11 10 10 11 10 11 11 11 11 11 12 12 12 12 11 12 12 12 13 12 12 13 13 13 13 13 13 15 14 14 14 15 14 16 15 16 16 16 16 16 15 16 17 17 18 17 18 18 18 18 20 19 19 20 20 19 20 21 20 21 22 20 23 23 24 23 26 28 31 40 34 35 38 36 36 34 35 35 34 33 32 36 38 36 37 35 37 39 37 36 39 37 38 40 43 45 46 44 44 45 49 53 54 56 59 55 54 50 48 47 46 45 46 45 42 42 41 42 42 41 45 41 40 41 40 42 41 46 41 43 42 41 41 44 42 44 44 48 46 47 48 50 49 49 52 53 59 67 66 60 60 57 54 58 55 54 56 56 59 60 58 55 55 58 61 58 54 50 52 50 47 47 47 46 44 43 41 40 40 39 39 38 36 37 37 36 33 35 34 33 34 33 30 30 31 32 30 30 30 31 31 31 32 33 35 33 33 34 33 32 31 31 30 31 31 30 30 31 30 32 32 32 32 31 33 32 32 32 32 30 32 33 34 32 32 31 32 32 32 32 32 33 32 32 31 32 33 32 32 33 32 32 33 33 36 35 37 37 36 39 37 35 38 37 40 43 44 47 45 45 46 46 43 45 44 44 43 45 47 47 47 49 49 54 57 56 56 54 52 49 47 46 45 47 44 45 45 50 46 42 44 43 44 48 55 57 55 53 54 64 65 62 60 52 49 50 48 47 43 43 42 38 37 38 36 36 34 35 34 33 32 31 30 29 29 29 28 27 27 27 27 26 27 28 26 25 25 25 25 25 24 24 24 24 23 24 26 24 26 28 32 32 34 33 40 40 34 31 29 29 28 27 25 23 24 24 24 23 22 22 25 23 22 22 20 21 20 21 19 19 19 19 18 19 20 19 18 18 18 17 18 17 16 16 16 15 16 15 15 15 15 14 14 14 13 14 13 12 13 13 12 12 12 11 11 10 11 10 10 11 10 10 10 10 9 10 10 9 10 9 10 9 9 9 9 9 10 10 9 9 9 9 9 9 9 9 8 9 8 8 8 9 9 8 8 8 8 9 8 8 8 8 8 8 8 8 9 8 8 7 8 7 8 7 0 
6 7 6 7 6 7 7 7 7 7 7 6 7 6 7 7 7 7 7 6 7 6 8 7 7 7 7 7 7 7 7 7 7 7 7 7 7 7 8 8 8 7 7 7 7 7 8 7 7 7 7 8 8 8 8 8 8 8 8 7 8 8 8 8 8 8 8 8 8 9 9 9 8 8 8 8 8 9 8 9 9 9 9 9 8 9 9 9 8 9 9 9 9 9 9 9 9 9 9 9 9 10 10 10 10 11 10 10 10 11 11 10 10 10 11 11 11 10 10 10 12 11 11 11 11 12 11 12 12 12 12 12 12 13 13 13 13 13 12 13 14 13 14 15 14 14 15 15 16 16 16 17 16 17 16 16 17 17 17 18 17 19 19 18 19 19 19 20 20 20 21 20 20 21 22 22 22 22 25 24 26 27 33 38 45 46 38 38 38 39 43 40 40 38 36 35 37 37 37 38 38 41 41 39 39 41 42 43 47 52 52 57 50 47 49 51 50 50 52 55 57 56 51 46 47 47 43 43 44 41 43 40 42 43 42 42 42 42 43 41 41 41 45 44 43 43 42 42 43 44 45 45 46 46 48 50 48 51 50 50 52 56 61 63 63 63 62 59 57 53 55 57 59 63 60 58 56 57 59 60 59 54 50 52 50 46 47 48 48 44 42 41 42 42 40 38 39 37 37 37 35 35 35 34 34 31 32 31 30 31 30 31 29 28 30 30 31 32 32 33 34 34 35 33 32 31 30 30 31 30 29 30 31 30 31 31 32 33 33 34 33 33 32 32 35 32 32 32 32 32 32 32 32 32 32 33 32 32 33 31 33 35 33 34 33 32 33 33 34 36 38 37 36 36 36 37 37 38 37 41 44 46 46 43 42 44 44 45 43 44 45 43 46 48 46 45 48 50 52 54 53 50 53 54 51 49 47 47 47 43 42 40 42 39 38 43 46 44 47 54 54 47 47 46 49 58 59 63 55 49 49 46 46 43 44 42 40 39 39 39 38 36 34 34 34 32 32 31 31 30 28 28 27 27 27 27 27 26 28 27 27 26 25 25 25 25 25 24 24 24 23 25 24 26 29 30 30 32 32 36 34 31 30 28 29 29 27 25 23 24 23 24 24 22 22 26 26 23 23 22 21 21 20 18 19 18 19 19 20 19 20 19 17 17 15 17 17 17 15 16 15 16 16 16 15 15 15 14 14 14 13 13 13 13 13 12 12 12 11 11 11 11 11 11 10 10 10 10 10 9 9 10 10 10 9 9 9 9 10 9 9 9 10 9 9 8 9 8 9 9 8 8 9 8 9 8 8 8 8 8 8 8 8 8 8 8 8 8 8 8 8 8 7 7 8 8 7 8 7 0 
7 7 6 6 6 7 6 6 7 6 7 7 7 7 7 7 6 7 7 7 7 6 8 8 7 7 7 7 7 7 7 7 7 7 7 7 8 7 7 7 7 7 7 8 7 8 8 7 8 7 7 7 8 7 7 8 8 8 7 8 7 8 8 8 8 8 7 8 9 8 9 8 9 9 9 8 8 9 8 9 9 9 9 9 8 9 9 9 8 9 9 9 9 10 10 9 9 8 10 9 10 11 10 9 10 10 10 10 10 10 11 10 10 11 10 11 11 11 11 11 11 11 12 11 12 12 11 12 12 12 12 13 12 13 13 12 14 13 14 14 13 14 14 14 14 14 14 15 16 15 16 17 16 17 17 17 18 16 18 19 19 19 18 20 19 21 19 20 20 22 24 23 21 22 23 24 24 25 26 26 27 32 39 38 40 47 40 35 39 39 47 43 43 38 37 36 37 37 39 40 42 43 42 44 42 45 47 49 57 63 63 61 58 53 50 50 47 47 49 48 51 52 48 43 42 41 42 45 42 40 41 41 43 44 41 43 43 40 43 41 41 43 43 42 44 42 42 44 44 45 46 44 47 47 49 49 50 50 52 51 53 55 58 64 65 66 60 57 56 56 57 60 64 63 60 57 56 60 60 57 56 55 52 50 49 50 49 46 48 45 43 41 42 41 40 40 39 36 37 35 34 34 34 32 34 32 31 30 32 30 29 30 31 30 31 31 31 32 31 32 33 36 35 32 33 31 30 30 31 31 32 32 31 31 30 31 32 33 32 32 33 32 32 34 35 34 33 33 33 33 33 34 33 32 33 33 32 32 31 32 34 34 34 34 33 34 33 34 35 37 35 36 37 36 36 35 36 36 37 41 42 44 43 42 41 42 43 44 44 45 43 44 46 48 47 47 48 51 53 56 53 50 51 52 55 50 48 47 47 44 43 46 44 40 38 40 44 43 44 50 54 44 40 43 47 49 58 57 51 48 46 45 46 44 45 45 43 40 40 40 39 37 35 33 34 32 30 29 31 30 29 30 26 28 27 26 27 28 29 28 27 25 25 24 24 26 24 25 25 22 22 27 25 24 26 29 29 30 33 34 30 30 32 27 28 25 27 25 24 23 24 23 23 21 21 25 22 24 22 23 21 21 20 19 19 20 19 18 20 21 20 18 17 16 18 17 17 17 15 17 16 16 15 15 14 15 15 14 14 13 13 13 12 12 12 12 13 12 11 11 11 11 11 11 11 11 10 10 10 10 10 10 10 9 9 9 10 10 9 9 9 9 9 9 9 9 9 9 9 8 9 9 8 8 8 9 9 8 9 8 9 8 8 8 9 8 8 8 8 9 7 8 8 8 8 8 7 7 8 0 
6 6 6 7 6 7 6 6 6 7 6 7 7 7 7 7 7 7 7 7 7 6 7 7 7 7 7 7 7 7 7 7 7 7 6 7 7 8 7 7 7 7 7 7 8 7 7 7 7 8 8 8 8 7 8 8 8 7 8 8 7 8 8 8 8 8 8 7 8 8 8 8 8 8 8 8 9 9 9 8 9 9 8 8 9 9 9 9 9 9 10 9 10 9 10 9 10 9 10 10 10 10 10 9 9 10 10 10 10 10 10 10 11 11 10 10 10 11 12 11 12 11 11 11 12 12 12 11 12 12 12 12 12 12 12 13 14 13 13 13 14 13 14 14 14 14 15 15 15 15 16 17 17 17 16 18 17 17 18 19 20 21 21 20 21 20 21 22 22 23 22 22 24 23 25 23 25 25 26 27 31 39 41 37 39 45 43 33 37 38 42 49 48 44 40 42 40 45 45 44 46 48 46 46 45 48 50 55 62 64 69 64 62 62 55 52 47 45 42 43 44 45 45 43 41 42 42 41 41 40 42 43 42 43 44 44 45 44 44 45 44 45 44 47 45 45 44 46 45 47 48 49 51 50 48 50 49 52 52 53 54 57 62 65 67 66 60 59 59 58 59 64 62 59 58 55 62 62 63 56 56 54 51 48 48 51 50 49 48 43 44 45 42 41 40 39 38 35 35 35 35 34 33 33 32 31 31 31 31 30 31 30 30 29 30 30 30 31 32 32 34 35 35 33 32 33 30 31 32 31 31 31 30 31 32 33 33 33 31 32 33 31 32 35 34 33 33 34 36 34 35 34 34 33 36 34 32 30 32 33 35 35 34 34 33 33 32 33 34 36 36 37 35 34 35 35 37 37 38 39 40 44 42 41 43 42 42 43 43 44 44 45 47 45 45 47 47 49 50 52 55 51 51 52 52 49 47 45 46 45 42 47 42 40 38 39 38 39 39 43 47 41 39 41 43 46 52 51 48 45 45 45 45 45 44 45 44 43 43 41 39 37 36 36 35 33 31 31 31 29 28 29 27 27 26 27 26 28 28 28 27 25 24 24 24 26 25 24 24 24 24 27 28 27 29 28 33 32 32 31 28 29 27 28 26 25 24 24 23 22 22 23 21 21 21 23 22 25 24 24 21 21 20 19 18 19 18 20 20 20 19 18 18 16 17 17 17 17 17 15 15 17 16 15 14 14 14 14 13 13 13 13 12 13 13 12 12 12 12 11 12 11 10 11 11 10 10 10 10 9 10 10 9 9 10 10 9 9 10 9 9 9 9 9 8 9 9 9 9 8 8 8 9 8 8 8 9 9 8 8 8 8 8 8 8 8 8 8 8 8 8 8 7 8 8 8 8 7 8 0 
6 6 6 7 6 7 6 6 7 6 6 6 7 7 6 7 7 7 7 8 6 7 7 7 7 7 7 7 7 7 7 8 7 7 7 8 8 8 7 8 7 7 8 7 7 8 9 8 7 8 8 8 8 8 8 7 8 8 8 8 8 8 7 8 8 8 9 9 8 8 8 8 9 8 9 9 9 9 9 9 8 9 9 9 9 8 9 9 9 9 9 10 9 9 9 10 10 10 10 10 10 10 10 9 10 10 10 10 10 10 10 10 11 11 11 11 11 11 11 12 11 12 11 12 12 11 12 12 12 12 13 13 12 13 12 13 13 12 13 14 14 14 14 14 14 15 15 14 15 16 17 16 17 17 17 19 18 18 19 20 21 22 29 22 21 21 23 22 24 23 23 23 25 25 25 26 29 27 29 30 33 43 37 35 38 40 36 35 37 38 45 49 53 48 47 44 44 48 51 50 50 51 50 50 48 46 49 56 52 50 58 51 55 59 54 48 44 42 42 42 41 42 42 41 43 44 45 42 41 43 45 45 43 44 45 45 47 46 42 46 45 46 44 46 47 47 49 48 47 48 50 50 52 49 49 51 53 54 54 54 57 60 69 68 68 64 61 58 60 60 63 66 64 60 60 60 61 64 60 57 57 55 53 52 51 48 50 47 47 45 44 43 44 40 39 41 38 35 36 33 33 33 34 32 32 34 32 31 31 31 30 30 29 30 31 30 31 31 31 32 33 34 37 34 32 32 31 31 31 32 32 31 31 31 32 34 32 31 32 33 33 32 33 33 34 33 33 33 36 35 33 32 34 34 35 35 32 34 31 34 34 35 34 33 32 32 33 35 36 35 35 34 36 35 35 35 36 36 38 39 42 41 43 43 43 43 42 45 46 46 46 46 47 46 47 48 49 49 49 53 54 53 53 51 50 50 46 45 46 45 45 44 40 39 39 37 37 37 38 40 43 39 39 39 41 44 48 49 49 47 45 45 46 46 45 47 46 45 42 42 40 39 36 37 35 33 34 32 32 29 28 28 28 28 27 26 27 29 28 28 27 25 25 26 25 25 26 25 25 25 24 25 30 29 29 30 33 31 29 29 27 30 29 28 26 25 24 23 22 22 22 21 21 22 21 22 22 25 24 22 22 19 18 18 18 18 19 19 21 19 18 18 17 17 17 17 18 17 15 15 16 16 15 15 14 15 14 15 14 14 14 12 13 12 12 12 12 12 12 11 12 11 11 11 10 10 11 10 10 10 10 10 9 10 9 9 9 9 10 10 10 9 9 9 9 9 9 8 9 9 9 9 8 9 8 9 9 8 8 8 9 8 8 8 8 8 8 8 8 8 8 8 8 8 8 8 8 7 8 0 
6 7 7 6 7 7 7 7 6 7 7 7 7 7 6 7 7 7 7 7 7 7 7 7 7 7 7 7 7 7 8 8 7 7 7 7 7 7 7 7 7 8 7 8 7 7 7 7 8 8 8 8 8 9 7 7 8 8 8 8 8 7 9 8 9 8 8 8 8 8 9 9 8 9 8 8 8 9 9 9 9 8 9 9 9 8 9 10 10 9 9 10 9 9 9 10 9 9 10 10 9 10 10 10 11 10 10 10 10 10 10 10 10 11 11 11 12 11 11 11 11 11 11 12 11 12 12 12 12 13 12 13 13 13 13 13 13 13 14 14 14 14 14 14 14 15 15 16 16 16 16 15 16 18 18 17 19 20 20 19 20 24 31 23 24 22 23 23 25 27 24 26 25 26 27 26 28 28 29 32 36 41 39 37 39 39 34 36 38 42 44 49 57 55 50 50 52 52 52 59 54 55 53 52 52 46 47 52 45 41 42 45 44 45 51 45 46 45 42 42 44 43 45 44 44 47 47 44 42 43 46 52 47 48 45 46 46 47 47 44 46 48 46 44 46 45 46 47 48 51 53 51 50 52 52 52 56 56 58 56 61 63 70 66 65 61 64 62 62 59 60 66 66 58 60 63 62 61 60 58 58 55 53 52 50 49 49 47 46 45 45 43 42 40 40 39 38 36 36 34 34 34 34 32 34 34 30 31 32 32 30 30 30 30 30 32 32 32 32 31 34 35 35 34 33 32 33 32 31 32 31 31 32 32 31 32 33 33 34 33 31 34 32 34 34 33 34 33 34 35 34 35 35 34 37 38 35 34 35 35 36 34 33 33 33 33 33 35 33 35 35 37 36 37 37 37 36 38 37 38 40 41 43 43 42 44 42 44 46 46 46 47 45 47 49 47 51 50 53 53 54 55 54 51 49 47 46 45 44 43 43 44 42 38 38 37 36 35 36 37 39 39 37 40 42 40 43 46 47 45 42 43 45 49 50 48 48 45 44 43 40 41 38 36 36 35 35 33 31 31 28 27 26 27 28 28 27 28 30 30 27 26 25 24 26 26 25 25 25 24 25 25 31 29 29 29 29 29 30 28 29 28 26 26 26 25 23 22 21 21 22 21 21 20 21 23 24 23 24 22 20 19 19 19 18 19 19 19 20 19 18 17 17 18 18 17 17 17 16 15 16 15 15 15 15 15 14 15 14 14 14 13 13 12 12 12 12 12 12 11 11 11 10 10 11 11 10 10 10 10 10 10 10 9 9 9 10 9 10 10 9 9 10 9 8 9 9 8 9 9 9 9 9 9 8 8 8 8 8 8 9 8 8 8 8 8 8 9 8 8 8 8 7 8 8 8 8 8 8 0 
6 6 6 6 7 7 7 7 6 7 7 6 7 7 7 7 6 7 7 7 7 7 7 7 7 7 7 7 7 7 7 8 7 7 7 8 7 7 7 7 8 7 7 7 8 7 8 7 8 7 8 7 8 8 8 8 8 8 8 8 8 8 8 8 8 8 9 8 9 9 8 8 8 8 9 9 8 8 9 9 9 9 9 9 9 9 9 9 9 9 9 9 9 9 10 9 10 9 10 9 10 10 10 10 10 10 10 10 10 10 10 10 10 11 11 11 11 11 11 11 11 12 13 11 11 12 12 12 12 13 13 13 13 13 13 13 13 13 15 14 14 14 14 15 15 16 16 16 16 16 16 17 17 18 18 18 19 19 19 20 21 23 35 24 24 25 22 25 26 25 26 27 27 28 28 29 28 31 30 34 39 46 38 37 40 42 38 39 41 46 48 57 56 58 51 54 55 53 57 60 58 59 57 54 55 52 51 50 43 40 40 40 41 43 46 45 44 44 44 44 45 45 43 45 45 44 47 47 45 44 49 54 53 49 46 44 41 46 45 44 41 44 47 45 43 43 45 46 45 48 49 49 52 51 53 56 59 57 60 61 63 65 71 65 61 63 67 61 60 59 63 64 63 56 58 58 62 59 59 60 59 54 50 50 48 48 48 47 43 43 43 42 42 40 40 39 37 36 37 36 34 34 33 33 33 31 31 31 30 32 30 31 31 31 32 32 32 31 31 33 32 35 34 36 36 32 32 31 34 32 32 32 32 33 32 34 32 34 35 34 33 33 33 34 34 33 34 34 35 34 34 35 35 38 38 36 37 35 35 36 35 33 33 33 33 33 35 34 35 36 36 37 37 38 37 37 37 36 38 39 41 40 43 46 45 43 46 48 48 47 47 44 47 48 49 48 49 52 54 57 55 54 55 53 49 48 46 45 44 44 42 43 41 39 38 36 37 35 34 37 35 37 36 37 40 37 44 45 45 44 44 44 46 48 50 51 51 46 45 42 42 40 38 37 37 37 33 33 29 30 29 28 28 28 27 28 28 29 29 28 26 27 26 25 25 25 25 26 27 26 24 27 31 31 30 28 28 29 28 29 29 26 27 26 25 24 24 23 21 21 21 22 22 21 22 25 24 24 24 21 21 20 19 18 19 19 19 21 20 19 17 18 17 17 19 17 17 16 16 16 16 17 16 16 15 15 15 15 14 13 13 13 12 13 12 12 12 13 11 12 11 11 11 10 10 10 11 10 11 11 10 9 10 10 10 10 9 9 9 10 10 9 9 9 9 9 9 9 9 9 9 9 9 8 8 9 8 8 8 9 8 8 8 8 8 8 8 8 8 8 8 7 8 8 7 8 8 8 8 0 
6 6 7 7 7 6 6 7 7 7 6 7 7 7 7 6 7 6 7 7 7 6 7 7 7 7 7 7 7 7 8 7 7 7 7 7 7 7 7 7 7 8 8 7 8 8 8 8 7 7 8 8 7 7 8 8 8 8 7 8 8 8 8 8 8 8 8 8 8 9 9 8 8 9 8 9 8 8 9 9 9 9 9 9 9 9 9 9 9 9 10 10 10 9 9 9 10 10 10 10 10 10 10 10 10 10 11 10 11 10 10 11 11 11 11 10 10 11 11 11 12 12 11 12 12 11 14 12 12 13 12 13 13 13 13 14 14 14 14 13 15 14 15 14 15 15 17 16 16 17 16 18 17 19 19 19 20 19 20 22 23 23 23 24 25 26 26 26 27 27 27 29 31 30 30 29 32 32 32 36 43 48 44 44 46 46 44 44 48 48 50 57 56 57 52 53 53 55 58 60 57 55 53 51 54 53 53 49 43 37 37 38 43 44 45 44 44 44 47 47 47 44 46 45 46 46 50 48 48 47 47 46 50 50 46 45 41 40 40 44 41 41 43 43 44 43 44 45 46 48 49 50 51 50 51 56 60 62 61 67 65 65 68 65 61 63 67 61 59 55 58 58 61 54 55 56 60 58 58 58 55 51 50 49 48 47 46 46 47 44 42 42 41 41 39 38 36 36 35 35 33 34 34 32 33 34 33 32 33 31 30 32 31 31 31 30 32 32 34 32 33 33 34 35 34 32 35 33 32 33 33 34 33 32 33 32 33 34 35 34 35 35 34 35 35 35 35 36 34 35 35 35 36 37 37 35 36 36 36 36 35 34 33 32 34 34 35 36 36 37 36 39 38 37 36 37 38 35 39 39 41 43 46 46 47 46 51 49 50 48 46 46 48 49 52 50 51 55 56 61 57 55 54 52 50 47 45 46 43 42 41 43 44 40 38 36 37 35 34 35 35 35 35 37 37 39 42 45 44 43 42 44 41 46 46 50 52 47 46 45 43 42 41 38 37 36 34 31 30 29 28 28 28 30 29 29 27 29 30 27 27 27 27 27 26 27 28 27 26 25 25 27 31 33 31 31 30 28 28 29 27 27 26 26 25 23 23 21 21 21 21 21 21 22 22 25 26 23 22 20 20 19 19 19 18 19 18 20 20 17 18 20 18 18 18 18 17 17 16 16 16 16 15 15 16 14 15 15 15 14 14 13 13 12 13 12 12 12 11 12 12 11 11 11 10 10 11 10 10 9 9 10 10 10 9 10 10 9 10 10 9 8 9 9 9 9 9 9 8 9 9 9 9 9 8 9 8 9 9 9 7 8 8 8 9 8 8 7 8 8 8 7 8 8 8 8 8 8 7 0 
6 6 7 6 7 7 7 7 7 6 7 7 7 7 7 7 7 7 7 7 7 7 7 7 7 7 7 7 7 8 7 8 8 7 7 7 7 7 8 8 8 7 7 7 7 8 8 8 9 8 8 7 8 8 8 8 8 8 7 8 8 8 7 8 9 8 8 9 8 8 8 9 9 8 9 9 9 8 8 9 8 10 9 9 9 9 8 10 9 9 9 9 9 10 9 10 10 9 10 10 10 10 11 10 10 10 11 11 10 10 10 10 11 11 11 11 12 12 12 12 12 12 12 13 12 12 13 12 12 13 12 13 13 14 13 14 13 13 14 14 14 15 15 17 15 16 16 17 17 17 17 18 18 18 18 19 20 20 21 20 21 22 22 24 24 26 26 29 30 29 31 31 33 32 34 35 33 34 37 41 47 51 53 51 52 51 49 48 48 51 49 55 55 57 54 51 54 57 59 70 62 58 54 52 49 48 46 44 43 38 39 35 40 43 46 46 47 45 49 50 45 44 45 52 57 58 56 49 49 49 44 43 44 47 45 43 39 40 40 43 40 42 42 43 43 45 46 47 47 50 49 48 51 52 53 59 63 66 69 64 64 63 65 59 61 61 65 62 58 55 55 56 58 56 56 55 54 56 57 58 54 52 50 49 47 48 46 47 47 44 44 42 41 40 39 38 37 36 36 34 34 34 34 33 34 32 32 32 33 32 31 32 32 32 32 34 35 33 33 33 33 33 35 35 35 36 33 32 32 34 33 33 32 32 31 34 33 33 33 33 33 35 35 35 35 36 34 36 35 36 35 37 40 37 36 36 36 36 35 35 35 34 34 34 35 34 37 37 37 37 38 36 35 36 37 37 39 39 38 40 43 48 55 56 51 56 55 55 53 50 49 49 47 52 49 49 51 54 62 61 60 56 56 53 52 49 47 46 45 46 42 43 43 42 39 36 35 35 37 34 36 35 34 34 35 40 41 44 43 42 40 40 40 43 45 47 47 49 49 47 45 43 42 40 40 36 36 34 30 30 29 30 30 29 28 28 29 30 30 30 28 28 29 28 28 29 28 27 26 25 27 26 30 34 33 32 30 28 27 28 26 27 25 24 24 23 22 22 21 21 20 21 21 21 22 25 28 24 22 20 20 19 19 18 18 19 19 20 19 20 19 19 18 19 19 18 17 17 16 16 17 18 15 16 16 15 15 13 14 14 14 13 13 13 12 12 12 12 11 12 11 11 11 11 11 11 11 10 10 11 9 10 10 10 10 10 10 9 10 9 9 9 9 9 9 9 9 9 9 9 9 9 8 8 9 9 8 8 9 8 9 8 8 8 8 8 8 8 8 8 8 8 8 8 7 8 8 8 8 0 
6 6 7 6 6 7 6 6 7 7 6 7 7 7 6 6 6 7 6 7 7 7 7 7 7 7 7 7 7 7 7 8 7 7 8 7 8 7 8 7 8 7 8 7 8 8 7 8 8 8 7 8 8 7 7 7 8 7 8 8 8 8 8 8 8 8 8 8 8 8 9 9 8 9 9 9 9 9 9 10 9 9 9 9 9 9 10 9 10 9 9 9 9 9 10 10 9 9 10 11 9 10 9 9 10 11 10 11 10 10 11 11 11 11 12 11 11 11 12 12 11 11 12 12 12 12 13 12 13 13 13 13 13 13 13 14 14 15 13 15 15 15 17 17 15 15 17 16 16 17 17 18 18 19 18 19 20 20 20 22 24 23 23 25 26 28 28 32 35 34 34 36 35 37 40 38 40 39 41 44 49 56 59 61 55 52 49 49 48 50 52 55 55 53 48 50 56 61 63 78 60 57 53 53 47 43 43 40 40 37 37 38 38 42 44 48 48 47 51 49 47 46 50 57 56 64 56 50 47 46 41 40 39 43 45 41 42 39 42 44 42 46 44 44 44 44 48 48 47 49 49 48 53 52 55 58 61 75 64 64 63 62 63 59 60 58 61 63 58 58 55 54 55 58 57 55 55 57 57 57 55 54 50 50 50 49 48 47 47 44 43 44 41 40 38 39 36 36 35 34 34 34 34 33 33 33 33 33 33 32 33 34 34 34 34 35 36 36 35 33 33 33 34 37 36 34 32 33 33 34 33 35 34 33 32 32 33 33 33 34 34 34 34 37 35 36 36 34 36 36 35 38 37 37 36 35 35 37 36 33 35 34 34 35 34 36 37 39 37 35 36 36 35 35 36 38 37 39 41 41 45 49 52 56 56 56 54 59 56 54 50 51 49 51 50 50 53 55 58 60 64 59 58 55 55 51 47 49 48 45 45 42 42 42 38 37 37 36 36 36 36 35 34 36 39 39 41 42 42 41 42 42 41 42 43 44 48 48 49 47 46 45 41 40 39 37 35 33 32 31 30 30 30 31 29 30 29 31 31 29 30 29 29 30 29 32 31 29 28 27 26 28 31 36 35 32 31 28 28 29 27 27 25 24 25 23 23 20 22 20 20 20 21 22 23 25 25 23 22 20 21 19 19 18 18 18 19 19 18 20 18 19 18 19 19 17 18 17 17 16 16 17 17 16 15 15 15 15 15 15 14 13 14 13 13 13 13 12 12 12 11 11 11 10 11 10 11 11 10 10 10 10 9 10 9 10 9 9 9 9 9 9 9 9 9 9 9 10 8 9 9 9 9 9 9 8 9 9 8 8 8 8 9 8 8 8 8 8 7 8 8 8 8 8 7 8 8 8 8 0 
6 7 6 7 6 7 7 7 7 7 7 6 7 7 6 7 7 7 7 6 7 7 7 6 7 7 7 7 7 7 7 7 8 7 7 7 7 7 7 7 7 7 7 8 8 7 8 7 8 8 8 8 8 8 8 8 8 8 8 8 8 8 8 8 8 8 9 8 8 8 9 9 8 9 9 9 8 9 9 9 9 8 8 9 9 9 9 9 9 10 9 9 10 10 10 10 10 10 9 10 10 10 11 10 11 11 10 10 11 11 11 11 11 11 11 11 11 11 11 11 11 11 12 12 13 12 12 12 13 13 13 14 14 14 13 14 14 14 15 14 16 15 15 16 16 16 16 16 17 17 18 19 18 19 19 20 20 21 24 22 22 22 25 26 29 28 31 35 50 55 43 42 43 46 47 45 44 46 49 55 57 61 67 68 62 55 50 48 47 47 51 54 55 51 49 50 63 69 72 64 54 56 58 54 47 42 41 39 40 39 39 38 39 41 40 42 52 46 46 48 50 50 51 48 46 51 55 52 42 41 41 40 40 42 42 42 42 41 42 44 44 46 44 43 46 46 46 48 51 49 49 51 52 54 55 58 63 73 66 61 62 59 59 60 57 58 58 61 61 59 55 56 59 58 57 58 60 61 57 56 53 52 51 49 50 50 50 47 45 44 43 45 44 41 39 39 38 38 37 36 35 36 34 34 33 33 34 33 33 33 34 32 34 33 34 34 33 32 32 31 32 33 36 36 34 34 34 33 34 34 35 33 33 35 34 33 33 33 33 35 34 35 34 37 36 34 35 36 35 36 36 36 40 38 37 34 35 36 35 36 35 36 38 36 35 38 39 41 38 36 37 36 36 36 36 38 40 40 42 41 45 46 48 50 49 47 46 52 56 55 52 49 55 53 51 53 54 57 57 58 61 61 61 55 52 50 51 48 49 45 46 45 42 45 44 39 38 36 37 36 35 36 36 38 39 41 40 43 41 41 41 41 40 42 44 45 46 47 47 46 46 45 42 41 40 38 38 33 32 32 30 30 31 33 32 32 32 32 30 31 29 29 28 29 29 30 32 31 29 27 28 27 31 37 38 35 31 30 28 29 27 27 26 25 25 22 20 21 21 20 21 20 21 22 23 26 24 23 25 22 22 20 19 19 19 18 18 18 18 18 17 18 19 19 19 17 18 16 16 17 17 18 18 16 16 15 15 15 13 14 15 13 14 14 13 12 12 12 12 11 11 11 12 11 11 11 10 10 10 11 11 9 10 10 10 10 10 9 10 9 9 9 9 9 9 9 9 8 9 9 9 8 9 9 9 9 8 8 9 8 8 8 8 8 8 8 9 8 8 8 8 8 8 8 8 7 8 8 7 0 
6 6 7 7 6 7 6 6 7 6 6 7 7 7 7 7 7 7 7 7 7 7 7 7 6 7 7 7 7 7 7 7 7 7 7 8 7 8 7 8 7 7 7 8 7 8 8 8 7 8 8 8 8 7 7 8 8 8 8 8 8 8 9 9 8 8 8 8 9 8 8 9 8 8 9 8 10 8 9 9 9 9 9 9 10 9 9 9 9 10 9 9 9 10 10 9 9 9 9 10 10 10 10 10 11 11 10 10 11 11 11 11 10 11 11 10 12 11 12 12 12 12 12 12 12 12 13 13 12 13 14 13 14 14 14 14 14 14 14 15 15 15 16 16 17 16 18 17 18 18 18 19 19 19 19 19 21 22 22 24 25 24 25 27 30 30 35 46 72 62 58 58 59 60 59 60 55 57 60 60 64 71 71 68 63 54 51 49 50 54 54 52 48 48 47 50 70 68 67 55 49 48 53 49 45 40 41 41 41 40 38 39 40 38 40 39 43 44 44 44 46 47 49 43 42 42 44 49 43 41 40 40 40 43 44 44 45 44 43 44 45 46 44 44 47 50 45 49 51 50 49 51 51 53 56 56 60 63 67 62 62 61 57 58 59 58 59 63 63 60 58 58 60 60 59 59 63 60 57 60 54 50 51 50 49 51 48 47 45 42 42 43 44 41 40 38 38 37 37 36 35 36 34 34 34 32 35 33 33 34 35 34 36 36 36 34 33 32 32 32 34 32 33 34 34 33 35 34 34 33 33 33 33 36 35 34 35 33 35 34 35 36 34 37 36 34 35 37 36 36 35 36 37 38 36 36 35 37 36 36 39 40 40 39 37 37 40 40 38 35 35 37 36 36 36 37 39 41 39 43 43 44 47 47 46 47 44 47 54 55 52 55 56 56 54 52 54 55 53 56 58 62 58 54 52 49 48 47 46 44 42 44 44 41 44 41 37 37 38 36 37 38 37 40 41 41 41 41 42 41 43 42 44 44 41 45 46 47 49 47 45 47 44 42 43 41 38 35 34 31 32 30 30 31 31 32 31 32 31 30 30 33 30 29 27 28 30 30 30 29 29 29 31 33 35 39 34 30 30 29 29 27 25 24 23 22 21 22 21 21 20 20 21 21 22 23 23 23 24 23 22 23 21 20 19 18 18 18 19 17 17 18 18 19 19 18 17 16 18 16 16 17 18 16 15 15 15 15 14 15 13 13 13 14 14 12 12 12 12 12 12 11 11 11 11 11 10 10 10 11 10 10 9 10 9 10 9 9 9 9 9 10 9 10 9 10 9 9 8 9 8 9 9 9 9 8 9 9 8 8 9 8 8 8 8 8 8 9 8 8 8 8 8 8 7 8 7 8 8 0 
6 7 7 6 6 6 7 7 7 7 7 7 7 7 7 7 7 7 7 7 6 7 7 7 8 7 7 7 7 7 8 7 7 7 7 7 7 7 7 7 7 7 8 8 8 8 8 7 8 8 7 8 7 8 8 8 7 8 8 8 8 8 8 8 9 9 8 8 8 8 8 9 10 9 9 8 8 8 9 9 9 9 9 9 9 10 10 9 10 9 10 10 9 9 10 9 9 10 11 10 10 10 10 10 10 10 11 10 11 11 11 11 11 12 11 12 11 12 11 12 12 11 11 13 13 13 12 13 13 13 14 14 14 13 14 14 14 14 15 15 15 16 16 16 17 17 17 18 18 18 18 18 19 19 20 20 21 22 23 23 25 25 28 29 30 36 37 52 78 53 75 73 74 77 78 79 71 73 75 75 78 75 67 64 59 53 55 51 53 54 57 50 48 50 51 53 70 54 57 47 39 40 44 46 42 40 40 40 41 41 40 40 41 41 39 40 41 44 43 41 42 45 46 42 40 40 42 45 43 44 43 40 40 41 43 47 45 44 43 47 47 46 45 44 49 50 48 47 48 49 50 50 51 52 54 55 56 62 67 66 65 61 59 58 59 60 60 64 62 59 59 59 63 62 66 64 59 58 53 58 53 51 49 49 48 49 46 44 44 42 42 41 44 42 40 39 38 39 37 38 37 36 35 34 32 35 34 34 34 34 36 36 36 38 35 34 32 32 32 33 33 34 34 33 33 34 34 34 34 35 35 34 34 35 35 34 34 34 34 34 37 33 34 35 34 35 36 37 36 36 36 35 37 38 38 38 37 36 38 44 44 42 39 39 39 39 39 37 36 35 36 35 35 37 38 37 38 41 41 45 44 47 46 46 47 47 45 47 51 57 53 60 57 56 53 53 54 53 50 52 51 53 54 51 49 46 45 45 46 42 40 42 43 41 42 39 38 39 39 36 36 38 40 41 43 43 44 44 43 42 44 46 46 45 44 47 45 46 49 47 47 49 46 43 43 41 40 38 34 33 31 32 31 32 31 31 30 30 30 31 30 30 29 28 27 28 28 31 31 29 30 30 31 32 34 38 37 33 31 29 27 25 24 23 22 22 20 21 20 20 20 21 19 20 20 22 21 22 23 23 26 24 22 19 18 19 18 18 20 19 18 19 18 18 19 20 16 17 17 17 17 17 18 17 16 15 15 15 15 14 14 13 14 13 14 12 12 12 12 12 13 11 10 11 10 11 11 10 10 10 11 10 10 10 10 10 9 10 9 9 9 10 9 9 9 9 9 9 9 9 9 9 9 9 9 9 9 9 8 8 8 8 8 8 8 8 8 9 8 8 8 8 8 8 8 8 8 8 8 0 
6 6 7 7 7 7 6 6 7 7 7 6 7 6 6 7 7 7 6 7 7 7 7 7 7 7 7 7 7 7 7 7 8 7 7 7 7 7 8 8 7 7 7 8 8 7 8 7 7 8 8 8 8 8 8 8 8 8 8 8 9 8 8 8 8 8 8 9 8 8 8 8 8 8 8 9 9 9 9 9 9 9 9 9 9 10 9 9 10 10 9 10 9 9 9 10 10 10 10 10 10 11 11 10 10 11 10 11 11 11 11 11 11 11 11 11 11 11 11 12 12 12 12 13 12 13 13 13 14 13 13 14 14 14 14 14 15 15 16 15 15 15 16 16 17 16 17 18 18 19 18 20 21 21 21 21 22 23 23 24 29 30 30 32 36 39 44 59 85 75 69 77 82 87 85 90 86 91 84 76 71 65 59 56 50 50 54 52 55 51 53 54 49 51 55 57 63 41 39 37 34 35 42 45 46 41 40 42 41 41 41 42 43 42 45 46 53 47 41 41 42 43 46 44 41 42 42 46 46 46 43 42 41 42 43 43 44 45 45 46 49 47 45 43 46 52 47 47 49 51 48 50 51 51 55 57 57 59 66 69 66 62 62 59 63 62 61 65 60 61 61 59 60 66 63 62 56 53 54 52 51 51 50 50 48 48 46 44 43 42 41 43 44 41 39 38 37 39 38 38 36 36 35 35 35 36 35 34 34 35 39 39 39 37 36 34 34 33 33 33 33 34 34 32 34 33 33 33 36 35 34 36 33 34 34 34 33 35 35 36 36 35 35 37 36 35 37 38 37 37 36 39 38 37 38 38 37 38 39 44 44 41 36 37 39 39 36 37 36 37 35 35 35 37 38 36 40 40 42 45 43 48 43 46 47 46 46 48 53 56 56 58 53 55 49 51 49 53 50 52 50 52 51 50 47 47 45 46 46 44 42 44 41 41 42 40 37 39 39 37 36 38 39 41 42 46 47 50 49 47 52 51 48 48 48 48 47 47 48 51 47 48 46 44 42 43 42 39 36 34 32 33 32 32 31 30 30 31 30 27 28 27 27 27 26 28 29 30 30 29 29 29 32 34 33 37 36 34 33 29 27 26 24 23 21 21 21 21 21 20 20 20 21 20 20 21 21 20 19 19 21 27 23 20 19 19 18 19 18 18 20 19 18 18 19 21 19 16 16 17 17 17 18 17 15 15 15 14 17 15 14 14 13 13 13 12 12 12 12 12 12 11 11 11 11 11 11 11 10 10 10 10 10 9 9 10 9 10 9 9 10 9 9 10 9 8 9 9 9 9 9 9 9 9 8 8 9 8 9 8 8 8 9 8 8 8 8 8 8 8 8 8 8 8 8 8 8 8 8 0 
6 7 7 7 6 7 7 7 6 6 7 7 7 7 6 7 7 8 7 7 7 7 6 8 6 7 7 7 7 7 7 7 7 7 7 8 7 8 8 8 8 8 8 8 7 8 7 7 8 7 8 8 7 8 8 8 8 8 7 8 8 8 8 9 8 9 9 9 8 8 9 9 8 8 9 9 9 9 9 9 9 9 9 10 9 9 10 9 9 10 10 9 9 9 10 9 9 10 10 10 10 10 10 10 10 11 10 10 11 11 11 11 11 11 11 12 12 11 12 12 12 12 13 13 12 12 13 13 14 13 14 13 13 14 15 15 15 15 16 15 16 16 16 17 16 17 18 19 18 19 20 20 20 21 22 23 22 22 24 26 27 29 31 36 37 41 52 86 85 84 71 76 87 86 76 88 95 94 82 72 65 57 53 51 51 50 49 60 61 57 50 52 53 50 54 60 58 40 35 33 32 33 41 45 45 42 41 43 44 40 44 45 47 51 54 52 56 53 45 40 41 42 44 44 43 42 44 44 46 47 45 45 44 47 44 44 42 45 45 42 47 44 43 43 46 49 49 49 50 49 50 50 52 53 57 59 58 62 69 69 67 63 64 69 64 61 61 59 61 63 57 59 59 63 64 62 56 55 56 53 52 50 49 48 48 46 46 46 46 44 43 41 42 42 41 41 37 38 38 38 38 37 36 37 35 36 35 35 36 37 38 39 40 36 35 34 33 32 32 32 32 34 35 35 34 36 36 36 35 37 36 35 36 36 35 34 34 34 34 36 36 36 35 40 36 36 40 37 37 36 35 38 37 38 38 38 37 39 40 43 43 39 37 38 38 37 35 36 37 36 35 35 36 37 39 39 41 41 42 42 43 48 45 43 43 43 45 46 51 54 54 52 50 49 49 49 48 51 46 52 51 52 50 50 48 46 47 47 44 44 46 43 43 39 41 42 38 41 38 37 37 39 38 39 40 43 45 48 48 51 53 54 53 52 52 51 51 48 48 51 51 45 45 45 43 41 44 40 38 33 34 34 34 32 31 29 31 30 29 28 26 27 26 28 27 27 29 29 28 29 30 31 30 33 38 36 37 33 31 28 26 25 24 23 21 21 22 21 21 20 21 21 21 19 20 21 20 20 21 19 20 26 25 22 20 19 19 19 18 18 19 18 19 20 21 19 18 16 17 17 17 16 18 17 16 15 15 15 16 14 14 13 14 13 14 14 12 12 12 12 12 13 12 11 11 11 10 10 10 9 10 10 10 9 10 10 10 9 10 10 10 10 9 9 9 9 9 9 9 9 9 8 9 8 9 8 9 8 8 8 9 8 8 8 8 8 8 8 8 8 8 8 8 7 8 8 8 8 8 0 
6 7 6 7 7 7 6 7 7 7 7 7 7 6 6 7 7 7 6 6 7 7 6 7 6 7 7 7 8 8 7 7 7 7 7 7 8 8 7 7 8 7 7 7 8 8 8 7 7 7 8 8 8 8 8 7 8 8 8 8 8 8 8 8 9 8 8 9 8 9 8 8 9 9 8 9 9 9 9 9 8 9 8 9 10 9 9 10 9 10 10 10 10 10 9 10 9 10 10 10 11 10 10 10 10 11 11 10 11 11 10 11 11 12 11 11 12 12 12 12 12 13 13 12 12 12 12 13 14 14 13 14 14 15 14 14 15 16 16 15 16 15 17 17 18 17 18 19 18 20 20 21 21 21 23 24 22 24 25 27 28 30 35 39 39 44 65 111 90 103 72 77 74 70 72 89 87 83 77 72 64 53 52 52 52 51 54 64 56 55 53 51 54 56 50 54 56 43 35 32 32 34 42 46 46 46 45 50 48 45 45 46 49 57 55 53 48 50 49 41 41 41 41 43 44 45 45 41 42 45 47 45 49 54 51 48 45 43 43 43 44 46 44 43 46 47 49 47 50 51 53 50 53 58 59 61 62 66 69 70 65 64 65 68 63 58 59 58 58 59 59 58 60 63 61 60 59 58 57 55 51 50 50 49 47 46 46 48 46 43 42 41 41 38 40 38 39 37 38 37 37 38 36 36 37 36 36 36 35 36 39 40 42 38 37 34 35 34 34 34 35 35 36 36 35 36 36 36 34 36 36 37 36 36 36 34 35 36 35 36 36 36 39 40 37 37 38 38 36 36 36 40 41 41 41 38 38 38 38 41 39 39 36 37 36 36 36 37 36 36 35 33 36 38 39 39 41 41 42 44 42 46 45 44 43 44 44 45 48 51 48 50 49 48 49 51 46 48 48 56 52 52 52 51 47 46 45 45 43 45 44 43 43 41 42 40 39 38 37 38 38 38 38 39 39 40 41 42 46 49 50 53 53 54 55 57 56 47 52 49 49 48 46 47 44 44 43 43 39 38 38 36 34 32 33 31 29 29 27 28 27 27 26 27 29 30 30 29 29 30 28 31 31 34 39 37 36 34 30 28 26 26 25 23 22 21 21 21 21 21 22 21 21 21 20 20 20 20 22 22 21 25 25 25 21 20 20 22 20 19 21 19 19 20 21 19 17 17 17 17 17 16 17 16 15 16 15 14 15 15 15 14 14 12 13 13 12 12 12 11 12 11 11 10 11 11 11 10 11 10 10 9 10 10 10 10 9 10 9 9 9 9 10 9 9 10 9 9 9 9 9 8 9 8 9 8 9 9 9 8 8 8 8 8 8 8 9 8 8 9 8 8 8 8 8 8 8 8 8 0 
7 7 7 7 7 7 7 7 6 7 6 7 7 7 7 7 7 7 7 7 7 7 7 7 7 8 7 7 7 7 7 7 7 7 7 7 7 7 8 7 7 8 7 8 7 8 8 7 8 8 8 8 8 8 8 8 8 8 8 8 8 8 9 8 9 8 8 9 9 8 9 8 9 9 9 9 10 9 9 9 9 9 10 9 9 9 9 9 10 9 9 10 10 10 10 10 10 11 10 10 10 11 10 10 10 10 10 11 11 11 11 11 12 12 10 11 12 12 12 11 12 12 12 13 13 13 13 14 14 13 14 14 14 14 14 15 16 15 16 16 16 16 18 17 19 18 19 19 19 22 21 23 23 23 23 23 25 25 26 26 30 30 37 40 43 54 76 97 89 95 66 75 70 64 63 65 62 63 66 67 60 54 52 56 55 53 57 62 49 49 54 51 50 48 48 43 46 38 32 32 32 38 39 42 44 40 41 44 43 48 46 45 47 52 40 45 44 44 43 41 39 41 41 40 43 44 44 41 41 41 43 45 47 46 50 52 44 42 43 42 46 48 47 46 45 45 48 49 51 53 54 51 54 59 63 65 67 66 70 64 60 60 61 64 65 61 61 57 58 58 60 61 62 60 61 59 60 62 60 58 53 53 49 49 47 48 48 47 46 42 42 41 40 40 39 39 39 38 37 37 37 37 38 36 38 37 36 38 36 38 41 43 41 38 36 35 35 34 35 35 36 37 36 36 37 36 37 38 37 36 37 36 37 37 35 37 36 36 34 35 36 36 37 40 37 38 39 38 39 39 39 39 41 39 40 38 38 40 40 40 38 39 39 35 35 35 35 37 38 37 37 36 38 38 40 41 41 41 43 44 44 45 45 45 47 45 44 46 47 48 47 48 48 46 51 48 47 47 50 53 52 49 50 47 47 47 43 45 44 46 45 44 43 42 43 41 38 38 37 38 35 39 38 40 39 40 40 42 42 44 48 51 54 50 52 51 58 52 47 48 48 46 48 48 46 45 45 42 39 38 38 37 36 34 33 29 29 30 28 28 27 26 28 28 29 29 30 30 30 28 28 29 29 34 39 38 34 33 29 28 27 28 27 26 23 23 21 22 21 20 21 21 21 21 21 21 21 22 24 24 26 25 28 27 21 21 21 21 20 20 20 20 21 20 19 19 19 17 17 16 17 16 15 16 16 16 16 14 14 14 14 14 13 13 12 12 12 12 12 12 11 11 11 11 11 11 11 11 10 10 10 10 10 9 10 10 10 10 10 9 9 10 9 9 9 8 9 9 8 8 9 8 9 9 10 9 8 9 9 9 8 8 9 8 8 8 9 8 8 8 8 8 8 8 7 8 8 8 7 0 
7 6 7 6 6 6 7 7 6 7 7 7 7 7 7 6 7 7 7 7 7 7 7 7 7 7 7 7 7 7 7 8 8 7 7 7 8 8 8 8 7 8 8 8 7 8 7 8 8 7 8 8 8 8 8 8 8 7 8 8 8 8 9 8 8 8 9 8 9 8 8 8 8 9 9 9 9 9 9 9 9 9 9 9 9 9 9 10 10 10 10 9 10 10 9 10 10 9 11 10 10 10 11 11 10 11 10 11 11 11 11 11 12 11 12 12 12 12 11 12 12 13 12 13 13 13 13 12 14 14 14 14 14 15 14 16 15 16 17 16 17 17 17 18 18 19 19 20 21 21 22 23 22 22 25 24 25 26 27 28 29 31 37 40 47 66 83 86 78 79 68 68 59 52 48 49 51 61 62 60 56 54 55 59 54 55 58 54 44 45 46 41 39 41 37 36 36 34 31 31 32 36 36 38 37 36 35 37 37 41 42 42 42 45 35 36 36 40 41 42 41 39 42 41 41 40 41 38 39 40 39 41 41 42 45 44 48 42 43 44 44 46 47 49 46 46 52 50 50 54 53 51 54 59 60 68 64 60 64 59 58 59 59 62 66 65 59 59 57 59 60 60 61 61 61 61 63 58 60 59 54 51 52 50 46 49 47 47 47 44 42 42 42 41 39 40 39 39 38 37 38 37 37 37 38 38 37 38 39 42 41 43 40 40 35 35 36 34 36 36 37 39 37 36 37 37 38 37 37 37 37 37 38 37 39 36 38 35 35 38 37 39 37 39 37 37 38 38 39 39 40 41 40 38 39 38 39 39 39 39 40 39 39 37 36 37 36 36 35 36 40 38 37 39 41 42 43 45 44 47 46 46 50 48 47 45 45 45 48 48 47 46 46 47 49 50 47 46 51 53 53 50 47 47 45 45 44 43 43 43 44 43 44 43 40 40 38 37 37 36 37 36 36 38 40 39 40 39 43 43 43 48 50 51 47 48 53 49 47 47 47 47 49 48 50 47 46 43 40 39 39 36 36 36 32 29 30 28 28 27 28 26 28 29 28 30 32 30 28 28 27 28 29 31 36 37 33 33 30 29 27 29 30 29 24 22 23 21 22 22 21 21 22 21 22 22 22 22 22 23 25 24 27 27 23 21 20 21 20 20 19 19 19 19 19 19 17 17 17 17 17 16 15 16 16 14 14 14 14 13 14 13 13 13 13 12 12 12 11 12 11 11 10 10 10 11 11 10 11 10 10 10 10 10 10 9 10 9 9 9 9 9 9 9 9 8 9 9 9 9 8 8 9 9 8 9 8 8 8 8 8 8 8 8 9 8 8 8 8 8 8 8 8 8 8 8 8 7 8 0 
7 7 6 7 7 7 7 6 6 7 7 7 7 6 8 6 7 7 7 7 7 7 6 7 8 7 7 7 8 8 8 7 7 8 7 7 7 7 7 8 8 7 7 7 7 8 8 8 8 7 8 8 8 8 8 8 8 8 8 8 8 8 8 8 8 8 9 9 8 9 8 9 9 9 9 9 9 9 9 9 9 9 8 9 9 9 10 10 10 9 11 10 10 10 10 10 10 10 10 10 10 10 11 11 11 11 11 11 11 11 11 11 12 11 11 11 13 12 12 12 13 12 13 13 12 14 14 14 14 14 14 14 14 15 15 15 16 16 17 17 16 17 18 19 18 19 20 20 20 22 22 24 23 24 25 25 28 28 28 28 30 33 36 43 48 61 87 81 73 83 73 71 57 45 41 41 42 49 53 56 58 58 55 56 49 51 49 46 48 44 41 39 37 36 36 34 34 32 32 35 33 34 35 34 36 34 33 33 34 34 34 37 34 36 33 32 35 42 44 43 42 39 42 44 44 44 42 40 38 40 39 40 39 40 43 46 43 44 42 42 43 44 46 48 48 50 47 50 50 50 54 52 53 56 63 67 59 61 60 60 61 59 61 64 67 66 60 61 60 63 61 61 59 61 60 60 60 59 59 62 54 52 51 49 49 48 48 49 48 45 44 44 42 42 40 41 40 38 38 39 39 39 39 38 37 38 39 39 40 43 41 41 40 39 39 37 37 37 37 38 38 37 39 37 37 40 40 40 38 39 37 37 38 38 37 37 35 36 38 37 37 37 38 39 38 37 37 40 40 37 38 38 37 38 38 39 40 42 39 40 40 40 39 40 37 37 36 37 39 37 38 39 38 42 44 46 44 46 48 48 49 52 48 44 45 46 46 47 49 48 49 46 47 49 50 49 47 46 50 53 52 48 49 48 46 44 44 44 43 43 43 45 44 44 42 43 40 41 38 36 36 36 36 36 38 39 38 42 41 43 44 45 48 45 46 49 52 51 47 47 46 45 47 48 49 48 48 48 43 41 37 37 37 35 32 31 30 29 28 29 29 28 27 28 28 29 31 28 28 29 28 28 29 31 38 35 34 33 31 32 28 29 28 30 27 25 24 24 22 22 22 21 21 22 22 23 22 21 23 25 24 23 22 23 22 22 21 21 20 20 19 20 17 18 19 18 16 16 16 16 16 16 15 16 15 15 14 14 14 14 13 14 11 13 12 12 12 12 11 12 11 11 10 11 10 10 10 11 10 11 10 10 10 10 10 9 10 10 9 9 10 10 9 9 9 9 9 9 9 10 9 9 9 9 9 9 8 9 9 8 8 9 8 8 8 8 8 8 9 8 8 8 8 8 8 8 7 8 7 0 
7 6 6 6 7 7 6 7 7 7 8 7 7 7 6 7 7 7 7 7 7 7 7 7 7 7 8 7 7 8 7 8 7 7 7 7 8 7 7 7 8 7 7 7 7 8 8 7 8 8 8 8 8 8 8 8 8 8 8 8 8 8 8 9 8 8 8 9 9 9 8 9 9 9 9 9 9 9 9 9 9 9 10 9 9 8 9 10 9 10 10 9 10 10 10 10 10 10 11 11 11 10 10 10 10 10 11 10 11 11 10 12 12 11 11 12 12 12 11 12 13 12 12 13 13 14 14 13 13 14 14 14 15 15 16 15 16 16 16 18 17 17 18 19 18 19 20 21 21 23 23 24 24 25 27 28 27 29 31 31 32 34 36 41 49 58 87 89 82 84 84 63 49 41 37 39 39 48 52 55 55 54 52 48 48 44 42 44 43 43 40 38 36 35 36 37 34 35 33 34 32 33 33 32 30 32 31 32 32 31 30 31 31 31 31 35 39 39 44 44 44 42 41 46 51 57 51 42 38 38 39 39 41 39 42 42 44 42 43 43 43 45 45 45 47 53 50 48 47 49 51 51 53 58 59 68 65 63 59 59 59 61 61 63 68 62 61 62 60 60 62 59 57 59 58 60 59 59 63 62 57 51 50 51 52 49 48 49 50 46 45 44 45 45 42 40 41 39 39 40 39 40 38 39 37 39 39 39 42 45 42 43 40 41 42 42 39 42 38 41 40 40 39 39 39 41 40 40 40 38 39 39 38 39 39 38 38 38 37 37 36 36 38 40 37 38 38 39 40 39 37 38 38 40 38 41 42 43 43 43 42 39 39 38 35 38 38 39 42 40 39 41 41 44 44 47 45 50 46 51 50 47 44 46 45 45 44 48 47 48 47 49 52 51 49 48 47 46 50 50 52 49 50 47 46 46 44 45 44 44 47 44 44 44 43 41 40 39 40 37 39 37 36 36 38 39 39 39 39 42 43 41 44 44 46 47 48 49 49 48 47 48 48 47 48 50 50 53 51 41 36 36 38 35 32 30 29 31 30 29 29 28 28 28 28 31 31 30 29 29 28 28 29 31 37 34 33 31 32 33 30 28 28 30 29 27 23 21 23 22 21 21 22 23 22 23 23 21 24 24 23 23 22 23 20 20 24 21 18 20 19 18 18 18 19 18 18 17 16 18 17 16 16 15 15 15 14 15 13 14 14 14 13 13 12 12 12 12 12 12 11 12 11 11 11 11 10 10 11 10 10 10 11 10 10 10 10 10 10 9 9 10 9 9 9 9 9 9 8 9 9 8 9 9 9 8 9 8 8 8 8 9 8 9 8 9 9 8 8 8 8 8 7 7 7 8 7 8 7 0 
7 7 7 7 6 7 7 7 6 7 6 7 7 7 7 7 7 7 7 7 7 7 7 7 7 7 7 7 7 7 7 7 8 8 7 7 8 7 8 7 7 8 7 8 7 8 8 7 8 7 8 8 8 8 8 8 8 8 8 8 8 8 9 9 8 8 8 9 9 9 9 8 8 9 9 9 9 9 9 9 9 10 9 9 9 10 9 10 10 10 10 9 10 10 9 10 10 10 10 10 11 10 10 11 11 11 11 11 11 11 11 12 11 12 12 12 11 12 12 12 13 13 12 13 12 13 13 14 14 15 15 15 14 15 15 16 15 17 17 17 17 18 17 21 19 20 21 20 24 24 24 27 27 30 34 31 33 34 32 33 33 35 40 44 51 60 87 106 89 73 67 49 40 38 36 37 40 46 50 55 54 50 47 47 48 43 44 42 39 43 42 40 37 36 37 38 39 36 33 32 30 30 31 30 30 29 30 30 34 31 30 29 30 29 31 33 34 37 38 38 42 43 42 49 52 54 55 44 41 38 39 39 39 40 41 42 43 43 46 45 46 45 44 45 43 52 51 47 49 50 51 52 54 58 60 63 66 61 61 59 60 62 66 63 63 61 60 65 62 60 58 59 59 58 59 61 63 64 65 60 56 53 52 50 51 50 48 48 48 47 46 46 47 46 45 44 44 41 43 41 41 40 40 40 40 40 41 39 41 44 45 43 41 44 43 44 44 42 41 42 41 41 41 41 42 41 41 41 42 40 39 40 41 40 40 38 38 39 38 39 39 38 38 39 39 37 37 40 38 40 39 40 39 39 39 42 42 43 47 44 43 38 39 38 39 39 38 41 47 42 42 43 44 46 46 49 50 47 46 47 46 43 42 44 43 45 47 47 47 47 46 46 51 50 49 49 47 48 52 50 50 49 50 47 47 45 45 45 45 46 47 47 45 47 42 41 43 39 39 37 38 38 37 38 36 38 38 38 41 42 45 45 45 44 43 44 45 47 49 50 47 46 48 49 48 48 52 52 57 42 38 36 35 34 32 31 32 30 30 28 29 29 30 29 31 31 29 31 31 30 29 28 30 33 34 32 29 28 30 35 34 31 31 27 29 31 25 23 22 22 21 22 22 22 22 24 23 22 22 22 22 22 20 21 19 19 20 21 20 19 20 19 18 19 19 19 18 16 17 17 16 16 15 16 15 14 14 14 15 13 13 13 12 13 12 12 12 11 12 11 11 11 10 10 10 11 11 10 10 11 10 10 10 9 10 10 10 10 9 10 9 9 10 9 9 9 9 9 9 9 9 9 8 9 9 8 8 8 8 9 8 8 8 8 8 9 8 8 8 8 8 9 8 8 8 8 8 7 7 0 
7 6 6 6 7 6 7 7 6 6 7 6 7 7 7 7 6 7 6 6 7 7 7 7 7 7 8 7 7 7 7 8 7 7 7 8 7 7 8 8 8 7 8 8 8 8 7 8 8 8 8 8 8 8 8 8 9 8 8 9 8 8 9 9 8 9 8 9 8 8 9 9 8 9 9 9 9 9 9 9 10 9 9 9 10 9 10 9 10 10 10 10 10 10 10 10 10 10 9 10 11 11 11 10 11 11 12 11 11 12 11 12 12 12 12 13 12 13 13 13 13 13 13 13 13 14 13 14 15 15 15 15 14 16 16 16 16 16 17 17 17 18 19 20 19 21 22 24 23 25 26 29 31 38 42 40 39 38 38 38 38 39 42 44 50 58 80 116 93 62 51 44 39 37 36 35 40 46 48 49 51 50 48 43 42 44 40 39 37 39 42 40 42 38 34 35 36 36 34 31 29 29 28 29 27 28 28 28 31 32 30 30 27 30 29 32 33 36 35 32 36 39 39 44 41 48 52 46 42 39 39 40 39 39 39 39 42 42 45 49 48 44 45 46 45 51 50 48 49 50 50 53 56 57 60 64 67 62 60 58 58 61 64 61 61 60 59 63 62 59 59 60 60 61 61 60 62 66 65 60 57 55 55 55 52 49 48 49 47 47 48 49 48 48 47 45 44 44 42 44 41 42 39 42 41 40 41 41 43 44 43 43 43 44 45 45 46 45 43 43 45 42 42 43 41 43 42 42 44 42 42 42 42 40 40 42 41 41 40 39 38 40 40 41 40 38 38 39 41 40 39 40 39 40 39 44 44 45 46 44 41 40 39 39 39 41 41 42 42 47 48 49 48 48 46 49 48 48 44 43 41 41 44 42 44 46 45 47 46 46 45 48 48 51 50 46 46 46 51 49 49 48 51 47 46 48 46 45 46 45 46 45 48 44 44 43 42 39 39 38 39 40 40 39 38 38 39 40 42 43 44 44 45 44 44 45 46 46 47 48 49 48 48 48 46 47 45 46 51 42 38 38 35 35 32 31 30 31 31 29 29 29 32 31 31 30 29 29 30 31 29 31 30 30 31 30 27 26 26 34 37 32 30 29 30 29 25 22 22 22 24 23 21 24 23 25 23 21 21 21 22 20 19 21 21 20 20 19 19 19 18 17 19 20 19 20 19 18 16 17 16 16 15 15 14 14 14 14 13 13 14 14 13 13 13 12 11 12 12 11 11 10 11 11 10 11 11 10 10 9 11 11 9 10 11 10 9 9 10 9 10 9 10 9 9 9 9 8 10 8 9 9 9 8 8 9 9 9 8 9 10 8 9 8 9 9 8 8 8 8 8 7 8 8 8 8 8 8 8 0 
7 6 6 6 7 7 7 7 6 7 7 7 7 7 7 7 7 8 6 7 7 7 8 7 7 7 7 7 7 7 7 7 7 7 8 8 7 8 7 7 8 8 8 8 8 7 8 8 8 8 9 8 8 7 8 8 8 8 8 8 8 8 8 8 9 8 9 9 9 8 9 9 8 9 8 9 9 8 9 9 9 9 10 10 9 10 10 10 10 10 9 10 10 10 10 10 10 11 10 10 11 10 11 11 11 11 11 11 12 11 12 11 12 11 12 12 11 12 12 12 13 12 13 13 14 14 15 14 14 15 14 15 15 16 16 16 16 17 17 19 18 19 19 20 21 23 23 24 25 27 33 38 40 49 44 45 44 44 45 45 44 44 45 48 51 62 78 111 91 62 50 45 40 37 35 36 40 41 46 47 45 44 43 41 41 41 38 35 35 36 36 38 40 36 32 33 34 36 34 31 30 30 29 27 27 26 28 27 28 31 31 30 28 30 29 29 32 32 33 32 32 32 34 36 35 37 44 43 41 40 41 41 37 38 36 40 38 40 42 43 45 43 43 44 44 47 50 51 51 50 50 53 58 58 62 64 66 58 59 56 58 63 64 60 59 58 60 61 62 63 60 62 61 61 60 61 61 65 60 65 58 56 55 55 52 50 49 49 49 48 48 48 48 49 49 47 47 45 45 44 44 44 41 43 42 42 42 41 43 44 42 43 45 46 46 45 48 47 45 44 44 44 46 44 44 42 44 43 43 42 43 43 43 41 42 42 40 40 38 39 40 40 40 39 39 38 40 40 41 41 40 38 41 41 45 49 45 47 43 43 42 41 40 40 41 42 41 45 44 50 52 51 46 47 47 50 50 49 42 40 41 43 45 45 43 45 44 45 46 45 47 48 48 46 45 47 46 49 50 48 50 47 47 45 46 46 47 45 46 46 45 45 43 43 43 43 41 42 40 39 38 39 41 38 40 39 42 43 45 45 46 45 45 46 45 45 46 47 47 45 46 48 49 44 44 46 41 40 49 44 39 38 35 33 33 33 32 32 31 29 31 31 32 32 30 29 29 30 31 31 30 29 28 29 30 28 27 25 26 30 34 38 30 28 29 25 24 23 23 23 23 22 23 23 25 25 23 22 21 20 20 20 20 19 21 20 21 21 19 19 18 17 19 21 20 19 18 16 17 17 16 16 16 15 15 14 14 14 13 14 14 13 14 12 12 11 12 12 11 12 11 11 11 10 11 10 10 10 11 10 10 10 10 10 10 10 10 9 10 9 10 9 9 9 9 9 9 9 9 9 9 9 9 8 9 8 9 9 8 8 8 8 8 8 8 8 8 8 8 8 7 9 8 8 8 8 8 7 8 0 
7 7 7 7 6 7 7 6 7 7 7 7 7 7 8 7 7 6 7 7 7 7 7 7 7 7 7 7 7 7 7 8 8 7 7 7 8 8 7 7 8 7 8 8 8 8 8 8 8 8 8 8 8 8 8 8 8 8 8 9 8 8 9 8 8 8 9 9 8 8 8 9 9 9 9 9 9 9 9 9 9 10 10 9 9 10 9 10 10 10 10 10 9 10 10 10 10 10 10 10 10 10 11 10 10 11 12 11 11 11 11 11 12 12 12 12 13 13 13 13 14 13 13 12 14 14 15 14 15 15 15 16 16 16 16 17 16 18 18 19 18 20 20 21 22 23 25 26 29 31 45 49 46 49 42 42 43 42 45 46 46 49 50 53 57 64 83 89 83 64 56 52 44 39 39 36 40 43 44 47 47 41 39 38 38 38 38 34 35 36 33 34 34 35 32 33 33 34 33 30 30 30 29 26 27 25 26 26 27 28 28 28 29 31 29 28 29 29 31 32 30 30 31 32 34 36 39 42 45 42 42 42 38 38 37 36 38 38 40 44 45 47 45 45 45 46 47 50 52 52 50 51 59 64 66 62 61 57 56 56 57 59 64 62 59 61 59 61 62 62 60 60 61 58 62 62 63 65 64 63 59 57 54 56 53 54 50 51 48 50 51 51 51 51 51 49 50 47 48 47 47 45 44 44 44 44 45 45 44 44 43 45 44 45 43 44 46 47 49 46 46 46 45 44 45 44 44 46 47 46 44 44 42 43 43 41 40 41 40 40 42 42 41 40 40 39 39 41 41 42 40 40 41 42 49 48 45 43 46 43 41 42 41 42 43 44 44 46 50 56 58 48 43 45 49 48 44 42 40 39 42 45 45 44 45 43 45 46 47 47 46 48 47 46 46 47 47 47 47 48 46 46 47 48 48 47 46 43 45 44 45 44 44 43 42 42 40 39 40 38 38 38 40 41 43 41 44 45 47 44 44 47 45 46 45 44 46 46 45 47 47 46 49 45 44 44 42 40 46 45 42 38 35 35 34 33 31 32 31 30 31 30 31 32 32 31 30 29 30 31 30 29 29 28 32 29 30 26 28 29 34 36 33 30 29 26 24 23 23 22 22 22 24 23 25 25 25 23 23 21 20 19 20 19 20 21 21 20 19 18 18 17 18 19 17 17 17 17 17 16 16 15 15 15 14 14 15 14 13 14 13 13 12 12 13 13 12 11 12 11 12 11 11 11 11 11 11 11 11 10 10 10 10 10 10 9 10 10 9 10 10 9 9 9 9 9 9 9 8 9 8 9 9 9 9 9 9 8 8 9 9 9 8 8 8 8 8 8 8 8 8 8 8 8 8 8 8 8 8 0 
7 6 7 6 6 7 6 7 6 7 7 7 8 7 7 6 7 7 7 7 6 7 8 7 7 7 7 7 7 7 7 8 8 7 8 8 8 8 7 7 8 8 8 7 8 8 8 7 7 8 8 8 8 8 8 8 8 9 8 8 8 8 9 8 9 9 8 9 8 9 8 9 9 8 9 9 9 9 9 9 10 9 10 10 10 10 9 10 10 10 10 9 10 10 10 10 10 10 10 10 10 11 10 11 10 11 11 11 12 11 11 12 13 12 12 12 13 13 13 13 13 14 14 14 13 13 14 15 15 15 15 16 16 17 17 17 17 17 18 18 18 21 22 22 25 32 34 29 33 36 45 42 42 40 38 39 35 37 39 44 45 47 51 56 61 72 83 75 75 75 73 60 50 41 40 38 39 43 42 44 42 39 39 37 37 35 35 34 36 32 34 33 33 34 36 36 35 33 31 31 30 29 27 25 25 25 25 25 26 27 26 28 30 31 28 26 29 28 30 31 30 28 30 30 31 34 35 38 43 41 45 48 42 38 37 38 37 38 39 41 44 45 47 48 49 47 46 48 49 52 52 52 56 67 62 59 59 57 58 59 62 63 63 61 59 62 60 59 62 62 60 58 60 61 62 64 62 65 65 65 58 58 55 53 54 51 51 50 52 50 51 51 51 53 50 50 53 51 52 51 51 49 49 47 48 45 46 44 47 47 47 46 45 46 46 46 47 47 48 46 47 45 45 44 45 48 48 49 49 45 45 45 43 43 43 44 41 43 43 43 44 43 40 41 41 40 43 42 44 41 40 42 42 47 46 48 45 41 43 41 42 41 42 42 43 44 47 48 50 50 54 46 43 43 44 48 42 40 39 41 41 41 43 43 46 44 43 45 44 46 46 47 46 48 48 46 46 49 46 45 46 46 47 45 46 45 44 44 44 44 46 44 43 43 43 41 40 39 39 38 38 39 41 41 42 42 46 47 45 44 44 47 47 46 48 49 46 45 47 47 44 46 46 43 44 45 42 44 44 41 40 39 37 36 35 33 33 33 32 30 33 31 31 32 32 31 30 30 29 30 28 30 30 29 31 31 30 32 33 34 34 36 34 30 27 26 26 23 23 24 23 21 22 23 23 25 26 23 21 20 20 19 20 19 21 20 20 19 18 18 17 18 19 19 17 17 16 16 17 17 15 16 15 15 14 14 14 14 15 13 13 13 13 13 13 12 12 11 11 11 11 10 11 11 10 11 11 10 10 10 10 10 10 9 10 9 10 9 9 10 9 10 9 9 9 9 9 9 9 9 9 9 9 8 9 8 9 9 8 8 8 8 9 9 8 8 8 8 8 8 8 8 7 8 7 8 8 7 8 0 
7 7 7 7 6 6 7 6 7 7 7 7 7 7 7 7 7 6 7 7 7 7 7 7 7 7 7 6 7 7 8 7 7 7 8 8 8 8 7 8 8 8 8 8 8 7 8 8 7 8 8 8 8 8 8 8 8 8 8 8 8 8 8 8 8 9 9 9 9 9 9 9 9 9 9 9 9 9 9 10 9 10 9 10 10 10 10 9 10 10 10 10 11 11 10 11 11 10 11 11 11 10 11 12 10 10 11 11 12 11 11 12 12 12 12 12 13 13 13 14 13 13 14 14 14 14 14 15 14 16 17 18 16 15 16 16 18 19 18 19 20 21 21 23 28 40 38 31 36 42 43 44 42 43 39 38 36 37 37 41 44 51 55 61 69 84 84 78 80 81 74 61 48 41 41 38 39 38 40 41 40 38 35 37 35 33 34 32 32 32 33 32 31 32 32 34 37 36 33 32 33 30 26 24 23 24 25 25 24 25 29 29 29 29 28 28 25 27 29 29 30 28 31 30 30 32 32 33 38 42 45 47 46 41 38 37 37 40 38 40 41 44 49 50 46 48 45 47 50 50 52 54 57 61 62 61 56 57 56 60 63 61 62 57 59 63 59 58 58 61 63 58 61 63 60 65 64 64 64 67 61 59 55 55 54 54 50 50 50 52 50 50 51 50 50 55 54 54 55 55 51 50 51 51 50 50 50 49 48 48 49 48 48 48 48 50 49 48 50 49 48 49 48 47 46 48 46 47 48 50 49 48 45 45 45 44 44 43 43 44 42 42 42 41 41 44 45 44 44 41 42 41 43 46 47 48 46 43 43 44 43 42 43 44 46 49 50 51 49 48 48 47 42 43 42 41 40 39 41 41 41 41 40 42 43 42 43 44 45 45 46 47 47 47 47 44 46 46 47 46 48 46 46 48 47 45 47 45 46 44 46 44 42 44 45 41 39 39 38 38 38 40 39 42 42 43 43 46 46 44 44 44 48 47 46 47 47 46 43 45 44 42 43 43 45 45 43 44 42 40 40 39 38 37 37 34 34 34 33 33 31 32 32 32 31 30 29 29 28 29 29 30 29 28 34 33 32 34 38 35 33 30 30 28 27 26 24 23 22 23 22 22 21 23 25 26 23 22 20 20 20 19 19 19 19 22 21 19 20 17 17 17 18 18 17 16 17 16 17 16 16 16 16 14 15 15 14 13 13 14 13 13 13 12 13 13 12 11 12 12 11 11 10 11 11 11 11 11 10 10 10 10 10 10 10 10 10 9 9 9 10 9 9 9 9 9 10 9 9 9 9 9 9 9 8 8 9 9 8 8 9 8 9 8 8 8 8 8 8 8 8 8 8 8 7 8 8 8 7 0 
7 7 7 6 7 7 6 7 7 7 7 7 6 7 7 6 7 7 7 7 7 7 7 7 7 7 7 7 7 6 7 8 7 7 7 7 7 7 7 8 7 8 8 8 8 7 8 8 8 7 8 8 8 8 8 9 8 8 8 8 9 8 9 9 9 8 8 9 9 9 8 9 9 10 9 9 9 9 10 9 9 10 10 10 10 9 10 10 10 10 10 10 11 10 11 9 10 10 10 11 11 11 11 11 11 12 12 11 12 12 12 12 12 12 12 12 13 13 13 13 13 14 14 13 14 13 14 14 15 15 19 18 17 16 16 18 17 18 19 19 19 20 22 24 34 44 29 28 34 45 47 45 44 51 45 41 37 38 38 41 44 52 60 65 78 90 91 85 86 75 63 53 43 42 41 42 43 41 40 37 36 37 36 35 35 32 31 30 31 31 32 33 32 31 32 31 34 35 36 34 31 28 26 25 23 24 23 25 25 26 29 28 26 28 27 26 27 25 27 28 31 29 29 29 30 30 30 32 33 34 39 40 43 39 38 38 37 37 38 39 40 42 46 53 52 46 46 47 50 52 52 55 56 58 65 63 55 57 55 59 63 65 60 56 58 60 61 60 62 62 59 62 64 63 64 65 67 65 63 65 62 62 55 58 56 55 54 52 52 53 50 49 49 50 51 52 52 55 54 55 56 54 53 55 54 55 54 50 50 52 52 49 51 50 50 50 50 51 52 49 50 49 49 48 48 49 48 50 49 49 50 49 48 48 47 44 46 44 44 43 44 46 45 45 45 47 49 44 43 43 42 45 47 48 46 46 46 43 44 43 42 43 45 47 45 46 48 47 47 45 48 44 44 40 40 39 40 41 41 41 42 42 41 43 43 43 46 45 44 42 44 47 48 45 42 46 47 47 46 44 47 46 47 47 47 46 47 44 47 47 47 44 43 44 41 40 39 39 38 39 40 40 39 41 42 43 45 46 46 46 46 46 45 43 44 45 45 48 43 43 42 41 42 42 44 46 46 42 41 40 39 38 38 39 35 37 36 35 34 33 33 33 33 32 32 32 29 29 27 29 29 29 28 28 34 34 34 35 36 32 32 30 30 29 26 25 23 23 23 22 22 23 22 23 26 24 23 21 20 19 20 19 20 20 20 20 20 21 21 18 18 18 18 17 18 18 17 16 17 15 15 16 16 14 14 15 13 13 13 13 13 14 14 13 12 12 11 12 11 12 11 10 10 11 11 11 10 11 10 10 10 11 10 10 9 10 10 10 9 10 9 9 10 9 8 9 9 9 9 9 9 9 8 8 8 9 8 8 8 8 8 9 9 9 8 8 9 8 8 9 8 8 8 8 8 8 8 8 8 0 
6 7 7 7 7 6 7 6 7 7 7 7 7 7 7 7 7 7 7 7 7 7 7 8 7 7 7 7 7 7 7 7 7 8 8 7 8 8 8 7 8 7 8 8 8 8 8 8 9 8 8 8 8 8 8 8 8 8 8 8 9 9 9 8 9 8 8 9 9 9 9 9 9 10 9 9 9 9 9 10 9 9 10 10 10 9 10 10 11 11 10 10 9 10 10 11 10 11 10 11 11 10 11 11 11 12 11 12 11 12 12 12 12 12 13 12 12 12 14 13 14 15 13 13 14 14 15 16 15 15 19 24 18 16 17 17 18 19 19 18 19 21 22 23 32 42 28 30 36 41 50 53 43 46 39 40 40 41 40 44 47 54 70 75 81 86 95 78 68 57 51 46 45 46 42 43 39 42 40 39 37 37 34 34 35 32 30 30 29 30 30 31 31 31 32 31 33 34 37 36 34 28 25 24 25 23 22 24 27 27 28 29 29 28 27 25 26 26 28 29 30 29 30 29 28 28 30 29 31 31 35 36 43 40 39 38 40 37 37 38 41 40 43 48 49 47 48 46 46 51 53 56 59 60 66 61 57 55 57 58 62 62 59 60 60 60 60 59 61 59 62 61 66 65 66 62 62 61 62 63 60 58 57 55 58 56 54 54 53 54 52 50 49 48 50 51 51 53 58 56 57 56 57 59 58 60 58 56 55 54 54 55 52 53 52 52 53 53 53 55 54 50 51 52 51 51 49 50 50 51 52 51 49 50 47 48 47 45 46 43 45 45 44 43 45 46 46 43 45 43 42 45 47 47 47 47 47 44 43 42 42 43 44 46 46 45 48 48 46 46 47 47 44 39 40 40 41 40 42 43 41 40 41 43 43 45 45 45 43 44 45 45 43 44 45 46 46 45 45 46 43 47 48 47 48 46 45 47 48 46 46 45 46 44 42 43 42 40 41 39 40 40 40 42 43 44 45 45 47 47 45 43 43 44 43 43 43 44 42 42 44 45 43 45 45 45 47 47 47 41 40 38 39 38 37 37 37 34 35 35 33 33 32 32 32 32 28 28 28 28 30 28 28 28 34 34 32 32 33 33 32 30 29 29 26 25 23 23 22 23 22 21 22 24 23 23 22 21 20 20 19 20 19 19 18 19 20 20 20 20 17 17 18 17 17 17 18 18 16 16 16 16 15 15 14 15 14 14 14 13 13 13 13 14 13 12 13 11 11 11 11 11 11 10 10 11 11 10 11 10 10 10 10 10 10 9 9 9 10 9 9 9 10 9 10 9 10 10 9 9 9 9 9 9 8 9 8 9 8 8 9 8 8 8 9 8 8 8 8 8 8 8 8 8 8 7 8 8 8 0 
7 6 6 7 6 7 7 6 7 7 7 7 7 7 7 7 7 7 7 7 7 7 7 7 7 7 7 7 8 7 7 7 7 7 7 7 7 8 8 8 7 8 7 7 8 7 8 8 8 8 8 9 8 8 9 9 8 8 8 9 9 8 9 9 9 9 9 8 9 9 9 9 9 9 9 9 9 10 9 9 9 9 9 10 10 10 10 10 11 11 11 10 10 10 10 10 10 10 11 11 11 10 11 11 12 12 11 11 12 12 12 12 11 12 12 13 12 13 12 13 14 13 13 14 14 16 15 14 15 16 17 19 17 17 17 18 18 18 18 20 19 20 22 23 29 33 31 35 40 37 42 48 40 39 37 36 40 45 46 45 50 59 75 78 80 80 81 75 60 56 50 48 48 49 44 41 41 42 42 42 39 37 35 34 35 35 31 29 29 29 30 29 31 31 30 31 31 34 39 39 32 28 26 25 25 23 23 24 25 27 29 30 28 26 25 25 25 26 27 28 29 28 28 28 27 28 29 29 30 30 31 33 39 40 39 42 41 39 38 38 40 40 42 45 47 50 48 47 46 48 51 57 61 62 62 60 60 56 58 59 60 63 59 60 63 62 58 59 60 61 62 64 67 69 64 61 59 56 57 60 59 54 60 55 55 56 57 58 56 55 53 51 50 48 49 49 51 50 53 54 58 57 58 62 61 65 63 61 59 59 60 59 56 57 53 57 56 54 55 56 54 54 53 52 52 52 52 51 53 53 54 54 51 54 51 49 47 47 47 45 47 45 45 47 45 46 45 45 45 43 44 46 45 47 48 48 45 46 43 41 44 44 43 45 45 47 47 50 49 49 50 47 43 39 41 39 40 41 41 39 40 39 39 42 45 44 47 43 42 44 45 46 46 46 46 46 46 45 45 45 46 46 47 48 47 49 47 47 48 48 47 47 45 43 42 41 43 41 41 40 40 41 40 43 44 44 44 45 45 46 45 42 43 44 42 42 44 43 42 44 43 42 43 44 42 42 45 47 50 47 45 40 39 40 37 36 36 36 35 34 32 31 33 31 31 30 29 28 28 30 29 28 28 29 37 36 35 35 32 32 30 29 28 28 25 24 24 23 22 23 21 22 23 24 23 25 23 22 20 19 19 19 18 18 20 19 18 17 19 19 19 17 18 18 18 18 18 17 16 16 16 17 16 15 16 16 15 16 13 13 14 14 13 13 12 12 13 12 12 11 11 11 11 11 10 10 10 11 10 10 10 10 10 10 10 9 10 9 10 9 10 9 9 9 9 9 9 10 9 9 8 9 9 9 8 9 8 8 8 8 8 8 8 8 8 8 8 9 8 8 8 8 8 8 8 8 8 8 7 0 
6 6 7 6 7 7 7 7 7 7 7 7 7 7 7 7 7 7 7 7 8 7 8 7 7 7 8 7 7 8 7 8 8 8 8 8 7 8 8 7 8 8 7 8 8 7 8 8 8 8 8 8 9 9 7 8 9 8 8 8 9 9 8 8 8 8 9 9 9 9 9 9 10 9 8 9 9 10 10 10 10 10 10 10 10 10 10 10 15 14 11 10 10 10 10 11 11 10 10 11 10 11 11 11 12 11 11 12 12 12 13 12 12 13 12 13 13 13 12 14 13 14 14 14 15 14 15 15 16 16 15 16 17 17 18 18 18 18 19 19 20 20 21 22 26 31 34 41 39 33 37 38 36 35 37 36 41 51 52 48 53 62 80 84 76 77 70 70 65 59 50 50 49 49 45 45 44 43 44 42 39 39 36 35 35 34 31 30 29 26 29 30 30 30 31 31 31 33 37 35 32 27 25 25 24 23 24 24 27 25 29 29 27 27 24 24 25 25 25 29 28 30 28 27 26 26 29 30 31 30 30 32 33 36 39 42 43 40 39 41 39 40 40 42 46 47 50 47 47 49 51 55 60 63 59 58 60 56 58 63 61 61 59 61 61 62 57 59 62 64 63 65 68 68 58 56 57 54 54 54 56 55 57 58 53 56 56 57 55 53 55 53 50 50 51 51 50 51 51 51 54 55 57 61 59 66 65 64 67 62 65 64 61 62 60 59 59 60 57 56 57 57 57 55 55 55 55 55 55 53 53 53 54 55 54 50 53 51 49 47 49 47 45 46 46 47 47 47 46 45 44 45 47 51 49 47 43 44 42 43 43 42 45 46 46 46 47 50 49 52 47 43 40 39 39 39 41 42 44 42 41 39 39 40 43 45 45 44 45 46 45 45 45 46 46 46 45 45 46 46 47 49 50 51 52 50 48 48 48 49 48 48 46 45 45 43 44 42 43 43 39 40 43 43 43 44 45 45 44 42 42 43 43 40 41 41 41 42 41 40 41 43 43 44 44 45 44 45 48 47 48 46 41 38 40 39 38 36 34 33 31 34 31 31 31 30 27 27 27 28 28 28 28 30 35 36 34 34 33 30 32 28 28 27 25 24 23 23 22 22 21 21 22 21 22 23 22 24 23 20 20 19 19 19 19 19 19 19 21 22 19 18 18 18 18 19 18 18 16 16 16 16 17 16 16 15 15 15 14 13 14 13 13 13 13 12 13 12 12 11 12 11 11 11 11 11 10 11 10 11 10 10 10 10 10 9 10 10 9 10 9 9 9 9 9 9 9 9 9 9 8 9 9 9 9 9 8 9 9 8 9 9 8 9 8 8 9 8 8 8 9 8 8 8 9 8 8 8 7 0 
6 6 7 7 7 7 7 7 6 7 6 7 7 6 6 7 7 7 7 7 7 7 8 7 7 7 7 7 7 7 7 8 7 8 7 8 8 7 8 8 8 7 8 8 7 8 8 8 8 8 8 8 8 8 8 9 8 8 8 8 8 9 8 8 9 8 8 9 9 9 9 9 9 9 9 8 10 9 9 9 10 10 9 10 10 10 10 13 14 13 11 10 10 10 11 10 11 10 11 11 11 12 11 11 12 12 12 12 12 13 13 12 13 12 12 13 13 12 13 13 14 14 15 15 14 15 15 15 16 15 17 17 17 16 17 18 18 18 19 20 20 21 22 23 26 29 34 42 37 34 37 37 36 36 36 38 48 54 52 51 56 63 75 75 69 68 70 68 56 56 52 50 51 51 46 46 44 43 45 44 41 44 37 35 36 34 31 31 30 30 30 30 29 30 31 31 32 32 38 35 31 28 27 24 24 23 23 24 26 27 30 28 26 24 23 23 24 25 27 27 28 31 29 26 25 26 29 27 29 29 31 31 30 33 34 39 40 39 37 40 40 39 40 41 43 47 49 47 46 48 52 54 61 61 56 56 56 57 58 61 62 59 59 59 62 63 61 62 62 63 67 71 68 64 58 58 56 56 53 54 56 56 57 54 51 52 53 53 55 55 57 56 54 53 52 55 51 51 51 52 55 54 58 57 56 65 69 67 66 65 67 69 65 68 65 64 67 67 63 59 58 60 61 59 59 60 57 57 56 55 55 55 54 56 57 56 52 53 51 48 49 48 47 48 48 48 51 48 45 46 47 47 50 51 46 46 45 43 43 43 42 43 45 46 51 48 51 51 51 51 44 42 40 38 39 38 40 41 43 41 41 40 39 42 45 44 45 43 44 46 45 45 46 45 48 47 45 46 47 47 47 52 54 54 52 52 52 49 49 51 51 48 47 46 44 44 45 44 41 43 43 44 42 44 46 43 42 43 43 43 42 41 40 40 40 42 42 42 40 42 42 43 45 45 44 44 43 44 47 48 49 45 44 41 40 41 38 37 36 34 32 32 31 31 30 29 28 28 28 29 29 29 28 30 35 39 34 35 33 32 29 29 26 25 25 23 23 23 22 22 22 21 22 21 22 21 22 25 21 20 21 20 21 20 19 20 19 19 21 21 19 19 18 18 19 18 21 16 16 17 16 15 17 16 16 16 14 15 14 12 13 14 13 13 13 13 12 12 12 12 11 11 10 10 10 10 10 11 10 10 10 10 10 10 9 10 10 10 10 10 9 9 10 10 9 9 9 9 9 9 8 9 9 9 9 8 8 8 8 9 9 9 9 8 8 8 8 8 8 7 8 8 8 8 7 8 8 8 8 0 
7 7 7 7 7 7 6 7 7 7 7 7 7 7 7 8 7 6 7 7 7 7 7 7 7 7 8 7 7 7 7 8 8 8 7 8 7 8 7 7 8 8 8 8 8 8 7 8 8 8 8 8 8 9 7 8 8 8 8 9 8 9 8 9 9 8 9 8 9 9 9 9 9 9 10 9 9 10 10 9 10 10 9 10 10 10 10 11 11 11 10 10 10 10 10 10 11 10 12 10 10 11 11 11 12 11 12 12 12 12 12 12 13 12 13 12 13 13 13 14 14 14 15 14 15 15 16 15 15 15 16 16 16 17 18 18 18 18 19 20 21 22 23 22 27 29 33 40 42 39 37 40 36 37 40 42 54 62 57 52 59 65 71 69 61 65 65 59 55 50 49 52 55 50 47 46 43 42 44 46 46 49 40 39 35 34 32 33 32 31 30 31 31 31 32 33 31 31 37 32 31 26 27 27 26 26 24 24 26 26 29 27 26 25 23 24 24 25 27 28 27 28 27 26 25 27 28 26 28 29 29 29 30 33 33 36 41 41 42 41 38 39 40 40 41 45 50 49 48 50 49 55 61 61 55 52 54 56 58 59 62 58 59 61 61 59 59 59 62 62 70 74 67 61 57 54 56 56 58 56 55 56 54 52 51 53 53 53 53 53 54 55 54 56 58 59 57 54 52 53 55 57 55 55 56 59 61 64 65 67 71 72 69 71 75 79 75 73 69 65 64 63 64 61 62 59 61 59 58 58 61 58 59 61 58 59 57 56 52 51 52 51 48 49 51 50 48 48 47 47 48 49 50 49 45 45 44 43 43 42 44 44 48 46 52 53 54 51 52 49 44 39 38 39 40 39 39 40 40 41 41 40 40 42 45 44 42 43 44 43 43 44 45 48 49 47 46 46 47 49 50 53 54 51 53 54 51 48 51 50 49 50 46 49 47 48 47 46 45 46 45 44 44 46 44 44 43 45 43 45 43 43 43 41 42 40 42 43 44 43 43 41 44 44 47 46 47 46 46 47 50 45 44 44 44 45 42 40 38 35 32 32 31 30 30 29 28 27 30 30 30 28 30 33 36 34 33 33 32 30 27 28 26 25 24 22 23 22 23 23 21 22 22 21 22 21 22 26 22 21 21 22 21 22 20 20 19 20 21 22 20 19 18 18 19 18 18 16 17 17 15 16 15 14 15 14 14 14 13 13 13 14 13 13 12 12 11 12 13 12 12 11 10 11 10 11 10 11 10 10 11 10 10 10 11 10 10 9 10 10 10 10 10 9 9 9 8 8 9 9 9 8 9 9 9 8 8 9 9 8 9 8 8 8 9 8 8 8 8 9 8 8 7 7 8 7 8 8 8 0 
6 7 6 6 7 7 7 7 7 7 7 6 7 7 7 7 7 7 7 7 7 7 7 7 6 7 7 7 7 8 8 8 7 8 8 8 8 7 7 8 7 7 7 7 7 7 8 8 8 8 8 8 8 8 8 9 9 9 8 8 8 8 9 8 9 8 9 9 9 9 8 9 9 9 9 9 9 9 9 10 9 9 10 10 10 10 10 10 11 11 11 10 10 10 10 11 10 11 11 10 11 12 11 11 12 12 11 12 12 12 12 12 12 14 13 13 13 14 14 15 14 15 15 15 14 16 15 15 16 16 17 17 17 17 17 18 18 19 20 21 21 23 22 24 29 32 32 39 39 37 39 40 40 40 44 50 68 76 68 57 61 69 66 60 54 61 52 48 51 45 45 50 53 52 48 48 44 45 49 49 48 50 42 43 36 37 38 36 34 32 31 30 32 32 33 34 31 34 35 31 31 27 28 27 25 26 26 25 27 28 27 25 25 23 24 23 25 26 26 28 27 26 26 26 26 27 27 26 28 27 27 29 30 32 31 34 38 42 42 42 40 38 39 40 42 43 47 49 48 49 51 56 60 63 56 54 54 55 58 59 60 58 59 60 59 58 60 64 63 63 72 74 70 63 63 57 59 60 57 58 56 54 54 51 50 50 52 52 50 52 53 54 53 56 59 60 61 57 53 53 54 55 56 52 53 57 58 61 62 65 70 72 74 79 84 84 82 80 79 69 68 68 68 65 65 63 62 62 63 64 64 63 62 61 62 60 60 55 55 54 54 52 49 50 52 52 49 47 49 48 48 50 51 50 47 43 44 43 43 43 44 45 45 48 51 58 54 48 48 44 41 40 40 38 38 38 39 40 39 39 41 40 40 43 42 41 43 43 45 43 44 45 47 48 48 49 47 52 49 48 49 50 53 53 51 50 51 50 50 51 48 47 46 47 48 47 45 46 48 46 46 45 45 44 43 44 45 45 44 45 42 44 42 41 43 42 41 42 42 43 42 42 42 44 46 44 44 45 46 47 49 45 43 44 46 51 39 39 37 36 34 33 31 30 29 30 29 29 29 29 28 29 31 35 36 34 34 33 31 29 27 26 26 27 23 24 22 23 23 24 22 23 24 23 24 23 23 26 23 21 21 21 21 21 19 19 20 19 19 20 18 19 19 18 18 17 17 16 17 17 16 16 16 15 15 15 15 14 14 14 13 14 12 13 12 13 12 11 11 11 12 11 11 11 10 11 10 10 10 10 9 11 10 9 10 10 9 10 9 10 9 10 10 9 9 9 9 9 9 9 8 9 9 8 8 9 9 9 9 8 9 9 8 9 8 8 8 8 8 8 8 8 8 7 8 8 7 8 8 0 
7 6 7 7 6 6 7 7 7 7 7 7 6 7 7 7 7 7 7 7 7 7 7 7 7 7 7 7 8 7 7 8 7 8 8 8 7 7 8 8 8 8 8 8 8 8 8 8 8 8 8 8 8 8 8 8 8 9 9 8 8 8 8 9 9 9 8 10 9 8 9 9 9 10 9 9 9 9 9 10 10 9 10 10 10 10 10 10 10 11 11 10 11 11 10 11 11 11 11 11 11 12 11 11 12 12 12 12 12 13 12 12 12 14 13 13 13 14 14 14 16 15 14 14 15 15 15 16 16 16 17 17 18 19 17 18 19 20 21 20 21 22 24 25 27 31 33 37 42 38 37 39 43 43 52 70 80 76 68 58 59 67 61 52 52 56 49 48 47 43 44 49 54 56 53 49 48 51 52 50 49 53 47 43 39 41 43 38 36 34 31 32 30 31 34 32 31 33 33 31 31 28 26 26 24 25 26 26 27 26 26 25 23 24 23 25 25 26 26 25 25 24 26 24 25 26 27 26 27 28 29 29 30 29 31 33 33 37 41 44 41 40 40 40 41 43 44 48 50 51 51 55 57 57 59 53 52 56 61 62 59 55 57 59 61 61 61 62 60 62 67 71 67 63 63 61 61 56 57 58 60 56 54 52 51 50 51 50 52 52 53 53 54 58 59 59 61 60 61 57 57 57 56 52 55 60 59 59 63 64 66 72 77 80 81 81 84 81 84 78 69 71 72 73 71 71 68 67 66 66 67 66 65 66 63 61 62 61 57 60 57 53 53 53 53 54 53 50 51 48 49 50 51 51 49 44 44 44 44 44 45 45 48 50 50 56 49 45 45 42 41 41 41 39 40 38 40 37 40 38 40 41 41 41 42 44 41 44 45 45 46 47 49 47 47 48 51 52 49 48 49 50 53 52 49 49 47 48 49 48 46 47 46 46 46 47 45 46 46 48 45 46 44 44 44 44 44 44 44 45 47 43 45 43 42 42 40 40 41 43 43 42 44 42 43 43 44 44 43 43 46 44 42 42 42 46 40 38 39 36 34 32 30 30 30 30 29 29 29 31 28 29 30 37 37 35 35 33 31 27 29 26 27 25 24 23 23 23 22 23 22 23 25 23 23 25 23 26 23 22 21 21 21 22 21 20 19 19 20 19 19 18 18 18 18 18 17 15 16 16 16 15 15 14 15 15 14 14 14 13 13 13 13 13 12 13 12 11 11 12 11 11 11 11 11 11 10 10 11 10 10 10 11 10 10 10 9 10 9 9 9 10 10 10 9 8 9 8 9 9 9 10 8 9 9 9 8 9 9 9 8 8 8 8 9 8 9 9 8 8 8 8 8 8 8 8 8 8 8 0 
7 6 7 7 7 7 7 7 7 6 7 6 7 7 7 7 7 6 7 7 7 7 7 7 7 7 8 7 8 7 7 7 7 7 7 7 8 8 7 8 8 8 8 8 8 7 8 8 8 8 8 8 8 8 8 8 8 8 9 8 8 9 9 9 8 9 9 9 9 9 9 8 9 9 9 9 10 9 9 10 9 10 10 10 11 10 10 10 10 11 11 10 10 10 10 10 10 10 11 11 12 12 11 12 12 11 12 12 12 12 13 12 13 14 13 12 14 13 14 14 14 15 14 15 16 15 15 16 17 16 17 17 17 18 18 19 19 19 20 21 21 23 24 24 25 30 32 40 47 37 38 42 43 45 56 83 91 69 52 55 62 62 58 51 49 54 48 47 45 43 44 50 53 58 54 51 51 49 53 49 50 58 48 43 43 43 42 43 39 36 33 32 32 34 33 31 32 33 32 30 28 27 28 26 24 26 25 27 26 25 25 24 24 23 23 24 24 26 26 25 24 24 25 25 26 26 25 27 26 27 28 28 30 29 32 30 31 35 42 44 41 41 41 41 42 43 42 44 49 50 51 53 55 56 56 54 54 53 59 61 56 56 56 59 58 58 62 62 60 60 63 63 65 64 62 61 60 58 56 56 60 56 55 52 52 49 51 51 52 50 52 55 57 56 57 55 58 58 56 56 57 56 54 53 55 55 56 55 59 62 64 70 75 74 72 78 83 87 82 84 76 74 76 78 75 76 76 70 68 68 68 70 69 71 64 64 63 61 59 60 59 55 56 57 58 57 54 53 49 48 52 51 53 53 48 45 44 44 44 42 45 46 48 50 49 52 53 47 41 41 42 43 44 41 40 38 38 38 39 38 37 41 41 41 42 43 43 43 44 46 48 47 46 47 48 48 48 47 46 47 49 49 52 54 52 48 46 49 46 48 48 47 45 45 45 45 45 48 46 48 48 46 45 45 44 43 42 45 47 46 45 46 44 42 42 41 41 40 42 42 43 42 42 41 43 40 41 42 43 42 40 42 41 39 41 44 39 37 37 36 33 33 32 31 30 30 31 30 29 28 28 30 32 38 36 38 37 34 33 29 30 28 26 26 25 23 24 24 23 23 25 24 25 24 24 25 24 22 23 21 21 22 21 21 20 19 19 19 19 20 19 18 17 18 18 17 16 17 16 16 15 15 15 14 15 13 14 13 14 13 13 13 12 12 12 12 12 11 11 11 11 11 11 11 11 10 11 11 10 10 10 10 10 10 10 10 9 9 9 9 9 10 10 10 10 9 10 9 9 9 9 9 9 8 8 9 8 9 8 8 8 8 8 8 9 7 9 8 8 8 8 8 8 8 8 9 8 8 8 0 
6 7 7 6 7 7 6 7 7 7 7 7 7 7 7 7 7 7 7 7 7 7 7 7 7 7 8 8 8 8 8 7 7 8 8 8 8 8 8 8 8 8 8 8 7 8 8 8 8 8 9 8 9 9 8 9 8 8 9 9 8 9 9 9 8 9 9 9 9 9 8 9 9 9 9 9 9 10 9 10 10 9 10 9 10 10 9 10 10 10 10 10 10 10 10 11 10 11 11 11 12 12 13 11 11 12 12 12 12 12 13 12 12 13 15 14 13 14 13 14 14 15 15 15 15 15 15 16 17 17 17 17 17 17 19 18 19 19 20 21 22 21 23 26 27 29 33 38 51 44 47 45 46 50 58 95 87 65 52 52 58 59 56 53 54 59 57 52 49 46 45 48 57 56 51 47 49 46 49 54 57 58 50 44 43 42 43 41 42 40 38 36 34 35 33 30 32 30 29 27 28 25 26 27 25 26 26 28 27 25 25 25 24 23 23 24 25 25 25 24 24 24 25 26 25 27 25 26 27 27 26 27 31 29 30 29 31 33 36 40 43 43 41 40 40 42 43 45 48 51 52 54 54 54 55 56 53 54 57 60 56 56 59 57 58 57 61 60 60 62 63 61 62 63 62 64 66 61 60 59 57 58 55 51 53 50 51 51 51 53 54 56 58 54 52 50 54 53 54 55 57 52 51 52 54 55 56 57 58 61 65 66 71 70 74 74 80 84 83 86 84 82 80 82 83 81 81 76 75 71 72 73 75 75 71 69 69 64 65 64 67 64 61 58 59 60 56 55 51 51 52 56 56 52 48 47 44 47 46 44 45 47 48 51 52 53 51 44 42 42 42 43 42 41 41 39 36 40 38 39 38 39 38 41 43 44 46 43 46 47 48 47 47 47 45 46 46 46 45 46 48 51 53 55 53 48 50 49 46 47 47 48 44 45 45 43 45 45 45 45 45 45 48 47 46 46 45 47 47 48 45 45 45 45 43 39 41 39 42 41 43 42 41 41 41 42 42 43 42 41 42 40 42 47 45 41 38 38 37 35 34 33 33 31 29 29 31 30 30 28 29 30 32 35 33 37 40 36 34 32 31 28 26 26 25 23 23 23 22 24 26 25 25 24 23 24 23 22 21 21 22 23 21 21 20 18 19 19 20 19 19 18 17 17 17 17 16 16 16 16 16 16 15 14 15 14 14 13 13 13 13 13 13 12 12 12 11 11 11 11 11 11 11 11 11 10 11 10 11 10 10 10 10 10 10 10 9 10 10 9 9 9 10 10 9 9 8 9 9 9 9 9 9 8 9 9 9 9 8 9 9 9 8 8 8 8 8 8 8 8 8 8 8 8 8 8 8 8 8 0 
7 7 7 6 6 7 7 7 6 7 7 7 7 7 7 7 7 7 7 8 6 6 7 7 7 7 7 7 8 7 7 7 7 8 7 8 7 8 7 7 8 8 8 8 8 8 8 8 8 8 8 8 7 8 9 9 9 8 8 8 9 8 9 9 8 10 9 9 9 9 8 9 9 9 9 10 9 9 10 9 10 10 10 9 10 10 10 11 10 11 11 10 11 11 11 11 10 11 12 12 11 11 12 11 12 12 12 12 11 12 12 13 13 14 13 13 13 14 14 15 14 14 15 15 16 15 17 16 16 17 17 18 17 19 19 19 19 21 22 21 21 23 24 25 26 29 32 38 46 44 46 47 48 53 67 91 80 61 55 54 58 60 60 61 59 58 58 53 48 46 46 52 55 50 49 44 45 45 47 54 55 63 56 47 43 42 41 40 41 40 41 40 37 37 33 29 29 29 30 27 27 26 27 28 27 27 27 25 27 24 24 24 24 25 23 23 24 23 24 24 23 25 24 24 26 25 25 25 26 25 26 28 29 29 29 29 30 32 34 37 42 42 41 41 42 43 41 43 47 52 54 55 54 49 51 55 53 52 56 58 53 55 58 59 59 57 60 56 60 61 61 60 62 64 63 61 61 59 60 57 61 59 56 55 56 53 53 51 50 51 52 55 53 49 48 46 49 51 53 55 53 52 52 51 54 57 59 60 60 62 64 69 68 66 71 73 75 78 79 85 85 85 81 83 87 82 82 84 81 80 80 82 82 84 77 73 71 70 68 70 69 67 66 65 64 61 60 55 54 53 56 57 56 52 49 47 46 46 44 47 46 47 49 50 53 53 51 43 43 42 42 43 43 41 39 39 41 40 39 38 39 41 40 41 42 44 46 47 49 47 48 47 47 47 47 45 45 45 48 48 52 51 54 54 51 48 48 49 46 47 45 45 45 46 44 44 45 45 45 43 44 44 46 49 45 45 46 45 46 47 46 47 47 45 42 41 39 39 40 41 41 43 44 41 41 41 41 41 43 45 43 42 43 48 47 42 39 37 37 36 35 33 32 31 31 31 32 31 30 30 32 32 33 30 30 34 42 40 36 34 31 29 28 26 25 24 24 25 24 24 25 26 25 25 23 22 22 21 21 21 23 22 22 21 19 19 18 19 18 19 18 17 17 17 17 17 17 16 15 15 15 15 15 16 14 14 14 13 14 13 13 12 13 11 12 12 12 12 11 11 11 11 10 11 11 10 11 11 11 10 10 10 10 10 10 10 9 10 9 11 8 10 9 9 9 9 9 9 9 9 9 9 10 9 9 9 8 9 9 8 9 9 9 8 8 9 8 8 8 7 8 9 8 8 8 8 8 8 8 0 
7 7 6 7 7 7 7 7 7 7 7 7 7 7 6 7 7 7 7 7 7 8 7 8 7 7 7 8 7 7 7 7 8 7 8 8 7 9 8 8 8 8 8 8 8 9 8 8 8 7 8 9 8 8 8 8 8 9 8 9 10 9 9 9 9 9 9 9 9 9 9 10 9 9 9 10 10 9 9 9 9 10 10 10 10 10 10 10 10 11 11 11 11 11 11 11 11 11 11 11 11 11 11 13 14 13 12 11 13 13 13 13 13 13 14 13 15 15 14 15 15 15 16 16 16 15 16 16 17 18 17 18 18 18 19 19 20 21 20 21 22 22 25 25 27 29 32 35 40 47 45 51 52 56 70 83 76 76 72 64 61 61 61 57 57 52 53 52 48 46 47 54 51 47 48 46 44 45 42 45 49 58 55 48 43 42 40 39 37 38 41 38 39 39 32 28 28 28 27 27 25 26 24 27 26 27 27 25 27 24 23 25 23 24 24 23 23 24 24 24 24 24 25 24 25 25 25 25 25 26 26 28 28 28 27 29 31 32 33 37 39 44 42 43 40 41 43 44 45 48 55 54 52 50 51 55 57 54 56 58 53 54 56 60 58 56 60 59 58 59 60 62 61 63 61 60 60 59 60 62 62 63 60 57 55 54 53 53 51 50 51 53 50 48 47 46 50 53 51 50 51 51 50 53 54 54 59 59 63 63 64 67 69 72 72 75 74 79 77 80 86 86 83 87 87 87 87 92 89 90 87 86 91 89 85 78 74 72 74 74 73 69 69 68 67 63 62 58 56 57 57 58 55 53 49 48 48 47 46 46 48 48 51 54 55 54 46 43 44 44 42 41 42 43 39 40 40 38 39 40 38 40 42 43 44 45 48 48 48 50 51 50 46 47 46 45 45 47 48 48 52 55 54 55 53 50 49 49 49 48 46 45 46 46 46 44 43 46 45 44 44 44 44 46 48 46 43 46 44 45 46 45 49 44 42 42 42 41 41 41 40 42 41 44 43 41 41 43 42 44 45 44 44 50 49 45 42 39 38 35 36 34 34 32 32 32 33 32 32 33 35 35 36 33 34 37 46 41 36 36 32 29 29 27 26 25 25 25 26 25 25 28 25 24 23 22 22 21 21 20 23 22 21 21 19 18 18 18 18 18 18 17 17 17 17 18 16 15 15 15 15 14 14 14 15 14 15 14 13 13 13 13 12 13 12 11 11 11 12 11 11 11 11 11 11 10 10 10 11 10 10 10 10 10 10 9 9 10 9 10 10 10 9 9 9 9 10 9 9 9 9 9 9 9 8 9 9 9 9 8 8 8 8 8 9 8 8 8 8 8 8 8 8 8 8 9 8 8 8 0 
6 7 7 6 7 6 7 6 7 7 7 7 7 6 7 7 7 7 8 7 7 7 7 8 7 8 8 8 7 8 8 7 7 7 8 8 7 8 8 7 8 8 8 8 8 9 7 8 8 8 8 8 7 9 8 8 8 8 9 9 9 9 9 9 8 9 9 9 9 9 9 9 10 9 10 9 10 9 10 10 9 9 10 9 10 10 10 10 10 11 10 10 10 10 11 10 11 11 11 11 12 12 12 14 12 12 12 12 12 13 13 13 14 14 13 14 14 15 14 14 15 15 15 15 16 15 16 17 17 17 19 17 18 19 19 19 19 20 21 22 23 24 25 25 28 31 32 37 42 47 49 52 56 60 73 78 86 97 80 68 61 64 61 54 48 50 53 46 46 46 47 55 53 51 49 51 45 44 44 43 45 52 58 48 43 41 38 38 37 38 38 40 39 36 33 29 29 27 26 24 24 24 25 25 25 25 25 24 25 24 23 23 22 24 23 23 22 23 23 23 23 23 25 25 25 24 24 24 26 25 25 28 27 26 28 30 30 31 32 35 38 42 42 43 44 43 42 43 45 46 56 56 52 50 50 54 57 54 55 55 54 53 56 58 54 59 56 58 64 58 59 62 61 62 61 61 61 62 61 63 63 66 62 57 57 56 55 50 49 50 50 51 50 48 46 45 49 51 49 49 51 50 50 52 54 57 58 55 63 63 62 65 66 74 78 74 75 79 75 78 76 78 85 82 83 79 85 96 90 96 93 93 98 99 91 83 81 76 78 78 76 71 69 71 73 71 65 61 59 57 58 61 61 54 53 51 52 48 48 49 48 51 53 57 51 52 48 46 45 42 40 41 41 42 40 41 40 41 40 41 41 40 43 43 46 47 49 49 54 52 52 51 50 50 46 47 46 47 48 48 52 54 56 55 52 53 51 50 48 47 45 44 45 43 44 46 44 45 44 44 44 45 44 43 48 47 43 44 45 44 43 45 46 44 42 41 42 41 40 41 39 38 40 40 44 41 42 41 42 41 44 45 46 48 49 49 45 42 41 39 36 36 33 34 32 32 34 34 35 36 38 38 39 40 41 40 47 44 37 35 33 31 30 29 28 26 27 26 25 26 26 26 24 23 23 21 21 20 21 21 21 21 20 20 20 19 18 18 18 18 18 18 16 18 17 18 16 15 17 15 16 15 15 14 14 14 14 13 14 14 13 12 12 12 12 12 12 11 11 10 11 11 11 11 12 10 10 10 10 10 10 10 10 10 10 10 10 10 9 9 10 10 9 9 9 9 9 9 10 9 9 9 9 9 8 9 9 8 9 9 9 9 9 9 8 8 8 9 8 8 8 8 8 8 8 8 8 8 8 0 
7 7 6 6 7 7 7 7 6 7 8 7 7 7 6 7 7 8 7 7 7 7 7 7 7 8 7 7 7 7 7 8 8 9 8 8 8 8 8 8 8 8 8 8 8 8 8 8 8 8 8 8 8 9 9 8 9 9 8 8 8 8 9 9 9 9 9 9 9 10 9 9 9 9 9 9 10 9 10 9 9 10 9 10 10 10 10 10 10 10 12 11 11 11 11 11 11 11 12 12 11 12 12 13 13 13 13 13 12 13 14 13 14 13 12 14 15 15 16 16 15 15 15 16 16 17 17 17 17 18 18 18 18 19 19 19 21 21 22 23 24 24 25 26 28 32 36 41 42 48 54 54 58 66 75 82 92 102 77 69 64 63 62 52 46 46 49 44 46 48 48 55 52 52 51 56 50 44 43 43 43 46 55 49 41 37 34 34 35 36 36 37 38 33 30 29 28 27 25 25 25 24 24 24 24 25 23 24 25 24 22 23 23 22 23 24 23 24 24 22 24 25 24 24 24 25 24 26 26 27 26 27 27 26 28 28 30 31 32 34 35 39 42 43 43 43 44 44 47 49 53 57 51 51 49 51 55 54 54 55 54 53 56 62 56 57 58 56 57 57 60 60 63 62 61 61 61 62 59 66 66 67 62 58 60 58 54 52 50 51 50 51 49 49 46 45 47 47 49 49 48 50 52 52 52 51 53 56 57 57 64 63 69 78 81 74 76 75 76 73 72 77 74 73 74 79 83 89 88 100 97 101 101 108 93 91 87 83 81 81 78 74 74 76 77 70 70 65 64 61 63 64 60 57 54 55 50 53 53 49 52 54 53 54 53 46 45 41 43 41 41 43 42 42 42 41 41 42 41 41 43 42 45 46 48 49 50 53 54 55 52 51 49 48 49 46 47 46 48 50 53 55 57 53 51 50 51 49 46 47 46 43 44 44 45 44 44 42 44 44 45 44 46 44 43 45 44 42 46 42 44 45 45 42 43 41 41 43 42 39 42 41 40 42 40 41 41 42 40 40 41 42 44 48 46 47 46 45 45 41 38 37 36 35 33 34 35 36 34 37 36 38 45 45 46 43 45 43 38 36 32 30 31 29 30 28 27 27 26 26 25 25 25 23 23 22 22 22 22 21 20 21 21 22 19 18 19 20 19 19 19 19 18 19 18 19 17 15 18 17 16 15 16 15 15 15 14 14 14 14 13 13 13 13 12 12 12 12 11 11 12 11 11 11 10 11 11 10 10 10 10 10 10 10 10 10 9 10 10 10 10 10 9 10 9 10 10 9 9 9 9 10 10 8 9 9 8 9 8 9 8 8 8 8 8 8 9 8 8 8 8 8 9 8 8 8 8 7 8 0 
7 7 7 7 7 6 7 7 7 7 7 7 7 7 7 7 7 7 7 8 7 8 7 7 7 8 7 7 7 7 8 8 7 8 8 7 8 8 8 7 8 8 8 7 9 8 8 8 8 8 8 9 9 8 9 9 9 9 9 9 9 9 9 9 8 10 10 9 10 9 9 9 10 9 9 9 9 9 10 9 10 9 10 10 9 10 10 11 10 10 10 11 11 11 11 11 12 11 11 11 11 12 12 13 12 12 12 13 13 13 12 14 13 14 14 14 15 15 16 15 15 16 15 15 16 17 17 16 18 18 18 19 19 19 20 20 20 22 23 23 23 25 25 27 30 35 36 37 41 44 51 54 63 73 80 92 95 91 77 67 61 59 56 52 47 49 46 43 44 47 48 53 54 54 53 59 55 53 48 47 44 43 49 43 37 35 33 32 32 32 35 36 37 35 32 29 27 27 27 25 24 23 24 24 23 24 24 23 24 23 22 22 23 22 22 23 22 23 23 22 22 24 24 22 23 23 24 25 25 26 26 25 27 27 28 28 28 31 33 33 34 35 39 42 43 44 45 44 45 47 50 55 50 49 48 50 56 56 56 53 55 54 53 60 53 57 54 52 55 58 57 60 63 65 63 64 63 64 61 65 65 65 65 60 61 59 55 52 51 50 53 51 49 48 48 49 46 46 48 47 48 47 47 48 47 50 50 54 55 56 59 63 73 79 73 73 77 79 75 73 74 73 71 73 74 76 80 85 88 97 99 100 98 110 101 97 93 87 83 83 83 82 79 79 78 74 70 68 66 65 65 67 62 59 54 54 52 53 54 51 53 55 54 57 56 48 47 43 42 42 40 42 41 42 40 41 42 42 40 43 43 44 44 46 48 48 51 52 51 52 52 49 48 47 48 48 49 49 50 50 52 54 55 54 52 51 49 50 47 46 46 46 44 44 47 44 44 43 45 45 46 43 44 45 44 43 44 42 45 44 46 47 44 46 46 44 44 43 42 41 43 44 41 41 40 43 40 41 42 42 43 41 44 47 45 46 44 44 44 41 39 39 36 37 36 36 36 36 35 37 34 38 42 43 44 44 41 39 39 36 33 32 32 31 33 32 29 29 27 25 25 25 27 24 23 22 22 21 21 21 23 21 22 22 20 19 20 19 18 18 19 18 17 18 18 18 19 17 17 16 16 15 14 15 15 15 14 14 14 12 13 12 12 12 12 12 12 12 11 10 11 11 11 11 11 11 11 10 11 10 10 10 10 10 10 10 10 10 9 9 10 9 9 9 9 9 9 9 9 9 9 9 8 9 9 9 8 9 8 8 9 8 8 9 9 8 8 9 8 8 7 8 8 8 8 8 8 8 8 0 
6 7 7 6 7 6 7 7 7 7 7 7 7 7 7 7 7 7 7 7 7 7 7 8 7 8 7 8 7 7 8 8 8 8 7 8 8 8 8 8 9 7 7 8 8 8 8 8 8 9 8 8 8 8 9 9 8 8 9 8 9 9 9 9 8 9 9 9 9 9 9 10 9 10 10 9 9 9 10 10 10 9 10 10 10 10 11 10 10 11 10 11 11 10 11 11 11 11 11 11 12 12 12 11 12 12 12 13 13 13 13 13 13 14 14 15 14 14 15 16 15 15 16 16 17 17 16 17 18 17 18 19 19 20 20 20 22 22 22 23 25 26 27 31 32 38 38 38 40 43 48 57 66 75 81 89 82 80 79 68 57 56 53 49 48 45 43 42 42 41 47 52 54 58 57 64 62 61 58 53 45 42 42 40 36 33 33 32 32 33 35 36 35 33 30 28 27 27 24 25 24 24 24 23 24 24 23 23 22 23 21 22 21 21 22 24 23 23 22 24 23 25 23 24 23 23 24 24 25 26 25 27 27 26 26 29 29 32 32 33 32 35 38 46 43 45 45 46 44 48 51 54 51 51 50 50 53 56 55 52 56 52 56 56 54 54 53 54 56 54 57 60 60 64 62 63 64 63 63 61 62 66 66 62 61 57 57 52 51 51 50 52 49 49 51 48 46 46 45 46 46 48 47 46 48 48 50 52 54 55 58 66 70 74 66 65 70 74 76 76 70 70 72 73 72 73 77 80 85 91 94 89 84 98 103 97 96 89 87 89 89 84 87 83 83 80 75 69 69 67 66 69 66 59 56 58 53 53 54 53 52 54 55 60 56 47 45 45 44 41 42 42 40 42 43 41 42 43 42 45 44 45 44 46 46 49 53 52 49 49 47 49 47 49 49 50 47 47 49 51 53 56 56 53 54 52 50 48 47 44 44 44 44 44 43 45 44 45 44 46 44 44 44 45 43 44 42 44 45 46 49 46 46 44 44 43 43 42 41 43 41 41 41 40 41 40 40 41 40 43 41 42 43 47 43 43 45 43 41 39 39 39 39 38 37 36 37 36 36 34 35 39 41 39 39 41 42 39 40 37 36 32 32 34 31 31 30 30 29 27 26 27 29 24 23 22 22 22 22 22 22 23 23 24 21 21 21 19 18 19 19 18 18 16 18 18 17 17 16 15 16 15 15 15 14 14 14 13 13 13 13 12 12 12 12 12 12 11 11 11 10 11 11 11 11 11 10 11 10 11 11 10 10 10 9 10 10 10 10 9 10 9 9 9 9 10 9 9 9 9 9 8 8 9 9 9 10 9 9 9 9 8 9 8 8 8 9 8 8 9 8 8 8 8 8 8 8 7 8 0 
7 7 7 7 7 7 7 7 7 7 7 6 7 7 7 7 7 7 7 7 7 7 8 7 7 8 7 7 8 8 8 7 8 7 8 8 8 8 8 8 8 8 8 8 8 8 9 8 8 8 9 9 9 9 8 9 9 9 9 9 8 9 9 9 9 9 10 9 9 9 9 9 9 9 9 10 9 10 9 9 10 10 10 11 10 10 10 10 10 11 11 11 10 11 11 11 11 12 11 11 12 12 12 11 12 12 12 13 13 13 14 13 14 15 14 14 14 16 15 16 16 16 15 17 17 18 17 18 18 19 20 19 20 20 20 21 21 21 23 25 25 27 30 30 33 37 39 41 42 43 49 61 73 80 78 84 81 77 80 64 57 57 53 50 47 41 40 41 42 41 44 50 52 55 56 57 61 59 57 54 55 46 38 37 34 34 32 29 31 35 32 34 36 34 29 28 26 25 23 24 25 25 23 22 22 24 23 21 22 23 21 21 21 21 22 23 22 23 22 22 23 23 23 24 22 23 24 24 25 26 26 25 25 27 28 29 30 29 32 32 34 35 36 43 47 45 45 45 44 49 51 53 56 50 50 49 51 55 55 51 55 56 52 53 52 53 53 52 54 54 56 59 60 59 65 61 63 63 67 62 65 65 65 65 61 60 56 56 54 55 52 54 54 51 52 49 47 46 44 46 45 47 45 45 47 48 49 52 51 55 59 65 66 66 58 57 59 66 72 77 73 69 69 72 72 74 73 79 82 86 85 80 79 89 99 96 94 96 91 92 91 90 90 85 85 79 78 76 71 71 74 68 67 64 59 58 55 55 54 56 55 56 58 57 50 46 45 44 44 43 43 42 43 41 42 42 44 46 45 46 47 46 47 47 45 47 48 48 50 49 47 47 47 49 49 49 48 50 50 53 54 57 58 57 56 53 51 50 47 45 45 45 44 44 43 44 43 46 45 46 47 47 47 46 46 42 46 44 45 45 47 45 46 45 44 45 44 43 43 43 44 43 40 40 40 39 40 43 42 42 45 43 43 43 47 46 47 46 42 41 40 39 39 37 36 36 36 36 35 36 36 41 42 40 40 39 37 39 34 36 37 34 32 34 32 32 32 32 33 29 27 28 29 27 25 23 22 24 23 23 22 21 21 21 20 21 20 18 18 19 18 19 18 17 17 17 16 17 16 15 15 15 15 15 15 14 13 14 13 14 13 13 12 12 12 12 12 12 12 11 11 11 11 10 11 11 11 10 10 10 10 10 10 10 10 10 10 10 9 10 10 10 9 9 9 9 9 9 10 9 9 9 10 9 9 9 8 8 9 9 8 8 8 8 8 9 8 8 9 8 8 8 8 8 8 8 8 8 8 0 
7 7 7 6 6 8 7 7 7 7 8 7 7 7 7 7 7 7 7 8 7 7 6 7 7 7 7 7 8 8 7 7 7 8 8 7 8 8 8 8 8 8 8 8 8 8 8 8 8 8 9 8 8 9 9 9 8 9 9 9 9 9 8 10 9 9 9 9 9 9 9 9 9 10 9 9 9 10 10 9 10 10 10 9 10 10 10 11 11 10 11 11 11 10 12 12 11 12 12 11 11 12 12 12 11 12 13 12 13 12 14 13 14 13 13 14 14 15 16 15 16 17 16 17 17 18 17 18 18 20 18 19 20 20 21 21 22 22 24 24 25 28 35 31 32 37 42 40 41 43 50 60 82 81 77 73 73 78 77 64 57 54 52 47 45 42 39 39 37 38 40 42 46 47 48 52 52 48 50 52 55 43 38 36 35 31 30 29 31 33 32 34 35 32 29 27 27 26 24 24 24 23 23 23 24 24 22 23 25 22 21 22 22 21 22 22 22 22 22 23 21 22 23 23 21 23 23 25 26 23 26 25 26 28 27 27 29 30 31 32 34 34 38 38 44 45 44 45 45 46 52 54 53 50 49 49 50 54 55 51 52 55 54 51 53 52 54 52 53 53 55 58 58 61 61 61 63 65 67 65 67 68 63 64 63 60 58 58 59 58 57 56 54 53 51 49 47 47 44 47 45 45 44 46 47 48 49 48 52 55 60 64 65 58 54 55 55 59 67 72 71 69 70 71 74 77 79 79 82 84 84 79 78 84 95 97 95 92 97 99 97 84 88 89 86 85 82 80 76 74 76 75 71 66 63 59 58 57 56 58 59 60 61 56 49 47 46 45 44 44 43 42 42 44 44 45 46 47 46 46 47 47 47 46 44 45 46 51 50 50 47 48 48 47 48 49 48 50 50 53 57 58 58 54 55 54 52 50 47 46 46 45 44 43 44 46 46 46 46 46 49 47 47 46 46 44 43 46 44 43 43 46 44 46 44 43 41 44 43 41 44 45 42 40 41 42 42 42 43 43 43 43 44 44 46 44 44 45 46 44 43 39 39 38 36 36 36 37 34 38 42 44 41 39 42 37 36 34 35 35 35 32 33 32 32 33 33 36 37 31 30 31 32 27 27 23 24 24 23 22 22 21 20 21 20 21 20 19 18 18 19 18 16 18 17 16 17 17 16 15 15 15 14 15 14 14 14 13 13 13 12 12 12 13 12 12 12 11 12 11 12 11 11 11 11 11 11 10 10 11 10 11 10 10 10 10 10 11 9 10 10 9 9 9 9 9 10 10 9 9 9 8 9 9 9 8 9 8 9 8 8 9 8 8 9 9 8 8 8 8 9 8 8 8 8 8 7 8 8 0 
7 6 7 6 7 7 7 7 7 7 7 7 7 7 7 7 7 8 7 8 7 7 8 8 7 7 7 7 8 8 8 8 7 7 7 8 8 8 9 8 9 8 8 8 8 9 9 8 8 8 8 9 9 8 9 9 8 9 9 9 8 9 9 9 9 9 9 9 9 10 9 10 9 9 9 10 10 10 10 9 10 11 10 9 11 10 10 10 11 11 10 10 10 11 11 11 11 12 12 12 12 11 12 12 12 12 12 13 13 13 13 13 13 13 14 14 14 15 16 17 17 18 17 17 17 18 18 18 19 20 19 21 21 21 23 22 23 23 24 26 27 28 31 33 33 37 41 39 42 43 51 60 83 84 75 68 72 73 73 64 56 52 48 44 41 38 39 38 34 36 37 38 40 40 45 49 47 44 42 44 45 41 38 36 35 30 29 30 29 29 31 36 35 31 28 27 25 25 23 24 23 24 23 23 24 23 23 22 22 21 21 20 21 21 21 21 21 20 22 21 22 22 22 22 22 23 23 25 26 24 25 26 26 28 27 28 29 30 30 31 33 35 35 39 40 46 44 44 46 47 51 52 50 48 48 48 49 52 53 51 51 54 52 50 52 53 53 54 54 55 53 56 58 56 58 58 63 62 66 66 69 71 63 66 66 62 63 60 62 60 60 57 53 54 51 48 48 46 46 46 46 43 45 45 45 46 48 51 51 54 58 68 61 52 53 53 55 59 65 65 72 67 69 76 71 74 76 79 80 80 80 79 76 78 82 87 91 89 88 92 92 81 87 91 94 85 85 86 79 80 79 81 69 68 63 63 61 61 61 59 62 62 65 60 51 49 47 46 46 46 47 44 44 45 46 46 47 46 47 47 48 47 46 45 46 46 47 48 50 47 46 48 47 47 48 46 48 49 51 53 56 59 59 57 53 55 52 50 51 47 47 45 45 44 44 48 47 49 47 48 48 48 48 47 48 46 46 46 44 45 45 43 48 45 44 45 45 44 42 42 45 45 42 40 40 40 43 43 42 43 43 44 44 44 45 43 44 46 46 45 42 41 40 38 38 38 35 36 36 36 41 41 41 39 40 36 33 32 33 37 35 34 32 31 33 33 35 36 40 38 37 34 34 30 26 25 23 25 24 22 22 20 21 21 20 20 19 18 18 17 18 17 17 16 17 16 16 16 17 16 15 15 15 14 14 14 14 13 13 12 13 12 12 12 12 12 12 12 12 11 11 11 11 11 11 11 10 11 11 10 11 10 10 10 10 10 10 10 10 9 10 9 10 10 9 9 9 10 9 9 9 9 9 9 9 9 9 8 9 8 8 8 8 9 8 8 8 9 8 9 9 8 8 8 8 8 8 8 8 0 
6 7 7 6 7 7 7 7 7 7 7 7 7 7 7 7 8 7 7 7 7 7 7 7 7 7 8 7 8 8 7 7 7 8 8 8 8 8 8 8 8 8 8 8 9 8 8 9 8 9 8 9 9 9 9 9 9 9 9 8 9 9 9 8 9 9 9 10 9 9 9 10 9 9 9 10 10 9 9 10 10 10 10 9 11 10 11 10 10 10 10 11 11 11 11 11 12 11 11 11 11 13 13 13 12 12 13 13 13 13 13 13 14 14 15 15 15 15 15 15 16 17 17 17 18 19 19 18 19 20 21 20 21 22 22 23 24 24 26 27 28 29 30 34 36 35 39 40 42 45 50 59 72 85 82 72 71 70 72 63 53 50 47 43 41 39 35 36 33 35 35 36 37 39 42 45 45 43 42 41 43 38 35 34 35 32 29 29 30 30 32 37 37 32 30 29 26 26 26 24 24 23 21 23 24 23 21 21 20 21 21 21 20 23 21 20 20 20 21 22 21 22 22 22 22 22 24 24 23 24 24 25 26 27 28 27 28 28 30 30 33 33 34 37 38 43 44 44 46 48 56 49 47 50 50 51 50 53 55 51 52 56 53 52 53 55 51 55 55 52 54 56 56 53 56 59 61 62 67 68 72 70 69 70 71 66 63 62 63 57 57 57 54 53 49 49 50 47 45 47 46 45 46 45 46 48 48 49 51 53 58 68 65 52 53 51 55 59 62 64 67 70 70 74 72 71 68 70 72 72 71 72 69 72 70 74 79 77 79 82 82 79 85 87 95 86 82 82 83 80 79 79 70 70 70 65 65 61 62 61 63 67 67 62 54 50 48 47 47 49 47 46 45 45 45 46 45 45 47 47 49 47 45 46 47 47 47 47 47 47 49 47 48 48 48 48 51 50 51 54 56 57 55 55 54 52 52 50 51 50 47 48 47 47 48 46 48 47 48 48 52 47 48 48 44 45 46 46 44 45 48 46 46 46 46 46 48 43 44 45 45 46 43 42 43 42 44 43 44 45 44 44 44 48 45 45 45 45 46 47 42 38 39 37 37 36 38 37 36 39 37 36 42 40 39 37 34 34 33 30 33 35 36 34 31 33 33 37 39 45 42 42 42 32 29 26 24 23 24 22 21 21 20 20 20 22 20 18 18 19 18 17 17 18 17 16 16 17 17 16 15 14 15 14 15 14 13 13 14 13 13 13 12 12 12 12 12 11 12 11 11 11 11 12 10 10 10 11 11 10 10 10 10 10 10 10 9 10 10 10 10 10 10 9 9 9 10 9 8 9 9 8 9 9 9 9 8 8 8 8 8 8 8 8 9 8 8 8 9 8 8 8 8 8 8 7 8 9 8 0 
7 7 7 6 6 7 7 7 7 7 7 7 7 7 8 7 7 8 7 7 8 7 8 8 8 8 7 7 7 8 8 7 8 8 8 9 8 8 8 8 9 7 8 8 9 8 8 8 9 9 8 8 9 9 9 9 9 9 8 9 9 9 9 9 9 9 9 10 9 9 10 9 9 9 9 9 10 10 10 10 10 9 10 11 10 10 11 11 11 11 11 10 11 10 11 11 11 11 12 11 12 12 13 12 13 13 13 13 13 14 14 14 15 14 15 14 15 16 15 16 17 17 17 18 18 18 19 19 21 21 21 21 23 23 22 24 24 25 26 27 28 29 30 33 37 40 41 41 43 48 54 61 72 82 82 73 68 68 68 59 53 50 44 43 41 39 36 36 34 34 35 36 37 38 41 41 45 42 38 41 42 39 36 34 33 34 32 30 29 31 34 34 33 31 27 28 25 24 25 24 23 23 21 22 23 22 22 20 21 21 20 20 22 21 21 21 20 21 22 22 21 23 21 21 22 24 23 23 24 24 24 25 26 26 27 28 27 28 31 32 32 32 34 34 37 40 44 44 44 48 49 47 47 51 54 50 52 54 56 54 52 52 57 50 53 53 51 56 56 52 53 52 53 55 54 57 59 60 62 68 69 70 72 72 69 67 63 65 63 60 57 54 54 53 51 52 49 47 49 46 48 47 46 45 46 49 47 50 53 53 57 60 61 56 53 54 55 58 58 63 67 67 67 66 67 65 64 64 65 65 64 67 63 68 70 68 69 70 72 73 72 70 74 78 82 77 74 75 82 82 80 81 73 71 69 64 64 64 62 63 66 69 67 56 54 51 49 48 46 47 46 46 45 47 44 47 45 47 46 49 49 46 47 45 45 47 46 45 47 47 48 50 49 47 48 48 49 49 54 54 57 56 56 52 50 53 52 51 50 51 49 49 47 47 47 49 49 49 50 48 49 48 50 47 48 46 48 46 48 46 47 46 47 45 46 47 44 45 47 45 48 47 44 45 44 45 44 44 42 46 44 44 46 46 46 45 44 45 46 46 41 40 40 37 36 35 37 35 37 39 37 38 40 41 39 40 34 35 33 31 28 32 34 32 33 35 36 33 35 38 38 39 48 37 30 27 25 25 24 23 21 21 21 22 21 22 19 18 19 21 18 18 18 17 18 17 16 16 16 16 16 16 15 14 15 14 14 13 12 13 12 12 12 12 12 11 13 12 12 11 11 10 10 11 11 11 11 10 10 11 10 10 10 10 10 10 10 11 9 10 10 9 10 9 9 9 9 9 9 9 10 9 8 9 9 8 9 9 9 9 8 9 8 8 8 8 8 8 8 8 8 8 8 8 8 7 8 8 9 0 
6 7 7 7 7 7 7 7 7 7 7 7 7 7 7 7 7 7 7 7 8 7 8 8 7 7 8 7 8 7 8 7 7 8 8 8 8 8 8 9 9 9 8 8 8 8 9 8 9 9 8 9 8 9 9 9 9 9 9 9 8 9 8 8 9 9 9 9 9 10 9 9 10 9 9 9 10 10 10 10 10 9 11 10 10 10 10 10 10 11 9 11 11 11 10 12 10 12 11 11 12 12 12 13 13 13 13 13 13 13 13 13 14 14 15 14 15 16 16 16 16 17 18 19 20 20 19 20 21 22 22 24 22 23 24 27 27 26 27 28 30 30 31 33 37 41 41 42 43 51 59 67 73 81 78 77 70 73 63 53 51 50 47 43 40 38 35 34 33 32 34 35 36 37 40 38 40 40 38 38 40 39 34 34 32 32 31 29 29 32 33 31 30 30 30 28 25 24 24 23 23 23 23 23 25 23 22 21 21 23 20 22 22 21 20 20 20 20 22 21 21 22 21 21 21 23 22 22 23 23 24 25 25 27 27 28 28 29 31 30 31 31 33 35 36 40 45 45 44 44 46 47 47 52 55 52 52 54 52 55 53 56 55 53 53 54 53 53 54 51 53 51 54 53 57 56 57 58 61 66 66 68 70 72 69 70 64 61 60 57 56 54 53 51 52 52 52 51 49 48 48 48 48 49 48 48 50 50 53 56 59 60 62 55 54 55 56 56 57 60 61 61 59 59 61 61 64 62 61 61 59 61 62 62 63 63 64 63 66 72 67 67 68 73 77 72 68 70 72 76 79 89 74 72 69 66 63 62 62 63 65 64 64 56 53 49 49 48 49 47 47 47 47 46 44 46 46 45 46 48 49 50 48 48 46 46 44 45 45 48 49 50 51 50 50 49 50 50 51 53 55 57 54 51 53 53 51 51 50 48 51 51 49 49 47 50 50 49 49 50 49 49 48 48 49 49 48 48 47 44 45 48 48 46 48 48 49 47 47 50 50 51 49 47 47 48 45 44 45 46 46 45 46 48 49 46 48 46 45 46 44 40 39 37 38 36 35 34 37 40 38 38 40 38 34 35 33 32 32 29 29 30 31 30 30 32 33 35 35 30 29 33 45 42 31 29 26 25 26 24 23 24 22 21 21 20 20 19 18 19 19 18 17 18 17 16 16 17 16 15 15 15 15 15 14 13 13 13 13 12 13 12 12 12 12 12 11 11 12 12 12 12 11 11 11 11 10 10 11 11 11 10 10 10 10 10 10 10 9 10 10 9 10 10 10 9 9 9 9 9 9 9 9 9 9 8 9 9 9 9 9 9 9 8 9 9 8 8 8 8 8 8 8 9 8 8 8 8 9 0 
7 7 7 7 6 7 7 7 7 7 7 7 7 7 7 7 8 8 7 7 8 8 7 8 7 7 8 7 8 7 8 8 8 8 7 8 8 9 9 8 8 8 9 9 8 9 9 9 8 8 9 9 9 9 9 9 9 9 9 8 9 9 10 9 9 9 10 9 10 9 10 10 9 10 9 9 10 10 10 11 9 10 10 10 10 10 11 11 11 11 11 11 11 11 11 11 11 12 12 12 12 12 12 13 13 13 13 14 13 14 14 14 13 15 15 16 15 17 16 17 17 18 18 19 21 22 21 20 21 23 23 23 25 26 27 28 29 29 29 30 33 33 35 36 39 43 45 43 46 50 62 77 80 80 79 72 71 72 64 54 53 51 47 44 40 38 37 36 34 34 35 34 35 37 39 39 41 41 38 36 36 39 34 34 32 31 32 32 33 32 31 29 28 27 28 25 23 23 23 21 20 21 22 23 22 23 21 22 21 20 20 21 23 21 19 20 20 21 21 21 22 22 21 20 21 21 21 23 22 22 24 25 26 27 27 28 29 30 30 30 31 32 32 34 36 38 42 43 45 42 45 43 44 51 52 51 54 52 51 53 53 53 53 52 52 54 51 51 50 52 55 53 53 54 55 53 56 59 62 63 66 66 71 73 76 69 63 61 61 59 56 56 52 52 53 52 51 50 49 50 51 49 51 50 52 52 52 53 54 59 57 58 58 60 60 60 57 54 53 54 55 56 58 57 58 58 58 59 60 59 58 58 57 59 60 60 63 59 59 64 64 61 60 66 72 68 64 65 64 68 70 81 75 76 71 67 64 63 64 65 65 64 62 54 52 49 48 50 50 48 47 49 46 45 44 47 46 47 48 50 49 48 49 47 47 47 46 47 48 50 47 50 50 50 52 50 50 51 51 54 55 56 54 52 52 51 51 49 51 52 51 52 51 49 50 48 49 50 48 49 50 49 48 49 47 48 49 48 47 46 47 49 49 49 49 51 51 53 53 51 52 52 50 48 46 46 48 46 44 47 47 45 46 48 50 48 49 47 44 43 43 41 41 38 37 39 34 34 37 38 39 40 37 36 32 32 30 29 30 28 28 30 28 31 30 32 32 37 34 30 29 30 38 42 35 28 28 27 28 25 24 23 21 21 21 19 19 18 19 19 18 18 18 18 17 16 17 15 16 15 15 15 14 14 14 13 13 13 12 13 13 12 12 12 11 12 12 12 11 11 11 11 11 11 11 11 10 11 11 11 10 10 11 10 10 10 10 10 10 9 9 10 9 10 9 9 10 9 9 10 9 9 9 9 9 9 8 9 8 8 8 9 8 9 8 8 8 8 9 8 7 8 8 8 8 8 8 7 8 0 
6 7 7 7 6 7 6 7 7 7 7 7 7 7 7 7 7 8 7 8 7 7 7 7 8 7 7 8 8 8 8 8 8 8 8 8 9 8 8 8 8 9 8 8 8 9 8 9 9 9 9 9 9 9 8 9 9 9 9 9 9 9 9 9 9 10 9 9 9 8 9 10 9 9 10 9 10 10 10 9 10 10 11 11 10 10 11 10 10 10 10 11 11 10 11 11 12 11 11 12 12 12 12 13 13 13 13 13 14 13 13 14 14 15 15 15 16 16 15 17 18 18 19 19 21 21 21 22 22 24 25 24 26 28 30 32 31 33 34 33 36 36 37 39 38 42 44 44 48 52 64 81 85 80 71 69 66 63 63 58 49 48 47 45 42 41 38 37 36 35 35 34 34 36 39 41 38 39 38 37 36 40 36 35 35 35 32 34 34 31 28 27 27 29 31 26 23 24 23 21 20 21 22 21 22 21 20 19 20 19 20 20 20 19 20 20 20 20 21 20 21 20 20 20 21 22 21 23 23 24 23 23 25 27 27 27 29 31 31 30 31 31 33 34 36 39 39 44 41 44 45 41 43 47 53 53 52 52 48 54 53 53 50 50 50 49 51 48 49 53 51 52 55 53 53 54 60 62 62 69 66 67 73 75 76 72 66 63 59 56 57 56 53 53 50 53 54 53 53 51 51 54 55 52 54 54 54 55 55 62 62 62 60 62 61 55 54 55 54 54 54 55 54 57 57 56 56 56 58 56 57 58 56 57 56 55 58 58 56 57 61 58 58 59 65 66 63 64 64 65 65 68 70 72 72 67 66 65 66 65 64 66 61 52 50 48 49 51 50 48 48 45 45 45 44 46 46 47 47 47 46 48 45 47 48 49 46 48 48 49 48 51 51 52 52 53 52 51 52 52 55 54 55 54 52 53 51 51 52 50 53 54 53 50 51 51 50 51 51 51 52 53 50 48 50 50 48 48 48 47 48 51 51 52 53 51 54 54 54 51 52 53 54 50 50 48 47 48 46 46 46 47 49 49 49 46 47 47 43 44 42 41 41 38 38 35 35 34 40 39 37 34 33 33 31 32 30 29 28 28 27 27 28 29 30 32 31 36 31 30 28 32 36 39 37 32 29 29 27 28 26 24 22 22 21 19 19 19 18 19 17 18 18 18 17 16 16 16 15 15 16 15 14 15 14 13 13 13 13 13 12 12 13 12 12 11 11 11 13 12 11 11 11 11 11 10 11 10 10 10 10 11 10 9 9 10 10 10 10 10 9 10 9 9 9 9 9 9 10 9 8 9 9 9 9 9 9 8 9 9 9 9 8 8 9 8 8 8 9 8 8 8 8 8 8 8 8 8 8 0 
7 7 7 7 7 7 7 7 7 7 7 7 7 7 7 7 7 7 7 7 8 7 8 7 8 8 8 7 8 8 8 8 8 8 8 8 8 8 9 9 8 8 8 9 8 9 8 8 9 8 10 9 9 9 9 9 9 9 9 9 8 9 10 9 9 9 10 10 10 10 10 10 10 9 9 9 10 10 10 10 10 10 10 10 10 11 11 11 11 11 10 11 11 11 11 11 12 12 11 12 12 13 12 13 12 13 13 13 14 13 14 13 15 15 15 15 15 17 17 16 18 18 19 20 22 21 22 23 24 24 25 26 28 31 37 37 38 39 42 42 45 42 46 44 43 46 47 49 49 55 66 79 81 81 72 69 65 63 65 57 48 45 44 47 43 42 39 38 36 36 37 36 37 39 39 40 38 38 38 38 37 41 38 35 35 34 32 33 31 29 27 29 30 28 29 25 21 21 21 21 21 21 20 20 20 20 19 20 21 22 21 20 19 20 20 19 20 21 19 20 21 21 22 21 21 21 20 23 21 23 23 25 25 27 26 27 29 30 32 30 33 31 33 34 35 37 39 43 42 42 42 41 41 45 51 49 52 51 48 55 49 51 47 48 48 51 48 50 48 50 52 52 53 51 53 56 57 59 62 64 67 68 69 72 71 72 71 62 59 57 58 58 53 52 51 52 55 57 55 55 58 56 57 59 58 56 59 59 59 63 63 64 63 62 57 53 52 53 54 53 53 54 54 55 55 55 55 55 55 54 53 53 53 55 52 52 54 53 52 54 60 59 54 57 59 58 63 64 63 63 61 62 59 62 67 71 69 67 67 66 65 63 60 52 50 49 49 49 48 50 47 45 45 45 45 46 47 47 47 49 48 49 47 48 49 49 50 47 48 50 50 51 53 53 54 53 52 53 52 52 53 54 54 53 51 52 51 50 52 51 52 53 54 54 53 53 53 52 53 51 53 53 51 51 50 50 50 52 53 50 52 53 56 57 58 57 51 52 52 50 50 51 53 50 51 51 49 49 50 49 50 49 49 49 48 50 48 46 43 44 43 40 41 40 38 36 34 35 36 36 35 32 31 32 29 28 28 27 27 28 28 27 27 28 31 29 29 31 29 25 28 32 40 39 38 33 31 31 28 29 29 27 24 22 21 21 20 19 19 20 19 18 18 18 17 17 16 15 16 16 14 15 14 14 14 13 13 13 13 13 12 13 12 12 12 13 11 11 12 11 12 11 11 11 10 11 11 10 10 10 10 10 10 10 11 9 10 10 10 9 10 9 10 9 9 9 9 9 9 9 9 9 10 9 8 9 9 9 9 9 9 9 8 9 8 7 8 8 9 8 8 8 8 9 8 8 8 8 8 0 
6 6 6 7 7 7 7 7 7 7 7 7 7 7 7 7 7 8 7 7 7 8 8 7 8 7 8 8 8 8 8 8 8 8 8 9 8 9 8 9 9 8 8 9 9 9 9 9 9 9 9 9 9 8 9 9 8 9 9 9 9 9 9 10 10 9 9 10 10 10 10 9 10 9 9 9 9 10 10 9 10 10 10 10 10 10 11 10 11 11 11 11 11 11 11 11 11 12 11 12 12 12 14 13 13 13 13 14 14 14 14 14 14 14 16 15 16 17 18 18 18 20 20 19 21 22 23 24 28 27 27 30 32 36 43 45 47 52 53 57 59 55 60 57 53 53 52 50 52 59 70 78 75 78 68 66 64 66 68 60 48 43 43 46 45 42 40 40 38 38 39 39 41 40 41 43 39 38 37 38 35 36 38 34 35 34 31 29 30 28 26 29 31 32 29 23 21 21 20 20 20 19 18 20 20 19 19 18 18 19 20 19 19 19 20 20 19 20 20 21 20 20 21 21 20 21 21 22 23 22 23 24 25 25 27 28 29 29 30 32 31 33 34 34 34 37 36 38 42 42 41 41 41 41 46 51 53 50 50 51 52 48 46 51 49 49 47 50 47 49 49 49 52 54 55 58 58 59 63 66 63 65 70 69 70 74 72 66 60 57 55 54 52 51 51 51 55 56 56 57 60 60 59 62 64 63 64 63 64 65 64 61 57 57 54 53 51 50 50 52 53 51 54 52 54 52 54 53 51 50 49 51 50 50 52 50 51 53 54 54 56 58 55 53 55 55 56 61 59 60 61 58 52 58 57 65 69 68 71 68 62 63 54 51 48 48 48 50 49 50 47 45 46 46 46 48 48 47 49 47 47 48 50 47 49 48 51 49 52 52 50 52 52 51 53 53 53 53 53 53 53 53 53 53 55 52 51 50 52 50 53 54 55 53 53 52 53 54 54 54 55 53 51 52 51 52 52 54 51 54 55 58 59 60 60 58 53 51 54 49 49 50 51 51 48 50 53 50 52 52 50 52 50 51 51 51 47 46 43 43 44 40 39 37 36 35 37 37 37 36 35 31 30 28 28 28 28 26 26 27 29 27 29 29 28 29 28 30 27 27 28 32 36 36 41 36 32 29 27 27 29 28 25 23 22 21 20 19 19 19 19 18 18 17 17 16 17 16 16 16 15 14 15 13 14 14 13 13 14 13 12 12 12 12 12 12 12 12 12 11 11 11 11 11 11 10 11 11 10 10 10 10 10 10 10 10 10 10 10 10 10 10 10 9 10 9 10 10 9 10 9 9 9 9 9 8 9 9 8 8 9 9 9 8 8 8 8 8 8 8 8 8 8 7 8 8 9 8 8 0 
7 7 7 7 7 7 7 7 7 7 7 7 7 7 7 7 7 8 7 8 7 8 8 8 7 7 8 8 7 8 8 8 8 8 8 9 8 8 8 8 8 9 9 8 8 9 8 10 9 9 9 9 9 9 9 10 9 9 10 9 8 9 9 9 9 10 9 9 9 9 10 10 9 10 10 10 9 10 10 10 10 10 11 11 10 10 11 11 11 11 11 11 11 12 11 12 11 12 12 11 12 12 13 13 12 12 13 12 14 14 14 15 15 15 16 16 16 16 17 18 17 19 20 20 22 24 25 26 30 33 35 40 39 46 55 61 72 68 60 67 64 63 59 66 63 60 60 58 57 62 72 79 80 73 68 62 63 66 68 65 49 44 43 43 43 44 42 44 42 42 43 44 45 43 45 43 40 39 37 36 35 34 34 35 34 31 31 28 27 26 26 28 27 25 25 21 20 19 20 19 19 19 19 20 19 18 20 20 18 20 19 19 18 19 20 19 19 20 19 20 19 19 21 21 21 21 21 21 23 23 24 24 26 25 27 27 27 28 30 30 31 33 33 33 35 36 35 36 41 41 38 38 39 42 43 50 51 48 49 49 51 50 47 48 49 47 48 50 48 48 49 55 54 52 53 56 62 59 63 66 64 65 66 71 69 71 70 68 64 58 54 52 53 51 49 50 51 54 56 59 60 61 61 62 65 62 66 68 64 64 56 56 55 51 52 51 51 47 47 50 52 50 51 50 50 50 51 51 54 49 51 49 48 47 51 49 51 51 50 51 52 51 54 52 55 51 53 56 61 57 59 56 54 53 53 57 62 71 70 66 63 64 54 49 49 50 49 49 49 50 48 46 47 46 47 48 48 48 49 50 50 51 51 49 49 48 49 52 51 53 50 50 50 51 54 52 54 51 53 54 53 54 52 53 55 52 53 52 50 50 49 52 57 52 54 53 54 55 56 54 54 55 56 54 55 57 56 57 58 58 59 61 65 61 59 58 55 53 50 49 47 49 51 50 50 48 52 52 51 51 54 52 54 51 49 48 47 48 45 45 42 40 38 38 36 37 38 36 38 34 30 32 28 28 28 31 28 26 26 28 29 29 28 27 27 27 28 30 28 28 31 33 35 35 37 34 32 32 29 26 29 28 25 23 21 22 19 20 20 20 19 17 17 18 17 16 16 16 16 15 15 15 15 14 13 14 13 13 13 12 12 12 12 11 13 11 12 12 11 11 11 11 11 11 11 11 11 10 11 11 10 10 10 10 11 10 9 10 10 10 10 9 9 9 10 9 9 9 9 9 9 9 10 9 9 9 9 9 8 9 8 9 10 8 9 9 9 8 8 8 8 8 8 9 8 7 8 9 7 0 
7 6 7 6 6 7 7 7 6 8 7 7 7 7 7 8 7 7 8 8 8 8 8 7 8 7 7 8 7 8 8 8 8 8 8 8 9 9 9 8 9 9 8 9 9 8 9 10 9 10 10 8 9 9 9 9 9 10 8 9 10 9 9 10 10 10 10 9 9 10 9 10 9 10 9 10 9 10 10 10 10 11 11 10 10 11 11 10 11 11 12 11 11 12 11 11 11 11 12 12 11 12 12 13 13 13 14 14 14 14 14 14 16 15 15 17 17 17 18 18 19 19 21 21 23 25 26 29 33 44 57 64 62 65 67 66 75 66 67 56 65 62 55 59 63 62 64 65 63 66 72 76 74 75 68 64 66 70 62 61 51 46 45 47 45 45 47 47 47 50 51 52 50 50 45 42 39 38 35 34 32 33 33 32 32 30 28 28 26 26 26 25 23 20 21 20 20 20 19 18 18 17 18 18 18 18 19 18 18 19 19 18 18 18 18 19 19 19 21 19 20 20 21 21 21 20 21 22 22 22 24 24 24 27 27 28 28 28 28 30 33 34 34 33 34 34 34 35 40 41 37 36 38 41 45 47 51 48 50 49 51 48 47 48 49 47 49 46 48 47 48 51 50 52 55 57 62 63 63 65 64 65 65 69 69 68 70 71 67 59 55 55 53 51 51 52 54 53 56 57 57 60 64 63 64 58 62 67 65 59 56 52 51 50 50 52 50 48 47 47 49 47 47 49 48 47 48 48 49 49 50 47 47 50 48 46 50 50 51 52 52 48 51 52 52 52 48 50 57 56 58 55 50 50 50 53 57 69 68 68 67 62 54 48 48 52 48 51 49 48 48 44 46 46 46 48 47 48 49 51 49 48 49 50 49 52 52 49 50 52 51 51 51 53 52 54 52 55 54 54 55 55 55 54 56 53 53 51 50 52 52 55 53 55 55 56 55 56 58 56 56 55 56 57 56 60 59 61 63 64 64 63 60 59 60 57 54 53 50 49 49 51 51 54 53 52 53 51 49 50 51 53 56 54 48 48 45 45 44 42 41 40 39 36 36 38 38 34 34 32 30 28 27 28 26 27 28 28 27 28 30 31 29 27 29 27 31 29 29 30 29 33 31 33 32 34 33 37 29 28 27 29 25 23 20 21 21 20 19 20 20 17 18 17 16 17 16 15 15 15 14 14 14 14 14 13 13 14 13 12 12 12 12 12 12 11 12 12 11 11 11 11 12 11 11 11 10 11 11 9 10 11 10 10 9 9 9 10 10 9 10 10 10 9 9 9 9 10 10 9 9 9 9 9 9 9 9 9 8 8 9 9 9 8 9 9 8 9 9 9 8 8 8 8 8 8 8 8 7 0 
6 7 7 7 7 7 7 7 7 8 7 8 7 7 7 7 7 7 7 8 7 7 7 8 8 7 8 8 8 8 8 8 8 8 8 8 8 9 9 9 8 9 9 8 9 9 9 9 9 9 10 9 9 9 9 9 9 9 9 9 10 9 9 9 9 9 10 9 10 9 10 10 10 11 10 10 10 10 10 9 10 10 10 10 10 11 11 11 11 11 11 12 11 11 11 12 11 12 12 12 12 13 13 13 13 12 14 14 14 15 14 15 15 15 16 16 17 18 17 18 20 21 21 22 24 27 30 35 41 64 70 75 88 70 66 56 58 44 47 47 52 55 49 53 56 57 59 62 66 71 82 78 78 76 70 64 71 74 56 51 49 47 49 53 51 49 54 51 54 53 55 55 53 49 45 42 42 37 36 34 33 32 32 31 29 27 27 28 27 25 23 21 21 20 20 18 18 19 18 19 17 17 17 18 17 18 18 18 18 19 19 18 19 18 18 20 18 19 20 19 18 20 20 20 20 20 21 22 22 22 23 24 26 26 26 26 28 29 29 29 31 32 33 33 34 35 34 34 39 41 38 37 38 39 44 47 49 47 49 52 50 48 45 47 49 47 50 47 47 48 47 49 51 54 56 60 67 70 68 66 66 64 65 64 66 69 70 72 73 62 56 54 53 51 50 52 53 52 55 54 57 57 61 66 63 58 58 62 57 55 53 53 49 49 49 50 50 48 46 48 46 45 45 46 46 45 47 48 45 47 48 45 48 47 48 48 50 50 48 49 49 46 49 52 52 48 50 49 53 56 56 54 48 49 49 51 50 56 66 67 64 63 50 49 48 49 49 52 49 48 49 48 47 46 47 49 50 51 51 49 48 48 50 51 50 52 51 49 53 54 53 52 53 53 51 52 51 55 53 53 53 56 55 56 55 53 52 53 52 53 51 52 58 54 57 54 55 57 58 59 56 59 60 62 62 65 60 64 65 64 63 63 57 59 56 56 52 49 51 49 50 50 49 50 51 51 50 51 52 54 51 54 55 51 48 46 46 44 43 41 42 40 36 35 36 37 37 33 31 30 30 29 28 28 25 27 27 27 26 27 30 31 31 30 28 29 32 32 30 30 30 30 29 31 31 32 34 38 32 27 28 27 25 23 22 22 20 19 20 20 18 18 18 17 17 17 17 16 15 15 16 15 14 14 14 13 13 13 13 13 13 12 12 12 12 13 12 11 12 11 11 11 11 11 11 11 11 10 10 10 10 11 10 10 10 10 10 9 10 9 9 10 10 9 9 9 9 9 10 10 8 9 9 9 9 9 9 9 9 9 9 9 8 9 8 8 8 8 8 8 8 8 8 8 8 8 8 8 8 0 
7 6 6 7 7 7 7 7 8 7 7 7 7 7 7 8 8 7 7 7 7 7 7 8 8 8 7 8 7 8 8 8 8 9 8 8 8 8 9 9 9 9 9 9 10 9 9 10 9 9 9 9 9 9 9 9 10 9 10 9 9 9 10 9 10 9 9 9 9 9 10 9 10 9 10 10 10 10 10 11 10 11 10 10 10 11 10 11 10 11 11 11 11 11 12 12 11 12 12 13 12 13 13 13 13 14 13 15 14 14 15 16 15 15 16 17 18 17 19 19 20 21 21 25 26 29 35 50 54 77 80 65 61 63 56 49 45 43 37 38 41 42 41 49 50 51 52 55 64 68 79 79 82 78 73 64 75 69 61 49 49 51 54 57 54 56 57 56 55 57 56 58 55 51 45 44 42 39 37 33 34 33 32 30 28 26 26 26 25 22 21 20 20 20 19 19 19 18 18 17 17 17 17 17 17 17 18 17 17 17 18 18 19 17 19 19 19 19 20 21 20 20 19 19 21 20 22 22 22 22 24 24 24 24 25 27 28 29 30 30 30 32 33 35 35 35 35 35 37 39 37 37 38 38 43 44 48 44 46 49 50 47 48 49 50 47 49 47 46 45 48 47 49 55 64 65 72 73 74 71 71 65 66 68 67 71 69 70 74 63 57 55 52 52 50 50 50 51 55 55 57 62 62 66 64 59 55 54 54 53 51 50 49 48 48 50 47 47 47 46 45 44 45 44 45 45 45 44 45 45 46 46 45 45 48 46 50 47 45 47 49 45 47 49 52 49 49 48 49 54 57 54 48 48 51 50 50 49 59 66 66 64 52 50 51 51 51 51 50 49 50 48 49 48 47 50 50 50 50 49 49 51 51 50 51 51 52 53 50 53 52 53 52 57 52 52 54 54 53 54 52 53 56 57 54 55 53 56 53 53 52 53 55 56 59 56 57 55 57 60 59 64 62 64 62 64 57 62 63 65 62 60 57 54 57 57 53 50 50 51 51 50 49 49 48 49 49 54 53 54 57 56 53 50 49 44 43 43 41 37 39 39 36 35 36 37 36 32 30 31 29 27 27 27 26 25 26 26 27 28 30 29 28 27 28 30 32 29 29 30 29 29 29 30 31 30 33 38 32 29 28 28 25 24 22 22 20 21 19 19 18 17 17 18 18 15 16 16 15 15 14 14 14 13 13 12 13 14 13 12 12 12 11 11 12 12 12 11 12 12 12 11 11 10 11 11 11 10 10 11 10 10 10 10 10 10 10 10 9 10 10 10 10 10 9 10 9 9 9 9 9 10 9 9 9 9 9 9 8 8 9 9 9 8 8 8 8 8 9 8 8 8 9 8 8 8 9 8 8 0 
7 7 7 8 7 7 7 7 7 8 7 7 7 7 7 7 7 7 8 7 7 8 8 8 7 8 8 8 8 8 8 8 8 8 8 9 9 8 9 9 9 8 9 9 10 10 10 9 10 10 10 11 10 9 9 10 10 9 9 9 10 10 9 9 10 10 10 9 10 10 10 10 10 9 10 10 10 10 11 10 10 10 10 11 9 11 11 10 11 10 12 12 11 11 12 11 12 12 12 13 12 12 12 13 13 14 14 14 14 14 15 15 16 17 17 17 18 18 19 19 20 22 22 24 26 31 46 57 54 71 83 56 59 48 43 44 43 41 36 36 35 34 34 36 41 46 49 53 60 67 77 78 82 85 69 64 79 63 61 55 55 61 60 58 60 57 61 58 57 59 61 66 55 55 53 48 45 39 37 37 37 35 33 30 29 27 26 24 23 22 21 20 19 19 19 19 18 18 18 18 17 18 18 18 18 17 16 17 17 18 18 17 18 18 18 19 19 20 20 21 21 19 20 19 20 20 21 22 23 23 23 23 25 25 26 28 26 28 29 30 30 30 33 35 34 35 33 35 37 40 38 39 38 40 41 45 42 41 45 47 49 49 48 46 46 47 49 45 45 45 47 48 51 55 70 78 75 72 74 71 75 68 66 67 65 66 65 63 66 66 59 58 54 51 50 49 51 54 53 56 61 59 63 65 62 59 52 52 53 52 50 51 50 47 46 47 45 44 45 44 44 44 42 43 43 44 43 44 43 45 45 43 43 46 47 45 48 45 45 46 48 45 44 48 50 48 46 46 45 50 55 51 49 47 51 50 48 49 50 60 65 64 52 49 51 52 50 50 49 49 50 48 48 49 49 51 51 51 51 51 52 50 51 51 52 53 56 51 50 52 54 54 53 54 53 53 53 56 55 53 51 54 54 53 54 56 54 53 54 53 54 52 54 57 57 58 60 58 61 62 63 65 62 63 62 61 58 57 61 58 60 56 54 55 58 60 55 54 52 50 49 48 50 48 46 49 52 52 55 56 54 55 51 48 47 45 43 41 40 40 39 38 37 40 38 38 35 32 31 30 30 29 26 26 25 26 26 28 28 28 28 29 28 27 28 29 32 29 30 29 30 31 32 31 32 33 35 36 35 33 29 28 26 25 24 22 20 20 19 20 18 18 18 17 16 16 16 15 14 15 15 15 15 13 13 13 13 12 13 12 13 12 12 12 12 12 12 12 11 12 12 11 11 11 11 11 11 11 11 11 10 10 10 11 10 10 9 10 10 10 10 9 9 9 8 9 9 9 9 9 10 9 9 10 9 9 9 8 9 8 9 9 8 8 8 9 9 9 8 8 8 8 8 8 8 8 9 8 8 0 
7 7 7 8 7 7 7 7 7 7 7 7 7 7 7 7 7 7 7 8 8 8 7 7 8 7 8 7 8 8 8 8 8 8 8 8 9 9 8 9 9 9 9 9 10 10 10 10 10 10 10 10 10 10 10 10 9 10 9 9 10 10 10 9 9 9 9 10 10 10 9 10 9 10 10 10 10 10 11 10 10 11 11 11 10 11 11 12 10 11 11 11 12 12 11 12 12 12 12 13 13 13 13 14 14 13 14 14 15 15 16 15 16 16 16 17 18 18 19 20 21 22 22 25 29 32 50 52 61 75 67 56 65 55 43 44 40 41 38 34 32 31 30 34 33 39 44 51 58 64 77 74 80 82 69 66 65 64 61 58 63 70 64 66 67 62 66 65 67 65 68 71 63 59 56 54 47 42 39 38 37 34 32 30 28 25 25 23 22 22 20 19 19 19 19 18 18 17 17 17 17 17 17 16 18 16 16 17 17 16 17 17 17 17 18 19 18 19 19 20 20 20 20 19 20 21 21 20 22 23 23 24 25 26 26 26 28 29 30 30 31 30 30 32 34 35 34 35 37 40 35 37 36 38 40 44 43 41 42 46 50 47 48 47 46 45 47 45 45 45 46 48 49 53 70 71 76 77 69 72 71 69 70 68 65 63 61 61 62 61 60 59 58 52 51 50 50 52 54 56 63 62 62 59 57 53 51 50 49 50 50 50 49 48 45 47 44 43 43 42 43 43 43 42 42 42 43 43 42 43 44 45 43 45 44 44 45 44 44 44 47 44 43 48 49 46 45 47 46 45 53 52 47 46 47 46 45 48 47 53 62 64 54 51 51 52 52 49 47 47 49 48 47 49 51 51 52 54 51 51 51 52 51 52 53 54 53 51 51 51 53 51 54 54 54 52 54 59 58 56 54 52 53 53 54 54 53 55 54 55 55 56 56 54 57 59 61 61 62 61 58 60 57 58 60 56 57 57 58 55 55 55 53 54 54 55 55 52 51 51 46 48 47 48 47 48 50 54 51 52 56 55 49 45 46 45 41 40 39 40 37 39 38 41 37 35 33 31 30 29 27 28 27 26 26 25 26 26 28 29 28 27 27 28 27 30 31 30 31 31 32 31 29 30 30 33 35 38 35 33 30 27 25 24 23 22 20 19 19 19 19 18 17 16 16 16 16 16 15 15 15 15 15 13 13 13 14 13 14 13 13 12 12 13 13 11 11 12 12 11 11 11 12 11 10 11 11 11 10 10 10 11 11 10 9 10 10 10 9 10 10 9 9 9 10 10 9 10 9 9 9 10 9 9 9 8 9 9 9 8 8 8 8 9 9 9 9 9 8 8 7 8 8 8 8 8 8 7 8 0 
7 7 6 7 7 7 7 7 7 7 8 7 7 7 7 7 7 7 8 7 7 8 8 8 8 8 8 8 8 8 8 8 8 8 8 9 8 9 8 9 9 9 10 10 10 10 10 10 10 10 11 10 10 10 10 9 10 10 9 10 10 10 9 9 9 9 10 9 10 10 10 10 10 10 10 10 9 10 11 10 10 11 11 10 11 10 10 11 11 10 11 11 11 11 11 11 12 12 13 13 12 13 14 13 14 13 14 14 14 15 15 15 15 17 17 18 18 19 21 22 21 23 24 26 30 35 50 76 82 69 58 64 85 52 45 38 36 30 33 30 30 31 30 31 33 32 38 46 50 62 71 75 76 75 71 61 59 60 64 64 67 79 74 75 74 77 76 78 73 79 85 91 73 69 63 60 53 45 43 39 39 35 31 30 27 25 24 22 21 20 20 19 19 18 17 17 18 17 17 17 18 16 17 16 17 16 16 17 16 17 16 17 18 17 18 17 17 19 19 18 19 19 19 18 19 20 22 21 23 22 23 24 24 27 25 26 28 29 29 29 31 30 31 32 33 35 35 34 37 40 37 38 37 39 42 41 42 40 40 43 46 45 45 48 46 45 46 44 46 46 47 46 51 56 69 73 74 74 66 68 73 71 70 65 65 63 61 60 57 58 55 54 56 52 51 49 50 51 53 56 60 58 56 55 51 51 52 50 48 50 49 48 47 45 46 44 44 44 42 42 41 40 41 41 41 41 41 41 44 44 43 42 43 42 44 43 44 46 42 43 47 43 44 46 49 47 44 46 45 46 51 50 48 45 46 45 47 46 48 49 62 69 55 52 53 50 48 48 48 46 47 49 48 49 50 50 50 51 52 51 52 53 53 53 52 54 53 52 52 52 53 54 55 55 55 54 56 58 57 55 56 55 56 54 54 55 53 55 53 52 53 56 54 55 59 59 61 63 62 61 57 58 58 57 57 56 56 56 54 51 51 52 50 51 52 51 50 49 49 50 48 47 45 47 46 46 50 49 46 47 55 55 51 45 44 45 41 39 40 39 36 40 40 39 35 34 33 29 30 28 27 26 25 27 26 26 26 28 27 26 26 27 29 27 28 29 31 30 31 31 31 30 29 27 29 31 33 37 40 32 28 28 26 25 25 22 21 22 20 20 19 17 17 16 16 15 16 16 15 15 14 13 13 14 13 13 14 13 14 13 13 13 12 12 12 12 13 12 12 11 11 12 11 11 11 11 11 10 11 11 9 10 10 10 10 10 9 10 10 10 10 9 9 9 9 9 9 9 9 9 10 9 9 9 9 9 9 9 9 9 9 8 8 8 9 8 8 8 8 8 9 8 8 8 8 8 8 8 8 0 
6 7 7 7 7 7 7 7 7 7 7 7 7 7 7 8 7 7 8 7 8 7 7 8 8 8 8 7 8 8 8 9 8 8 8 9 8 9 9 9 9 11 10 10 11 11 11 11 10 11 11 11 11 10 10 10 9 9 9 10 10 9 9 10 10 9 9 9 9 10 10 10 10 10 10 10 10 10 10 10 11 11 11 11 11 11 10 11 11 11 11 11 11 12 12 12 12 13 12 13 13 14 12 14 14 15 14 14 16 14 15 15 15 16 17 19 19 19 20 21 22 23 25 27 32 40 51 87 73 55 47 57 75 55 45 32 31 28 30 27 28 28 28 28 30 31 35 40 49 61 65 71 75 75 70 62 61 60 65 64 70 85 93 82 80 85 83 88 82 87 99 91 84 76 69 68 59 51 45 44 40 36 32 29 28 26 23 22 22 20 19 19 19 18 18 18 17 17 17 16 18 16 16 17 16 17 16 18 17 16 17 17 17 18 17 18 18 18 18 19 19 19 20 19 19 20 21 21 21 23 23 24 25 24 26 26 28 29 29 29 29 30 30 32 31 32 33 36 37 37 38 37 38 40 41 41 42 39 40 41 44 44 47 45 45 44 45 44 45 46 45 49 50 55 66 74 74 72 66 69 71 67 64 64 60 59 55 55 56 55 52 53 52 53 53 49 50 53 55 58 58 55 51 51 50 49 51 50 49 49 47 48 46 45 45 44 43 43 41 40 39 40 40 40 40 41 41 42 42 42 40 41 43 41 44 41 43 44 41 41 43 42 44 44 47 47 44 44 44 46 49 50 44 46 46 45 44 46 48 45 54 66 51 51 49 47 45 45 46 45 47 46 46 47 48 50 50 53 52 52 50 54 53 53 53 53 54 52 53 54 54 54 52 57 55 55 57 57 57 58 56 57 58 56 56 55 53 54 54 52 52 55 56 56 57 61 61 61 59 58 58 56 56 57 56 54 53 51 52 53 51 50 51 49 50 49 46 47 46 48 47 47 45 49 44 46 47 46 43 47 57 56 51 46 47 42 42 38 39 38 39 40 41 36 35 32 30 29 29 28 28 26 24 26 26 26 27 26 26 26 27 28 29 28 27 28 28 29 32 30 28 29 28 28 28 28 33 35 37 37 31 28 30 29 27 24 23 21 19 19 18 17 17 17 16 16 16 16 15 15 14 13 15 13 14 14 13 13 13 12 12 13 13 12 12 12 12 12 12 12 11 12 11 11 11 11 11 10 10 10 11 10 10 10 10 10 9 10 10 10 10 10 10 10 9 9 10 9 9 9 10 9 9 9 10 9 9 9 9 9 8 9 8 9 9 8 8 9 8 8 9 9 8 8 8 8 8 9 8 0 
6 7 7 7 7 7 7 7 7 6 7 7 7 7 7 7 7 7 8 8 8 8 8 7 8 7 8 8 8 8 8 8 8 8 8 9 9 9 9 10 10 9 10 10 11 12 12 12 12 12 11 11 11 10 11 10 10 10 10 9 9 10 10 10 10 9 10 10 10 10 10 10 10 10 10 10 11 11 10 11 10 12 10 11 10 11 11 12 11 11 11 12 12 11 13 12 13 12 13 13 13 14 14 13 14 15 15 14 15 16 15 16 16 17 17 18 18 20 20 23 23 25 28 30 35 45 57 84 68 57 43 41 45 41 35 26 24 24 24 24 26 26 27 27 29 32 31 38 46 52 57 67 78 69 66 65 67 65 69 76 81 93 104 93 90 94 93 96 96 105 97 81 91 87 83 77 67 57 50 46 44 37 32 31 27 26 24 22 21 20 20 19 19 19 19 17 18 18 17 16 18 17 16 16 16 16 16 16 17 17 16 16 16 18 17 17 17 18 19 18 18 18 19 19 19 19 21 22 22 22 24 26 24 26 25 26 27 29 29 28 29 30 30 31 32 34 34 36 36 37 37 37 37 39 43 41 41 41 39 42 41 43 44 45 47 46 45 45 45 46 48 49 52 56 64 76 75 76 68 65 62 59 57 59 60 61 54 54 53 51 50 50 47 49 54 51 50 52 56 56 54 52 50 48 51 49 51 51 47 48 48 46 45 44 45 44 43 43 41 40 40 39 39 40 39 40 40 41 41 42 40 40 41 41 42 42 42 41 42 40 43 42 43 45 44 47 44 43 45 46 47 50 45 45 47 45 44 46 49 48 52 67 52 52 47 47 45 44 45 44 44 47 47 49 48 48 51 55 54 54 53 53 51 51 53 51 56 55 54 56 55 56 55 55 58 58 58 56 58 58 59 61 60 58 59 55 52 54 51 54 52 54 55 55 58 60 61 58 54 57 58 57 55 55 54 53 52 50 50 48 48 47 46 45 48 48 45 44 43 43 44 44 46 44 45 46 44 43 44 48 57 58 51 49 45 42 40 38 38 40 40 39 38 35 34 32 30 29 28 27 27 26 26 26 27 26 25 26 25 25 26 27 29 28 29 29 28 33 33 33 30 30 28 27 28 30 31 34 35 34 31 32 35 32 29 31 29 25 21 20 19 18 17 17 17 16 15 16 16 15 15 13 14 14 14 13 13 13 13 13 13 13 12 12 12 12 12 12 13 11 12 12 11 11 11 11 10 10 10 10 11 10 10 10 10 10 9 10 9 10 9 9 9 9 9 10 9 9 10 10 9 9 9 9 9 9 8 8 9 8 9 9 9 9 8 8 11 9 8 8 8 8 9 8 8 8 8 8 8 0 
7 7 7 7 7 6 7 8 7 7 7 8 7 8 7 7 8 7 8 7 7 7 8 7 8 8 8 8 8 8 8 9 8 8 8 9 9 10 9 10 9 9 11 11 11 12 13 14 14 13 12 12 11 11 10 10 10 10 10 9 9 10 9 9 10 10 10 9 10 10 10 10 10 11 11 11 10 11 10 10 10 11 10 10 11 10 11 11 12 12 11 11 11 11 12 12 12 12 13 13 13 13 13 14 15 14 14 15 15 15 16 16 16 17 17 19 20 19 21 24 26 27 31 34 38 47 74 88 66 51 49 38 35 28 25 23 22 22 22 23 24 25 26 26 28 30 33 35 44 49 54 64 66 65 66 66 69 69 77 85 92 101 114 109 109 102 103 112 106 100 89 76 78 85 91 91 72 65 60 53 48 42 36 31 26 25 23 22 20 20 19 18 19 18 17 18 17 16 17 17 17 17 16 16 17 16 17 18 17 17 17 16 17 16 18 17 18 17 18 18 17 19 19 20 19 20 20 21 22 23 24 25 25 24 25 26 27 27 29 28 31 30 32 31 32 32 33 35 35 38 37 36 39 40 41 42 45 42 41 39 39 42 43 44 47 46 46 45 47 48 49 50 53 57 64 77 86 85 69 62 57 53 53 53 56 59 55 56 52 51 49 47 49 48 50 49 52 53 57 56 53 49 49 49 48 48 49 46 46 47 47 46 45 44 41 42 42 42 41 39 37 38 38 39 39 39 39 39 39 39 40 40 39 40 40 40 39 40 40 40 40 42 42 41 43 45 43 43 43 44 44 47 46 43 43 45 45 45 45 49 48 58 52 50 48 45 43 45 45 45 44 44 47 48 49 49 53 52 54 54 55 55 51 52 54 52 54 55 58 57 59 58 56 58 55 59 56 57 55 58 58 58 58 57 55 53 53 53 53 53 56 54 55 54 58 63 57 53 54 57 57 53 53 52 51 50 49 47 47 48 46 47 46 46 45 44 44 45 44 44 44 45 44 44 43 45 44 45 49 50 56 55 50 48 44 41 39 38 40 40 39 38 38 34 33 32 30 29 28 28 28 26 28 27 26 26 25 26 25 26 28 29 27 27 28 29 30 32 36 34 34 32 33 29 30 29 35 32 35 33 33 35 31 24 32 31 31 35 25 21 19 18 16 17 16 16 15 16 14 14 15 15 14 13 13 13 13 14 12 13 13 12 12 12 13 12 11 12 12 13 12 11 12 11 11 11 11 11 10 10 11 10 10 10 10 10 10 10 10 10 10 9 9 10 10 9 9 9 9 9 9 9 9 9 9 8 9 9 9 8 9 8 9 9 8 8 8 8 9 9 9 8 9 8 8 8 8 8 8 0 
7 7 7 7 7 7 7 7 7 7 7 7 7 7 8 7 7 8 8 7 8 7 8 8 8 8 8 8 8 8 8 9 8 8 8 9 9 9 9 10 10 10 10 12 13 15 16 24 30 20 15 13 12 11 10 10 10 10 10 10 10 11 9 9 10 10 10 10 10 10 11 9 10 10 11 11 11 10 11 11 11 10 10 11 10 11 11 10 11 11 11 11 12 12 13 13 12 13 13 13 13 13 14 14 14 15 16 16 15 15 15 16 17 17 19 19 19 21 22 25 29 36 51 56 58 60 84 78 57 45 43 34 29 25 23 22 21 23 21 22 24 23 24 26 29 30 33 36 41 49 49 53 59 65 65 65 70 74 76 85 106 116 129 124 130 117 115 121 99 81 69 64 61 64 76 85 83 75 66 60 55 48 39 31 26 25 24 21 20 19 20 19 19 18 18 18 18 17 17 17 17 16 17 17 17 18 16 17 17 16 16 16 16 16 16 18 18 18 17 18 18 18 18 20 20 19 21 21 23 24 24 24 24 25 26 26 27 27 27 28 29 30 30 29 32 31 34 35 36 39 37 39 38 40 39 42 42 43 41 40 41 42 42 43 46 46 45 44 45 46 49 52 54 56 61 77 89 81 63 53 50 47 45 48 51 55 56 54 52 50 47 47 48 48 50 52 52 56 56 53 48 49 47 49 49 46 45 44 45 46 46 45 43 44 43 42 41 41 40 40 40 39 38 40 39 40 39 38 37 37 39 38 39 37 38 39 39 40 39 40 38 40 40 40 42 41 41 41 42 43 43 45 44 42 43 44 44 44 48 49 50 56 49 46 47 44 45 44 43 44 45 43 46 47 50 49 50 50 53 54 53 52 53 51 52 52 54 54 54 55 57 57 58 60 55 56 58 59 58 56 55 56 57 57 57 55 55 55 56 53 52 55 55 59 56 58 54 53 52 54 52 53 49 48 48 49 46 44 45 45 45 47 44 45 44 44 42 43 42 42 44 42 44 46 45 44 45 48 49 52 54 50 47 45 42 41 40 40 39 40 36 38 36 34 32 30 28 29 28 27 30 28 28 26 26 26 26 25 25 26 26 26 27 27 29 31 32 34 34 36 37 39 38 33 33 32 34 34 34 32 30 29 27 23 25 27 31 33 30 22 20 18 18 18 16 17 16 16 16 15 15 14 13 14 13 13 13 13 13 12 13 13 12 12 12 13 12 12 13 12 12 12 12 11 11 11 11 11 11 11 10 10 9 11 10 9 10 9 10 10 10 10 10 10 10 10 9 10 10 9 8 8 9 9 9 8 9 8 8 9 9 8 8 9 9 8 9 8 8 8 9 8 8 8 7 8 8 8 8 0 
7 7 7 7 7 7 7 7 7 7 7 8 7 7 7 7 7 7 7 8 8 7 8 8 8 8 9 8 8 8 8 8 8 9 9 8 9 9 10 10 10 11 11 12 15 18 30 43 39 31 21 14 13 11 11 11 11 10 10 10 9 9 10 10 10 10 10 10 10 10 11 10 11 11 11 11 11 11 11 11 11 10 10 12 10 11 11 10 11 12 11 12 13 11 11 11 12 13 13 13 14 14 15 15 15 15 16 15 16 16 17 16 16 17 17 19 19 21 23 27 31 51 67 60 65 71 85 77 70 48 39 33 26 24 23 22 21 21 21 22 22 22 25 25 28 29 33 35 40 46 47 51 54 59 61 66 73 80 83 84 96 121 135 148 154 142 140 130 93 70 63 55 48 47 55 70 85 85 68 73 76 56 43 32 27 26 23 23 21 20 20 19 18 17 18 18 18 17 17 17 17 16 18 17 18 17 17 17 16 17 16 16 16 17 17 17 17 17 18 17 19 18 19 19 19 21 21 22 23 23 25 25 24 27 26 26 25 27 28 29 29 30 31 33 33 33 32 35 34 37 37 38 39 41 41 41 41 41 40 41 40 40 42 41 44 45 47 45 45 47 49 50 51 55 63 76 91 81 56 52 47 45 44 44 47 52 56 55 52 50 48 46 47 47 49 52 55 55 53 51 48 49 48 45 47 44 44 46 45 44 45 45 43 41 42 40 39 41 40 39 39 39 39 39 38 37 38 37 38 37 36 36 38 37 38 38 36 37 38 37 37 39 39 38 41 39 40 40 41 41 42 44 42 43 43 43 43 44 45 49 51 56 50 48 47 47 44 45 42 43 43 44 44 47 49 50 51 51 53 52 53 50 50 50 52 52 53 51 54 54 53 57 58 57 54 57 56 59 60 57 54 57 59 57 56 55 59 55 54 55 53 52 53 55 53 54 54 51 49 51 51 51 47 49 48 46 45 45 45 44 44 44 45 44 44 45 43 41 43 43 43 41 45 48 46 46 49 49 52 53 51 49 43 41 41 43 43 40 39 39 37 36 34 33 31 31 30 30 28 28 29 27 27 25 24 26 25 26 25 25 26 27 27 27 30 33 33 34 36 36 36 41 44 36 39 34 35 35 32 30 28 28 23 23 26 27 29 27 29 23 20 18 18 16 17 16 15 16 15 16 15 14 15 14 13 14 12 12 13 13 13 13 13 12 13 13 12 12 12 14 14 13 12 12 11 11 11 10 10 10 10 10 11 10 11 10 10 10 10 10 10 10 9 10 9 9 10 9 9 10 9 9 9 10 9 9 9 9 8 8 8 9 9 8 9 9 8 9 9 9 9 8 8 8 8 9 8 8 8 0 
7 7 7 7 7 7 7 7 7 7 8 7 8 7 8 8 7 8 8 7 8 8 8 8 7 8 8 9 8 9 8 8 9 9 9 9 8 10 9 10 10 11 12 15 21 33 44 48 43 34 27 16 13 12 10 11 10 10 9 10 10 10 10 10 10 10 10 10 9 10 11 11 11 12 14 13 11 11 11 11 11 11 11 11 12 10 10 11 12 11 11 12 11 12 13 13 13 12 13 14 13 15 16 18 20 18 16 15 15 17 16 16 17 18 18 19 20 22 25 31 44 68 56 38 43 53 85 86 114 77 45 31 26 24 22 21 20 20 20 22 23 23 25 26 28 28 33 36 40 45 47 48 51 56 59 65 71 77 87 90 98 110 127 150 161 176 187 169 101 66 52 48 43 43 46 52 68 80 77 72 75 69 47 34 28 25 24 22 21 20 19 19 18 18 17 18 17 18 17 18 17 17 23 25 22 17 17 17 16 17 16 16 17 17 18 17 17 17 17 19 18 18 18 19 20 20 20 21 22 23 24 25 26 25 27 26 27 28 28 28 28 31 30 32 31 33 33 33 34 35 37 38 40 40 40 41 40 40 42 40 41 40 41 41 42 45 46 46 46 46 48 49 53 57 64 80 101 83 58 50 47 45 45 45 47 52 54 52 49 48 48 44 46 47 53 54 55 50 53 52 47 50 48 46 45 44 45 43 43 43 44 43 41 41 41 40 42 42 41 40 39 40 40 40 38 38 37 36 37 36 37 37 36 37 36 35 37 38 36 38 38 38 39 38 39 38 39 39 39 43 43 42 43 41 42 42 47 43 46 47 51 49 49 49 46 47 45 43 43 43 42 44 44 45 47 47 50 52 54 54 52 51 49 49 52 51 51 50 53 54 53 56 57 57 56 57 60 57 58 54 56 57 58 57 57 59 58 57 55 54 52 55 53 54 56 53 52 51 51 50 49 46 49 45 47 44 44 44 43 43 43 42 43 44 45 42 42 42 44 42 43 42 46 50 47 46 48 50 51 50 47 47 44 42 41 45 44 41 41 38 37 35 36 33 33 32 32 30 29 31 30 27 26 25 26 25 25 26 25 26 26 25 25 26 30 33 34 35 31 30 34 43 43 42 41 37 36 33 31 31 25 25 23 22 22 23 24 26 30 23 29 20 18 18 16 16 16 15 15 15 14 15 15 14 13 14 13 14 12 14 12 12 11 12 13 13 12 13 16 21 21 14 12 11 12 11 12 11 10 11 10 10 9 10 10 11 10 11 10 10 10 10 9 9 9 10 10 10 9 9 10 10 10 9 9 8 9 8 9 9 8 10 9 9 8 9 9 8 9 8 9 8 9 8 8 8 8 8 8 0 
6 7 7 7 7 7 8 7 7 7 8 9 8 8 7 7 8 8 8 8 7 7 7 8 7 8 9 11 8 8 8 8 8 9 8 8 9 9 9 10 10 12 14 18 49 33 64 75 41 24 27 16 13 12 11 11 10 10 11 10 9 10 10 10 10 11 10 10 10 10 11 11 11 16 30 15 12 11 11 11 12 12 11 11 12 12 10 12 12 12 12 13 11 12 12 13 13 14 14 14 15 14 17 33 52 20 16 16 16 17 19 16 18 17 19 21 24 24 28 42 59 80 32 30 33 47 80 117 255 131 62 33 26 23 22 21 21 21 21 21 23 24 24 28 28 30 33 36 39 43 47 49 52 53 57 64 71 79 89 89 96 109 121 125 147 167 195 210 165 70 49 43 39 39 42 46 54 73 89 77 71 70 51 33 28 26 24 23 21 21 20 19 19 19 19 18 17 18 17 17 18 19 21 24 24 19 16 16 16 16 17 17 16 16 16 17 18 17 19 19 18 18 19 19 19 20 21 21 22 23 25 26 25 25 26 27 26 27 28 28 28 27 30 33 33 33 32 32 33 34 37 37 39 41 39 39 40 39 40 41 41 42 43 42 43 43 45 48 45 45 47 48 51 55 63 76 93 78 63 54 48 46 45 45 47 50 51 52 49 47 47 47 46 47 56 57 52 49 48 49 49 48 48 45 45 45 44 45 45 44 43 42 42 42 42 41 40 40 40 41 40 39 39 38 38 37 38 37 36 37 36 37 35 37 37 36 35 37 36 38 37 37 36 39 39 39 40 39 41 44 41 42 41 41 42 42 46 43 45 47 50 49 50 46 48 47 47 43 43 44 43 44 44 46 44 48 51 52 53 53 52 52 49 50 52 52 50 53 52 54 54 56 55 56 59 58 56 60 59 56 55 57 58 58 57 58 56 59 54 55 54 53 53 54 55 53 54 49 50 48 49 47 49 48 47 46 44 49 46 43 41 41 43 41 40 42 42 42 43 42 43 43 45 50 46 49 47 52 50 47 48 48 46 45 43 43 43 42 41 40 37 36 35 35 34 32 32 30 29 29 28 28 27 27 27 27 25 25 25 26 25 25 27 27 32 37 33 33 29 30 33 46 52 50 42 40 35 32 30 30 26 25 22 20 20 21 23 36 34 26 25 23 19 18 17 17 15 17 16 14 14 14 14 14 14 14 14 14 15 13 12 13 12 12 12 12 12 12 14 17 24 17 14 12 11 11 10 10 11 11 11 11 11 10 11 11 10 11 11 10 10 10 10 9 10 10 9 10 9 9 9 9 9 9 9 8 9 9 9 9 9 9 9 9 8 8 8 8 9 8 9 8 8 8 8 8 8 8 8 0 
6 7 7 7 7 7 8 7 7 7 8 9 8 8 7 7 8 8 8 8 7 7 7 8 7 8 9 11 8 8 8 8 8 9 8 8 9 9 9 10 10 12 14 18 49 33 64 75 41 24 27 16 13 12 11 11 10 10 11 10 9 10 10 10 10 11 10 10 10 10 11 11 11 16 30 15 12 11 11 11 12 12 11 11 12 12 10 12 12 12 12 13 11 12 12 13 13 14 14 14 15 14 17 33 52 20 16 16 16 17 19 16 18 17 19 21 24 24 28 42 59 80 32 30 33 47 80 117 255 131 62 33 26 23 22 21 21 21 21 21 23 24 24 28 28 30 33 36 39 43 47 49 52 53 57 64 71 79 89 89 96 109 121 125 147 167 195 210 165 70 49 43 39 39 42 46 54 73 89 77 71 70 51 33 28 26 24 23 21 21 20 19 19 19 19 18 17 18 17 17 18 19 21 24 24 19 16 16 16 16 17 17 16 16 16 17 18 17 19 19 18 18 19 19 19 20 21 21 22 23 25 26 25 25 26 27 26 27 28 28 28 27 30 33 33 33 32 32 33 34 37 37 39 41 39 39 40 39 40 41 41 42 43 42 43 43 45 48 45 45 47 48 51 55 63 76 93 78 63 54 48 46 45 45 47 50 51 52 49 47 47 47 46 47 56 57 52 49 48 49 49 48 48 45 45 45 44 45 45 44 43 42 42 42 42 41 40 40 40 41 40 39 39 38 38 37 38 37 36 37 36 37 35 37 37 36 35 37 36 38 37 37 36 39 39 39 40 39 41 44 41 42 41 41 42 42 46 43 45 47 50 49 50 46 48 47 47 43 43 44 43 44 44 46 44 48 51 52 53 53 52 52 49 50 52 52 50 53 52 54 54 56 55 56 59 58 56 60 59 56 55 57 58 58 57 58 56 59 54 55 54 53 53 54 55 53 54 49 50 48 49 47 49 48 47 46 44 49 46 43 41 41 43 41 40 42 42 42 43 42 43 43 45 50 46 49 47 52 50 47 48 48 46 45 43 43 43 42 41 40 37 36 35 35 34 32 32 30 29 29 28 28 27 27 27 27 25 25 25 26 25 25 27 27 32 37 33 33 29 30 33 46 52 50 42 40 35 32 30 30 26 25 22 20 20 21 23 36 34 26 25 23 19 18 17 17 15 17 16 14 14 14 14 14 14 14 14 14 15 13 12 13 12 12 12 12 12 12 14 17 24 17 14 12 11 11 10 10 11 11 11 11 11 10 11 11 10 11 11 10 10 10 10 9 10 10 9 10 9 9 9 9 9 9 9 8 9 9 9 9 9 9 9 9 8 8 8 8 9 8 9 8 8 8 8 8 8 8 8 0 
7 7 7 7 7 7 7 7 7 7 8 7 8 7 8 8 7 8 8 7 8 8 8 8 7 8 8 9 8 9 8 8 9 9 9 9 8 10 9 10 10 11 12 15 21 33 44 48 43 34 27 16 13 12 10 11 10 10 9 10 10 10 10 10 10 10 10 10 9 10 11 11 11 12 14 13 11 11 11 11 11 11 11 11 12 10 10 11 12 11 11 12 11 12 13 13 13 12 13 14 13 15 16 18 20 18 16 15 15 17 16 16 17 18 18 19 20 22 25 31 44 68 56 38 43 53 85 86 114 77 45 31 26 24 22 21 20 20 20 22 23 23 25 26 28 28 33 36 40 45 47 48 51 56 59 65 71 77 87 90 98 110 127 150 161 176 187 169 101 66 52 48 43 43 46 52 68 80 77 72 75 69 47 34 28 25 24 22 21 20 19 19 18 18 17 18 17 18 17 18 17 17 23 25 22 17 17 17 16 17 16 16 17 17 18 17 17 17 17 19 18 18 18 19 20 20 20 21 22 23 24 25 26 25 27 26 27 28 28 28 28 31 30 32 31 33 33 33 34 35 37 38 40 40 40 41 40 40 42 40 41 40 41 41 42 45 46 46 46 46 48 49 53 57 64 80 101 83 58 50 47 45 45 45 47 52 54 52 49 48 48 44 46 47 53 54 55 50 53 52 47 50 48 46 45 44 45 43 43 43 44 43 41 41 41 40 42 42 41 40 39 40 40 40 38 38 37 36 37 36 37 37 36 37 36 35 37 38 36 38 38 38 39 38 39 38 39 39 39 43 43 42 43 41 42 42 47 43 46 47 51 49 49 49 46 47 45 43 43 43 42 44 44 45 47 47 50 52 54 54 52 51 49 49 52 51 51 50 53 54 53 56 57 57 56 57 60 57 58 54 56 57 58 57 57 59 58 57 55 54 52 55 53 54 56 53 52 51 51 50 49 46 49 45 47 44 44 44 43 43 43 42 43 44 45 42 42 42 44 42 43 42 46 50 47 46 48 50 51 50 47 47 44 42 41 45 44 41 41 38 37 35 36 33 33 32 32 30 29 31 30 27 26 25 26 25 25 26 25 26 26 25 25 26 30 33 34 35 31 30 34 43 43 42 41 37 36 33 31 31 25 25 23 22 22 23 24 26 30 23 29 20 18 18 16 16 16 15 15 15 14 15 15 14 13 14 13 14 12 14 12 12 11 12 13 13 12 13 16 21 21 14 12 11 12 11 12 11 10 11 10 10 9 10 10 11 10 11 10 10 10 10 9 9 9 10 10 10 9 9 10 10 10 9 9 8 9 8 9 9 8 10 9 9 8 9 9 8 9 8 9 8 9 8 8 8 8 8 8 0 
7 7 7 7 7 7 7 7 7 7 7 8 7 7 7 7 7 7 7 8 8 7 8 8 8 8 9 8 8 8 8 8 8 9 9 8 9 9 10 10 10 11 11 12 15 18 30 43 39 31 21 14 13 11 11 11 11 10 10 10 9 9 10 10 10 10 10 10 10 10 11 10 11 11 11 11 11 11 11 11 11 10 10 12 10 11 11 10 11 12 11 12 13 11 11 11 12 13 13 13 14 14 15 15 15 15 16 15 16 16 17 16 16 17 17 19 19 21 23 27 31 51 67 60 65 71 85 77 70 48 39 33 26 24 23 22 21 21 21 22 22 22 25 25 28 29 33 35 40 46 47 51 54 59 61 66 73 80 83 84 96 121 135 148 154 142 140 130 93 70 63 55 48 47 55 70 85 85 68 73 76 56 43 32 27 26 23 23 21 20 20 19 18 17 18 18 18 17 17 17 17 16 18 17 18 17 17 17 16 17 16 16 16 17 17 17 17 17 18 17 19 18 19 19 19 21 21 22 23 23 25 25 24 27 26 26 25 27 28 29 29 30 31 33 33 33 32 35 34 37 37 38 39 41 41 41 41 41 40 41 40 40 42 41 44 45 47 45 45 47 49 50 51 55 63 76 91 81 56 52 47 45 44 44 47 52 56 55 52 50 48 46 47 47 49 52 55 55 53 51 48 49 48 45 47 44 44 46 45 44 45 45 43 41 42 40 39 41 40 39 39 39 39 39 38 37 38 37 38 37 36 36 38 37 38 38 36 37 38 37 37 39 39 38 41 39 40 40 41 41 42 44 42 43 43 43 43 44 45 49 51 56 50 48 47 47 44 45 42 43 43 44 44 47 49 50 51 51 53 52 53 50 50 50 52 52 53 51 54 54 53 57 58 57 54 57 56 59 60 57 54 57 59 57 56 55 59 55 54 55 53 52 53 55 53 54 54 51 49 51 51 51 47 49 48 46 45 45 45 44 44 44 45 44 44 45 43 41 43 43 43 41 45 48 46 46 49 49 52 53 51 49 43 41 41 43 43 40 39 39 37 36 34 33 31 31 30 30 28 28 29 27 27 25 24 26 25 26 25 25 26 27 27 27 30 33 33 34 36 36 36 41 44 36 39 34 35 35 32 30 28 28 23 23 26 27 29 27 29 23 20 18 18 16 17 16 15 16 15 16 15 14 15 14 13 14 12 12 13 13 13 13 13 12 13 13 12 12 12 14 14 13 12 12 11 11 11 10 10 10 10 10 11 10 11 10 10 10 10 10 10 10 9 10 9 9 10 9 9 10 9 9 9 10 9 9 9 9 8 8 8 9 9 8 9 9 8 9 9 9 9 8 8 8 8 9 8 8 8 0 
7 7 7 7 7 7 7 7 7 7 7 7 7 7 8 7 7 8 8 7 8 7 8 8 8 8 8 8 8 8 8 9 8 8 8 9 9 9 9 10 10 10 10 12 13 15 16 24 30 20 15 13 12 11 10 10 10 10 10 10 10 11 9 9 10 10 10 10 10 10 11 9 10 10 11 11 11 10 11 11 11 10 10 11 10 11 11 10 11 11 11 11 12 12 13 13 12 13 13 13 13 13 14 14 14 15 16 16 15 15 15 16 17 17 19 19 19 21 22 25 29 36 51 56 58 60 84 78 57 45 43 34 29 25 23 22 21 23 21 22 24 23 24 26 29 30 33 36 41 49 49 53 59 65 65 65 70 74 76 85 106 116 129 124 130 117 115 121 99 81 69 64 61 64 76 85 83 75 66 60 55 48 39 31 26 25 24 21 20 19 20 19 19 18 18 18 18 17 17 17 17 16 17 17 17 18 16 17 17 16 16 16 16 16 16 18 18 18 17 18 18 18 18 20 20 19 21 21 23 24 24 24 24 25 26 26 27 27 27 28 29 30 30 29 32 31 34 35 36 39 37 39 38 40 39 42 42 43 41 40 41 42 42 43 46 46 45 44 45 46 49 52 54 56 61 77 89 81 63 53 50 47 45 48 51 55 56 54 52 50 47 47 48 48 50 52 52 56 56 53 48 49 47 49 49 46 45 44 45 46 46 45 43 44 43 42 41 41 40 40 40 39 38 40 39 40 39 38 37 37 39 38 39 37 38 39 39 40 39 40 38 40 40 40 42 41 41 41 42 43 43 45 44 42 43 44 44 44 48 49 50 56 49 46 47 44 45 44 43 44 45 43 46 47 50 49 50 50 53 54 53 52 53 51 52 52 54 54 54 55 57 57 58 60 55 56 58 59 58 56 55 56 57 57 57 55 55 55 56 53 52 55 55 59 56 58 54 53 52 54 52 53 49 48 48 49 46 44 45 45 45 47 44 45 44 44 42 43 42 42 44 42 44 46 45 44 45 48 49 52 54 50 47 45 42 41 40 40 39 40 36 38 36 34 32 30 28 29 28 27 30 28 28 26 26 26 26 25 25 26 26 26 27 27 29 31 32 34 34 36 37 39 38 33 33 32 34 34 34 32 30 29 27 23 25 27 31 33 30 22 20 18 18 18 16 17 16 16 16 15 15 14 13 14 13 13 13 13 13 12 13 13 12 12 12 13 12 12 13 12 12 12 12 11 11 11 11 11 11 11 10 10 9 11 10 9 10 9 10 10 10 10 10 10 10 10 9 10 10 9 8 8 9 9 9 8 9 8 8 9 9 8 8 9 9 8 9 8 8 8 9 8 8 8 7 8 8 8 8 0 
7 7 7 7 7 6 7 8 7 7 7 8 7 8 7 7 8 7 8 7 7 7 8 7 8 8 8 8 8 8 8 9 8 8 8 9 9 10 9 10 9 9 11 11 11 12 13 14 14 13 12 12 11 11 10 10 10 10 10 9 9 10 9 9 10 10 10 9 10 10 10 10 10 11 11 11 10 11 10 10 10 11 10 10 11 10 11 11 12 12 11 11 11 11 12 12 12 12 13 13 13 13 13 14 15 14 14 15 15 15 16 16 16 17 17 19 20 19 21 24 26 27 31 34 38 47 74 88 66 51 49 38 35 28 25 23 22 22 22 23 24 25 26 26 28 30 33 35 44 49 54 64 66 65 66 66 69 69 77 85 92 101 114 109 109 102 103 112 106 100 89 76 78 85 91 91 72 65 60 53 48 42 36 31 26 25 23 22 20 20 19 18 19 18 17 18 17 16 17 17 17 17 16 16 17 16 17 18 17 17 17 16 17 16 18 17 18 17 18 18 17 19 19 20 19 20 20 21 22 23 24 25 25 24 25 26 27 27 29 28 31 30 32 31 32 32 33 35 35 38 37 36 39 40 41 42 45 42 41 39 39 42 43 44 47 46 46 45 47 48 49 50 53 57 64 77 86 85 69 62 57 53 53 53 56 59 55 56 52 51 49 47 49 48 50 49 52 53 57 56 53 49 49 49 48 48 49 46 46 47 47 46 45 44 41 42 42 42 41 39 37 38 38 39 39 39 39 39 39 39 40 40 39 40 40 40 39 40 40 40 40 42 42 41 43 45 43 43 43 44 44 47 46 43 43 45 45 45 45 49 48 58 52 50 48 45 43 45 45 45 44 44 47 48 49 49 53 52 54 54 55 55 51 52 54 52 54 55 58 57 59 58 56 58 55 59 56 57 55 58 58 58 58 57 55 53 53 53 53 53 56 54 55 54 58 63 57 53 54 57 57 53 53 52 51 50 49 47 47 48 46 47 46 46 45 44 44 45 44 44 44 45 44 44 43 45 44 45 49 50 56 55 50 48 44 41 39 38 40 40 39 38 38 34 33 32 30 29 28 28 28 26 28 27 26 26 25 26 25 26 28 29 27 27 28 29 30 32 36 34 34 32 33 29 30 29 35 32 35 33 33 35 31 24 32 31 31 35 25 21 19 18 16 17 16 16 15 16 14 14 15 15 14 13 13 13 13 14 12 13 13 12 12 12 13 12 11 12 12 13 12 11 12 11 11 11 11 11 10 10 11 10 10 10 10 10 10 10 10 10 10 9 9 10 10 9 9 9 9 9 9 9 9 9 9 8 9 9 9 8 9 8 9 9 8 8 8 8 9 9 9 8 9 8 8 8 8 8 8 0 
6 7 7 7 7 7 7 7 7 6 7 7 7 7 7 7 7 7 8 8 8 8 8 7 8 7 8 8 8 8 8 8 8 8 8 9 9 9 9 10 10 9 10 10 11 12 12 12 12 12 11 11 11 10 11 10 10 10 10 9 9 10 10 10 10 9 10 10 10 10 10 10 10 10 10 10 11 11 10 11 10 12 10 11 10 11 11 12 11 11 11 12 12 11 13 12 13 12 13 13 13 14 14 13 14 15 15 14 15 16 15 16 16 17 17 18 18 20 20 23 23 25 28 30 35 45 57 84 68 57 43 41 45 41 35 26 24 24 24 24 26 26 27 27 29 32 31 38 46 52 57 67 78 69 66 65 67 65 69 76 81 93 104 93 90 94 93 96 96 105 97 81 91 87 83 77 67 57 50 46 44 37 32 31 27 26 24 22 21 20 20 19 19 19 19 17 18 18 17 16 18 17 16 16 16 16 16 16 17 17 16 16 16 18 17 17 17 18 19 18 18 18 19 19 19 19 21 22 22 22 24 26 24 26 25 26 27 29 29 28 29 30 30 31 32 34 34 36 36 37 37 37 37 39 43 41 41 41 39 42 41 43 44 45 47 46 45 45 45 46 48 49 52 56 64 76 75 76 68 65 62 59 57 59 60 61 54 54 53 51 50 50 47 49 54 51 50 52 56 56 54 52 50 48 51 49 51 51 47 48 48 46 45 44 45 44 43 43 41 40 40 39 39 40 39 40 40 41 41 42 40 40 41 41 42 42 42 41 42 40 43 42 43 45 44 47 44 43 45 46 47 50 45 45 47 45 44 46 49 48 52 67 52 52 47 47 45 44 45 44 44 47 47 49 48 48 51 55 54 54 53 53 51 51 53 51 56 55 54 56 55 56 55 55 58 58 58 56 58 58 59 61 60 58 59 55 52 54 51 54 52 54 55 55 58 60 61 58 54 57 58 57 55 55 54 53 52 50 50 48 48 47 46 45 48 48 45 44 43 43 44 44 46 44 45 46 44 43 44 48 57 58 51 49 45 42 40 38 38 40 40 39 38 35 34 32 30 29 28 27 27 26 26 26 27 26 25 26 25 25 26 27 29 28 29 29 28 33 33 33 30 30 28 27 28 30 31 34 35 34 31 32 35 32 29 31 29 25 21 20 19 18 17 17 17 16 15 16 16 15 15 13 14 14 14 13 13 13 13 13 13 13 12 12 12 12 12 12 13 11 12 12 11 11 11 11 10 10 10 10 11 10 10 10 10 10 9 10 9 10 9 9 9 9 9 10 9 9 10 10 9 9 9 9 9 9 8 8 9 8 9 9 9 9 8 8 11 9 8 8 8 8 9 8 8 8 8 8 8 0 
6 7 7 7 7 7 7 7 7 7 7 7 7 7 7 8 7 7 8 7 8 7 7 8 8 8 8 7 8 8 8 9 8 8 8 9 8 9 9 9 9 11 10 10 11 11 11 11 10 11 11 11 11 10 10 10 9 9 9 10 10 9 9 10 10 9 9 9 9 10 10 10 10 10 10 10 10 10 10 10 11 11 11 11 11 11 10 11 11 11 11 11 11 12 12 12 12 13 12 13 13 14 12 14 14 15 14 14 16 14 15 15 15 16 17 19 19 19 20 21 22 23 25 27 32 40 51 87 73 55 47 57 75 55 45 32 31 28 30 27 28 28 28 28 30 31 35 40 49 61 65 71 75 75 70 62 61 60 65 64 70 85 93 82 80 85 83 88 82 87 99 91 84 76 69 68 59 51 45 44 40 36 32 29 28 26 23 22 22 20 19 19 19 18 18 18 17 17 17 16 18 16 16 17 16 17 16 18 17 16 17 17 17 18 17 18 18 18 18 19 19 19 20 19 19 20 21 21 21 23 23 24 25 24 26 26 28 29 29 29 29 30 30 32 31 32 33 36 37 37 38 37 38 40 41 41 42 39 40 41 44 44 47 45 45 44 45 44 45 46 45 49 50 55 66 74 74 72 66 69 71 67 64 64 60 59 55 55 56 55 52 53 52 53 53 49 50 53 55 58 58 55 51 51 50 49 51 50 49 49 47 48 46 45 45 44 43 43 41 40 39 40 40 40 40 41 41 42 42 42 40 41 43 41 44 41 43 44 41 41 43 42 44 44 47 47 44 44 44 46 49 50 44 46 46 45 44 46 48 45 54 66 51 51 49 47 45 45 46 45 47 46 46 47 48 50 50 53 52 52 50 54 53 53 53 53 54 52 53 54 54 54 52 57 55 55 57 57 57 58 56 57 58 56 56 55 53 54 54 52 52 55 56 56 57 61 61 61 59 58 58 56 56 57 56 54 53 51 52 53 51 50 51 49 50 49 46 47 46 48 47 47 45 49 44 46 47 46 43 47 57 56 51 46 47 42 42 38 39 38 39 40 41 36 35 32 30 29 29 28 28 26 24 26 26 26 27 26 26 26 27 28 29 28 27 28 28 29 32 30 28 29 28 28 28 28 33 35 37 37 31 28 30 29 27 24 23 21 19 19 18 17 17 17 16 16 16 16 15 15 14 13 15 13 14 14 13 13 13 12 12 13 13 12 12 12 12 12 12 12 11 12 11 11 11 11 11 10 10 10 11 10 10 10 10 10 9 10 10 10 10 10 10 10 9 9 10 9 9 9 10 9 9 9 10 9 9 9 9 9 8 9 8 9 9 8 8 9 8 8 9 9 8 8 8 8 8 9 8 0 
7 7 6 7 7 7 7 7 7 7 8 7 7 7 7 7 7 7 8 7 7 8 8 8 8 8 8 8 8 8 8 8 8 8 8 9 8 9 8 9 9 9 10 10 10 10 10 10 10 10 11 10 10 10 10 9 10 10 9 10 10 10 9 9 9 9 10 9 10 10 10 10 10 10 10 10 9 10 11 10 10 11 11 10 11 10 10 11 11 10 11 11 11 11 11 11 12 12 13 13 12 13 14 13 14 13 14 14 14 15 15 15 15 17 17 18 18 19 21 22 21 23 24 26 30 35 50 76 82 69 58 64 85 52 45 38 36 30 33 30 30 31 30 31 33 32 38 46 50 62 71 75 76 75 71 61 59 60 64 64 67 79 74 75 74 77 76 78 73 79 85 91 73 69 63 60 53 45 43 39 39 35 31 30 27 25 24 22 21 20 20 19 19 18 17 17 18 17 17 17 18 16 17 16 17 16 16 17 16 17 16 17 18 17 18 17 17 19 19 18 19 19 19 18 19 20 22 21 23 22 23 24 24 27 25 26 28 29 29 29 31 30 31 32 33 35 35 34 37 40 37 38 37 39 42 41 42 40 40 43 46 45 45 48 46 45 46 44 46 46 47 46 51 56 69 73 74 74 66 68 73 71 70 65 65 63 61 60 57 58 55 54 56 52 51 49 50 51 53 56 60 58 56 55 51 51 52 50 48 50 49 48 47 45 46 44 44 44 42 42 41 40 41 41 41 41 41 41 44 44 43 42 43 42 44 43 44 46 42 43 47 43 44 46 49 47 44 46 45 46 51 50 48 45 46 45 47 46 48 49 62 69 55 52 53 50 48 48 48 46 47 49 48 49 50 50 50 51 52 51 52 53 53 53 52 54 53 52 52 52 53 54 55 55 55 54 56 58 57 55 56 55 56 54 54 55 53 55 53 52 53 56 54 55 59 59 61 63 62 61 57 58 58 57 57 56 56 56 54 51 51 52 50 51 52 51 50 49 49 50 48 47 45 47 46 46 50 49 46 47 55 55 51 45 44 45 41 39 40 39 36 40 40 39 35 34 33 29 30 28 27 26 25 27 26 26 26 28 27 26 26 27 29 27 28 29 31 30 31 31 31 30 29 27 29 31 33 37 40 32 28 28 26 25 25 22 21 22 20 20 19 17 17 16 16 15 16 16 15 15 14 13 13 14 13 13 14 13 14 13 13 13 12 12 12 12 13 12 12 11 11 12 11 11 11 11 11 10 11 11 9 10 10 10 10 10 9 10 10 10 10 9 9 9 9 9 9 9 9 9 10 9 9 9 9 9 9 9 9 9 9 8 8 8 9 8 8 8 8 8 9 8 8 8 8 8 8 8 8 0 
7 7 7 8 7 7 7 7 7 7 7 7 7 7 7 7 7 7 7 8 8 8 7 7 8 7 8 7 8 8 8 8 8 8 8 8 9 9 8 9 9 9 9 9 10 10 10 10 10 10 10 10 10 10 10 10 9 10 9 9 10 10 10 9 9 9 9 10 10 10 9 10 9 10 10 10 10 10 11 10 10 11 11 11 10 11 11 12 10 11 11 11 12 12 11 12 12 12 12 13 13 13 13 14 14 13 14 14 15 15 16 15 16 16 16 17 18 18 19 20 21 22 22 25 29 32 50 52 61 75 67 56 65 55 43 44 40 41 38 34 32 31 30 34 33 39 44 51 58 64 77 74 80 82 69 66 65 64 61 58 63 70 64 66 67 62 66 65 67 65 68 71 63 59 56 54 47 42 39 38 37 34 32 30 28 25 25 23 22 22 20 19 19 19 19 18 18 17 17 17 17 17 17 16 18 16 16 17 17 16 17 17 17 17 18 19 18 19 19 20 20 20 20 19 20 21 21 20 22 23 23 24 25 26 26 26 28 29 30 30 31 30 30 32 34 35 34 35 37 40 35 37 36 38 40 44 43 41 42 46 50 47 48 47 46 45 47 45 45 45 46 48 49 53 70 71 76 77 69 72 71 69 70 68 65 63 61 61 62 61 60 59 58 52 51 50 50 52 54 56 63 62 62 59 57 53 51 50 49 50 50 50 49 48 45 47 44 43 43 42 43 43 43 42 42 42 43 43 42 43 44 45 43 45 44 44 45 44 44 44 47 44 43 48 49 46 45 47 46 45 53 52 47 46 47 46 45 48 47 53 62 64 54 51 51 52 52 49 47 47 49 48 47 49 51 51 52 54 51 51 51 52 51 52 53 54 53 51 51 51 53 51 54 54 54 52 54 59 58 56 54 52 53 53 54 54 53 55 54 55 55 56 56 54 57 59 61 61 62 61 58 60 57 58 60 56 57 57 58 55 55 55 53 54 54 55 55 52 51 51 46 48 47 48 47 48 50 54 51 52 56 55 49 45 46 45 41 40 39 40 37 39 38 41 37 35 33 31 30 29 27 28 27 26 26 25 26 26 28 29 28 27 27 28 27 30 31 30 31 31 32 31 29 30 30 33 35 38 35 33 30 27 25 24 23 22 20 19 19 19 19 18 17 16 16 16 16 16 15 15 15 15 15 13 13 13 14 13 14 13 13 12 12 13 13 11 11 12 12 11 11 11 12 11 10 11 11 11 10 10 10 11 11 10 9 10 10 10 9 10 10 9 9 9 10 10 9 10 9 9 9 10 9 9 9 8 9 9 9 8 8 8 8 9 9 9 9 9 8 8 7 8 8 8 8 8 8 7 8 0 
7 7 7 8 7 7 7 7 7 8 7 7 7 7 7 7 7 7 8 7 7 8 8 8 7 8 8 8 8 8 8 8 8 8 8 9 9 8 9 9 9 8 9 9 10 10 10 9 10 10 10 11 10 9 9 10 10 9 9 9 10 10 9 9 10 10 10 9 10 10 10 10 10 9 10 10 10 10 11 10 10 10 10 11 9 11 11 10 11 10 12 12 11 11 12 11 12 12 12 13 12 12 12 13 13 14 14 14 14 14 15 15 16 17 17 17 18 18 19 19 20 22 22 24 26 31 46 57 54 71 83 56 59 48 43 44 43 41 36 36 35 34 34 36 41 46 49 53 60 67 77 78 82 85 69 64 79 63 61 55 55 61 60 58 60 57 61 58 57 59 61 66 55 55 53 48 45 39 37 37 37 35 33 30 29 27 26 24 23 22 21 20 19 19 19 19 18 18 18 18 17 18 18 18 18 17 16 17 17 18 18 17 18 18 18 19 19 20 20 21 21 19 20 19 20 20 21 22 23 23 23 23 25 25 26 28 26 28 29 30 30 30 33 35 34 35 33 35 37 40 38 39 38 40 41 45 42 41 45 47 49 49 48 46 46 47 49 45 45 45 47 48 51 55 70 78 75 72 74 71 75 68 66 67 65 66 65 63 66 66 59 58 54 51 50 49 51 54 53 56 61 59 63 65 62 59 52 52 53 52 50 51 50 47 46 47 45 44 45 44 44 44 42 43 43 44 43 44 43 45 45 43 43 46 47 45 48 45 45 46 48 45 44 48 50 48 46 46 45 50 55 51 49 47 51 50 48 49 50 60 65 64 52 49 51 52 50 50 49 49 50 48 48 49 49 51 51 51 51 51 52 50 51 51 52 53 56 51 50 52 54 54 53 54 53 53 53 56 55 53 51 54 54 53 54 56 54 53 54 53 54 52 54 57 57 58 60 58 61 62 63 65 62 63 62 61 58 57 61 58 60 56 54 55 58 60 55 54 52 50 49 48 50 48 46 49 52 52 55 56 54 55 51 48 47 45 43 41 40 40 39 38 37 40 38 38 35 32 31 30 30 29 26 26 25 26 26 28 28 28 28 29 28 27 28 29 32 29 30 29 30 31 32 31 32 33 35 36 35 33 29 28 26 25 24 22 20 20 19 20 18 18 18 17 16 16 16 15 14 15 15 15 15 13 13 13 13 12 13 12 13 12 12 12 12 12 12 12 11 12 12 11 11 11 11 11 11 11 11 11 10 10 10 11 10 10 9 10 10 10 10 9 9 9 8 9 9 9 9 9 10 9 9 10 9 9 9 8 9 8 9 9 8 8 8 9 9 9 8 8 8 8 8 8 8 8 9 8 8 0 
7 6 6 7 7 7 7 7 8 7 7 7 7 7 7 8 8 7 7 7 7 7 7 8 8 8 7 8 7 8 8 8 8 9 8 8 8 8 9 9 9 9 9 9 10 9 9 10 9 9 9 9 9 9 9 9 10 9 10 9 9 9 10 9 10 9 9 9 9 9 10 9 10 9 10 10 10 10 10 11 10 11 10 10 10 11 10 11 10 11 11 11 11 11 12 12 11 12 12 13 12 13 13 13 13 14 13 15 14 14 15 16 15 15 16 17 18 17 19 19 20 21 21 25 26 29 35 50 54 77 80 65 61 63 56 49 45 43 37 38 41 42 41 49 50 51 52 55 64 68 79 79 82 78 73 64 75 69 61 49 49 51 54 57 54 56 57 56 55 57 56 58 55 51 45 44 42 39 37 33 34 33 32 30 28 26 26 26 25 22 21 20 20 20 19 19 19 18 18 17 17 17 17 17 17 17 18 17 17 17 18 18 19 17 19 19 19 19 20 21 20 20 19 19 21 20 22 22 22 22 24 24 24 24 25 27 28 29 30 30 30 32 33 35 35 35 35 35 37 39 37 37 38 38 43 44 48 44 46 49 50 47 48 49 50 47 49 47 46 45 48 47 49 55 64 65 72 73 74 71 71 65 66 68 67 71 69 70 74 63 57 55 52 52 50 50 50 51 55 55 57 62 62 66 64 59 55 54 54 53 51 50 49 48 48 50 47 47 47 46 45 44 45 44 45 45 45 44 45 45 46 46 45 45 48 46 50 47 45 47 49 45 47 49 52 49 49 48 49 54 57 54 48 48 51 50 50 49 59 66 66 64 52 50 51 51 51 51 50 49 50 48 49 48 47 50 50 50 50 49 49 51 51 50 51 51 52 53 50 53 52 53 52 57 52 52 54 54 53 54 52 53 56 57 54 55 53 56 53 53 52 53 55 56 59 56 57 55 57 60 59 64 62 64 62 64 57 62 63 65 62 60 57 54 57 57 53 50 50 51 51 50 49 49 48 49 49 54 53 54 57 56 53 50 49 44 43 43 41 37 39 39 36 35 36 37 36 32 30 31 29 27 27 27 26 25 26 26 27 28 30 29 28 27 28 30 32 29 29 30 29 29 29 30 31 30 33 38 32 29 28 28 25 24 22 22 20 21 19 19 18 17 17 18 18 15 16 16 15 15 14 14 14 13 13 12 13 14 13 12 12 12 11 11 12 12 12 11 12 12 12 11 11 10 11 11 11 10 10 11 10 10 10 10 10 10 10 10 9 10 10 10 10 10 9 10 9 9 9 9 9 10 9 9 9 9 9 9 8 8 9 9 9 8 8 8 8 8 9 8 8 8 9 8 8 8 9 8 8 0 
6 7 7 7 7 7 7 7 7 8 7 8 7 7 7 7 7 7 7 8 7 7 7 8 8 7 8 8 8 8 8 8 8 8 8 8 8 9 9 9 8 9 9 8 9 9 9 9 9 9 10 9 9 9 9 9 9 9 9 9 10 9 9 9 9 9 10 9 10 9 10 10 10 11 10 10 10 10 10 9 10 10 10 10 10 11 11 11 11 11 11 12 11 11 11 12 11 12 12 12 12 13 13 13 13 12 14 14 14 15 14 15 15 15 16 16 17 18 17 18 20 21 21 22 24 27 30 35 41 64 70 75 88 70 66 56 58 44 47 47 52 55 49 53 56 57 59 62 66 71 82 78 78 76 70 64 71 74 56 51 49 47 49 53 51 49 54 51 54 53 55 55 53 49 45 42 42 37 36 34 33 32 32 31 29 27 27 28 27 25 23 21 21 20 20 18 18 19 18 19 17 17 17 18 17 18 18 18 18 19 19 18 19 18 18 20 18 19 20 19 18 20 20 20 20 20 21 22 22 22 23 24 26 26 26 26 28 29 29 29 31 32 33 33 34 35 34 34 39 41 38 37 38 39 44 47 49 47 49 52 50 48 45 47 49 47 50 47 47 48 47 49 51 54 56 60 67 70 68 66 66 64 65 64 66 69 70 72 73 62 56 54 53 51 50 52 53 52 55 54 57 57 61 66 63 58 58 62 57 55 53 53 49 49 49 50 50 48 46 48 46 45 45 46 46 45 47 48 45 47 48 45 48 47 48 48 50 50 48 49 49 46 49 52 52 48 50 49 53 56 56 54 48 49 49 51 50 56 66 67 64 63 50 49 48 49 49 52 49 48 49 48 47 46 47 49 50 51 51 49 48 48 50 51 50 52 51 49 53 54 53 52 53 53 51 52 51 55 53 53 53 56 55 56 55 53 52 53 52 53 51 52 58 54 57 54 55 57 58 59 56 59 60 62 62 65 60 64 65 64 63 63 57 59 56 56 52 49 51 49 50 50 49 50 51 51 50 51 52 54 51 54 55 51 48 46 46 44 43 41 42 40 36 35 36 37 37 33 31 30 30 29 28 28 25 27 27 27 26 27 30 31 31 30 28 29 32 32 30 30 30 30 29 31 31 32 34 38 32 27 28 27 25 23 22 22 20 19 20 20 18 18 18 17 17 17 17 16 15 15 16 15 14 14 14 13 13 13 13 13 13 12 12 12 12 13 12 11 12 11 11 11 11 11 11 11 11 10 10 10 10 11 10 10 10 10 10 9 10 9 9 10 10 9 9 9 9 9 10 10 8 9 9 9 9 9 9 9 9 9 9 9 8 9 8 8 8 8 8 8 8 8 8 8 8 8 8 8 8 0 
7 6 7 6 6 7 7 7 6 8 7 7 7 7 7 8 7 7 8 8 8 8 8 7 8 7 7 8 7 8 8 8 8 8 8 8 9 9 9 8 9 9 8 9 9 8 9 10 9 10 10 8 9 9 9 9 9 10 8 9 10 9 9 10 10 10 10 9 9 10 9 10 9 10 9 10 9 10 10 10 10 11 11 10 10 11 11 10 11 11 12 11 11 12 11 11 11 11 12 12 11 12 12 13 13 13 14 14 14 14 14 14 16 15 15 17 17 17 18 18 19 19 21 21 23 25 26 29 33 44 57 64 62 65 67 66 75 66 67 56 65 62 55 59 63 62 64 65 63 66 72 76 74 75 68 64 66 70 62 61 51 46 45 47 45 45 47 47 47 50 51 52 50 50 45 42 39 38 35 34 32 33 33 32 32 30 28 28 26 26 26 25 23 20 21 20 20 20 19 18 18 17 18 18 18 18 19 18 18 19 19 18 18 18 18 19 19 19 21 19 20 20 21 21 21 20 21 22 22 22 24 24 24 27 27 28 28 28 28 30 33 34 34 33 34 34 34 35 40 41 37 36 38 41 45 47 51 48 50 49 51 48 47 48 49 47 49 46 48 47 48 51 50 52 55 57 62 63 63 65 64 65 65 69 69 68 70 71 67 59 55 55 53 51 51 52 54 53 56 57 57 60 64 63 64 58 62 67 65 59 56 52 51 50 50 52 50 48 47 47 49 47 47 49 48 47 48 48 49 49 50 47 47 50 48 46 50 50 51 52 52 48 51 52 52 52 48 50 57 56 58 55 50 50 50 53 57 69 68 68 67 62 54 48 48 52 48 51 49 48 48 44 46 46 46 48 47 48 49 51 49 48 49 50 49 52 52 49 50 52 51 51 51 53 52 54 52 55 54 54 55 55 55 54 56 53 53 51 50 52 52 55 53 55 55 56 55 56 58 56 56 55 56 57 56 60 59 61 63 64 64 63 60 59 60 57 54 53 50 49 49 51 51 54 53 52 53 51 49 50 51 53 56 54 48 48 45 45 44 42 41 40 39 36 36 38 38 34 34 32 30 28 27 28 26 27 28 28 27 28 30 31 29 27 29 27 31 29 29 30 29 33 31 33 32 34 33 37 29 28 27 29 25 23 20 21 21 20 19 20 20 17 18 17 16 17 16 15 15 15 14 14 14 14 14 13 13 14 13 12 12 12 12 12 12 11 12 12 11 11 11 11 12 11 11 11 10 11 11 9 10 11 10 10 9 9 9 10 10 9 10 10 10 9 9 9 9 10 10 9 9 9 9 9 9 9 9 9 8 8 9 9 9 8 9 9 8 9 9 9 8 8 8 8 8 8 8 8 7 0 
7 7 7 7 7 7 7 7 7 7 7 7 7 7 7 7 7 8 7 8 7 8 8 8 7 7 8 8 7 8 8 8 8 8 8 9 8 8 8 8 8 9 9 8 8 9 8 10 9 9 9 9 9 9 9 10 9 9 10 9 8 9 9 9 9 10 9 9 9 9 10 10 9 10 10 10 9 10 10 10 10 10 11 11 10 10 11 11 11 11 11 11 11 12 11 12 11 12 12 11 12 12 13 13 12 12 13 12 14 14 14 15 15 15 16 16 16 16 17 18 17 19 20 20 22 24 25 26 30 33 35 40 39 46 55 61 72 68 60 67 64 63 59 66 63 60 60 58 57 62 72 79 80 73 68 62 63 66 68 65 49 44 43 43 43 44 42 44 42 42 43 44 45 43 45 43 40 39 37 36 35 34 34 35 34 31 31 28 27 26 26 28 27 25 25 21 20 19 20 19 19 19 19 20 19 18 20 20 18 20 19 19 18 19 20 19 19 20 19 20 19 19 21 21 21 21 21 21 23 23 24 24 26 25 27 27 27 28 30 30 31 33 33 33 35 36 35 36 41 41 38 38 39 42 43 50 51 48 49 49 51 50 47 48 49 47 48 50 48 48 49 55 54 52 53 56 62 59 63 66 64 65 66 71 69 71 70 68 64 58 54 52 53 51 49 50 51 54 56 59 60 61 61 62 65 62 66 68 64 64 56 56 55 51 52 51 51 47 47 50 52 50 51 50 50 50 51 51 54 49 51 49 48 47 51 49 51 51 50 51 52 51 54 52 55 51 53 56 61 57 59 56 54 53 53 57 62 71 70 66 63 64 54 49 49 50 49 49 49 50 48 46 47 46 47 48 48 48 49 50 50 51 51 49 49 48 49 52 51 53 50 50 50 51 54 52 54 51 53 54 53 54 52 53 55 52 53 52 50 50 49 52 57 52 54 53 54 55 56 54 54 55 56 54 55 57 56 57 58 58 59 61 65 61 59 58 55 53 50 49 47 49 51 50 50 48 52 52 51 51 54 52 54 51 49 48 47 48 45 45 42 40 38 38 36 37 38 36 38 34 30 32 28 28 28 31 28 26 26 28 29 29 28 27 27 27 28 30 28 28 31 33 35 35 37 34 32 32 29 26 29 28 25 23 21 22 19 20 20 20 19 17 17 18 17 16 16 16 16 15 15 15 15 14 13 14 13 13 13 12 12 12 12 11 13 11 12 12 11 11 11 11 11 11 11 11 11 10 11 11 10 10 10 10 11 10 9 10 10 10 10 9 9 9 10 9 9 9 9 9 9 9 10 9 9 9 9 9 8 9 8 9 10 8 9 9 9 8 8 8 8 8 8 9 8 7 8 9 7 0 
6 6 6 7 7 7 7 7 7 7 7 7 7 7 7 7 7 8 7 7 7 8 8 7 8 7 8 8 8 8 8 8 8 8 8 9 8 9 8 9 9 8 8 9 9 9 9 9 9 9 9 9 9 8 9 9 8 9 9 9 9 9 9 10 10 9 9 10 10 10 10 9 10 9 9 9 9 10 10 9 10 10 10 10 10 10 11 10 11 11 11 11 11 11 11 11 11 12 11 12 12 12 14 13 13 13 13 14 14 14 14 14 14 14 16 15 16 17 18 18 18 20 20 19 21 22 23 24 28 27 27 30 32 36 43 45 47 52 53 57 59 55 60 57 53 53 52 50 52 59 70 78 75 78 68 66 64 66 68 60 48 43 43 46 45 42 40 40 38 38 39 39 41 40 41 43 39 38 37 38 35 36 38 34 35 34 31 29 30 28 26 29 31 32 29 23 21 21 20 20 20 19 18 20 20 19 19 18 18 19 20 19 19 19 20 20 19 20 20 21 20 20 21 21 20 21 21 22 23 22 23 24 25 25 27 28 29 29 30 32 31 33 34 34 34 37 36 38 42 42 41 41 41 41 46 51 53 50 50 51 52 48 46 51 49 49 47 50 47 49 49 49 52 54 55 58 58 59 63 66 63 65 70 69 70 74 72 66 60 57 55 54 52 51 51 51 55 56 56 57 60 60 59 62 64 63 64 63 64 65 64 61 57 57 54 53 51 50 50 52 53 51 54 52 54 52 54 53 51 50 49 51 50 50 52 50 51 53 54 54 56 58 55 53 55 55 56 61 59 60 61 58 52 58 57 65 69 68 71 68 62 63 54 51 48 48 48 50 49 50 47 45 46 46 46 48 48 47 49 47 47 48 50 47 49 48 51 49 52 52 50 52 52 51 53 53 53 53 53 53 53 53 53 53 55 52 51 50 52 50 53 54 55 53 53 52 53 54 54 54 55 53 51 52 51 52 52 54 51 54 55 58 59 60 60 58 53 51 54 49 49 50 51 51 48 50 53 50 52 52 50 52 50 51 51 51 47 46 43 43 44 40 39 37 36 35 37 37 37 36 35 31 30 28 28 28 28 26 26 27 29 27 29 29 28 29 28 30 27 27 28 32 36 36 41 36 32 29 27 27 29 28 25 23 22 21 20 19 19 19 19 18 18 17 17 16 17 16 16 16 15 14 15 13 14 14 13 13 14 13 12 12 12 12 12 12 12 12 12 11 11 11 11 11 11 10 11 11 10 10 10 10 10 10 10 10 10 10 10 10 10 10 10 9 10 9 10 10 9 10 9 9 9 9 9 8 9 9 8 8 9 9 9 8 8 8 8 8 8 8 8 8 8 7 8 8 9 8 8 0 
7 7 7 7 7 7 7 7 7 7 7 7 7 7 7 7 7 7 7 7 8 7 8 7 8 8 8 7 8 8 8 8 8 8 8 8 8 8 9 9 8 8 8 9 8 9 8 8 9 8 10 9 9 9 9 9 9 9 9 9 8 9 10 9 9 9 10 10 10 10 10 10 10 9 9 9 10 10 10 10 10 10 10 10 10 11 11 11 11 11 10 11 11 11 11 11 12 12 11 12 12 13 12 13 12 13 13 13 14 13 14 13 15 15 15 15 15 17 17 16 18 18 19 20 22 21 22 23 24 24 25 26 28 31 37 37 38 39 42 42 45 42 46 44 43 46 47 49 49 55 66 79 81 81 72 69 65 63 65 57 48 45 44 47 43 42 39 38 36 36 37 36 37 39 39 40 38 38 38 38 37 41 38 35 35 34 32 33 31 29 27 29 30 28 29 25 21 21 21 21 21 21 20 20 20 20 19 20 21 22 21 20 19 20 20 19 20 21 19 20 21 21 22 21 21 21 20 23 21 23 23 25 25 27 26 27 29 30 32 30 33 31 33 34 35 37 39 43 42 42 42 41 41 45 51 49 52 51 48 55 49 51 47 48 48 51 48 50 48 50 52 52 53 51 53 56 57 59 62 64 67 68 69 72 71 72 71 62 59 57 58 58 53 52 51 52 55 57 55 55 58 56 57 59 58 56 59 59 59 63 63 64 63 62 57 53 52 53 54 53 53 54 54 55 55 55 55 55 55 54 53 53 53 55 52 52 54 53 52 54 60 59 54 57 59 58 63 64 63 63 61 62 59 62 67 71 69 67 67 66 65 63 60 52 50 49 49 49 48 50 47 45 45 45 45 46 47 47 47 49 48 49 47 48 49 49 50 47 48 50 50 51 53 53 54 53 52 53 52 52 53 54 54 53 51 52 51 50 52 51 52 53 54 54 53 53 53 52 53 51 53 53 51 51 50 50 50 52 53 50 52 53 56 57 58 57 51 52 52 50 50 51 53 50 51 51 49 49 50 49 50 49 49 49 48 50 48 46 43 44 43 40 41 40 38 36 34 35 36 36 35 32 31 32 29 28 28 27 27 28 28 27 27 28 31 29 29 31 29 25 28 32 40 39 38 33 31 31 28 29 29 27 24 22 21 21 20 19 19 20 19 18 18 18 17 17 16 15 16 16 14 15 14 14 14 13 13 13 13 13 12 13 12 12 12 13 11 11 12 11 12 11 11 11 10 11 11 10 10 10 10 10 10 10 11 9 10 10 10 9 10 9 10 9 9 9 9 9 9 9 9 9 10 9 8 9 9 9 9 9 9 9 8 9 8 7 8 8 9 8 8 8 8 9 8 8 8 8 8 0 
6 7 7 7 6 7 6 7 7 7 7 7 7 7 7 7 7 8 7 8 7 7 7 7 8 7 7 8 8 8 8 8 8 8 8 8 9 8 8 8 8 9 8 8 8 9 8 9 9 9 9 9 9 9 8 9 9 9 9 9 9 9 9 9 9 10 9 9 9 8 9 10 9 9 10 9 10 10 10 9 10 10 11 11 10 10 11 10 10 10 10 11 11 10 11 11 12 11 11 12 12 12 12 13 13 13 13 13 14 13 13 14 14 15 15 15 16 16 15 17 18 18 19 19 21 21 21 22 22 24 25 24 26 28 30 32 31 33 34 33 36 36 37 39 38 42 44 44 48 52 64 81 85 80 71 69 66 63 63 58 49 48 47 45 42 41 38 37 36 35 35 34 34 36 39 41 38 39 38 37 36 40 36 35 35 35 32 34 34 31 28 27 27 29 31 26 23 24 23 21 20 21 22 21 22 21 20 19 20 19 20 20 20 19 20 20 20 20 21 20 21 20 20 20 21 22 21 23 23 24 23 23 25 27 27 27 29 31 31 30 31 31 33 34 36 39 39 44 41 44 45 41 43 47 53 53 52 52 48 54 53 53 50 50 50 49 51 48 49 53 51 52 55 53 53 54 60 62 62 69 66 67 73 75 76 72 66 63 59 56 57 56 53 53 50 53 54 53 53 51 51 54 55 52 54 54 54 55 55 62 62 62 60 62 61 55 54 55 54 54 54 55 54 57 57 56 56 56 58 56 57 58 56 57 56 55 58 58 56 57 61 58 58 59 65 66 63 64 64 65 65 68 70 72 72 67 66 65 66 65 64 66 61 52 50 48 49 51 50 48 48 45 45 45 44 46 46 47 47 47 46 48 45 47 48 49 46 48 48 49 48 51 51 52 52 53 52 51 52 52 55 54 55 54 52 53 51 51 52 50 53 54 53 50 51 51 50 51 51 51 52 53 50 48 50 50 48 48 48 47 48 51 51 52 53 51 54 54 54 51 52 53 54 50 50 48 47 48 46 46 46 47 49 49 49 46 47 47 43 44 42 41 41 38 38 35 35 34 40 39 37 34 33 33 31 32 30 29 28 28 27 27 28 29 30 32 31 36 31 30 28 32 36 39 37 32 29 29 27 28 26 24 22 22 21 19 19 19 18 19 17 18 18 18 17 16 16 16 15 15 16 15 14 15 14 13 13 13 13 13 12 12 13 12 12 11 11 11 13 12 11 11 11 11 11 10 11 10 10 10 10 11 10 9 9 10 10 10 10 10 9 10 9 9 9 9 9 9 10 9 8 9 9 9 9 9 9 8 9 9 9 9 8 8 9 8 8 8 9 8 8 8 8 8 8 8 8 8 8 0 
7 7 7 7 6 7 7 7 7 7 7 7 7 7 7 7 8 8 7 7 8 8 7 8 7 7 8 7 8 7 8 8 8 8 7 8 8 9 9 8 8 8 9 9 8 9 9 9 8 8 9 9 9 9 9 9 9 9 9 8 9 9 10 9 9 9 10 9 10 9 10 10 9 10 9 9 10 10 10 11 9 10 10 10 10 10 11 11 11 11 11 11 11 11 11 11 11 12 12 12 12 12 12 13 13 13 13 14 13 14 14 14 13 15 15 16 15 17 16 17 17 18 18 19 21 22 21 20 21 23 23 23 25 26 27 28 29 29 29 30 33 33 35 36 39 43 45 43 46 50 62 77 80 80 79 72 71 72 64 54 53 51 47 44 40 38 37 36 34 34 35 34 35 37 39 39 41 41 38 36 36 39 34 34 32 31 32 32 33 32 31 29 28 27 28 25 23 23 23 21 20 21 22 23 22 23 21 22 21 20 20 21 23 21 19 20 20 21 21 21 22 22 21 20 21 21 21 23 22 22 24 25 26 27 27 28 29 30 30 30 31 32 32 34 36 38 42 43 45 42 45 43 44 51 52 51 54 52 51 53 53 53 53 52 52 54 51 51 50 52 55 53 53 54 55 53 56 59 62 63 66 66 71 73 76 69 63 61 61 59 56 56 52 52 53 52 51 50 49 50 51 49 51 50 52 52 52 53 54 59 57 58 58 60 60 60 57 54 53 54 55 56 58 57 58 58 58 59 60 59 58 58 57 59 60 60 63 59 59 64 64 61 60 66 72 68 64 65 64 68 70 81 75 76 71 67 64 63 64 65 65 64 62 54 52 49 48 50 50 48 47 49 46 45 44 47 46 47 48 50 49 48 49 47 47 47 46 47 48 50 47 50 50 50 52 50 50 51 51 54 55 56 54 52 52 51 51 49 51 52 51 52 51 49 50 48 49 50 48 49 50 49 48 49 47 48 49 48 47 46 47 49 49 49 49 51 51 53 53 51 52 52 50 48 46 46 48 46 44 47 47 45 46 48 50 48 49 47 44 43 43 41 41 38 37 39 34 34 37 38 39 40 37 36 32 32 30 29 30 28 28 30 28 31 30 32 32 37 34 30 29 30 38 42 35 28 28 27 28 25 24 23 21 21 21 19 19 18 19 19 18 18 18 18 17 16 17 15 16 15 15 15 14 14 14 13 13 13 12 13 13 12 12 12 11 12 12 12 11 11 11 11 11 11 11 11 10 11 11 11 10 10 11 10 10 10 10 10 10 9 9 10 9 10 9 9 10 9 9 10 9 9 9 9 9 9 8 9 8 8 8 9 8 9 8 8 8 8 9 8 7 8 8 8 8 8 8 7 8 0 
6 7 7 7 7 7 7 7 7 7 7 7 7 7 7 7 7 7 7 7 8 7 8 8 7 7 8 7 8 7 8 7 7 8 8 8 8 8 8 9 9 9 8 8 8 8 9 8 9 9 8 9 8 9 9 9 9 9 9 9 8 9 8 8 9 9 9 9 9 10 9 9 10 9 9 9 10 10 10 10 10 9 11 10 10 10 10 10 10 11 9 11 11 11 10 12 10 12 11 11 12 12 12 13 13 13 13 13 13 13 13 13 14 14 15 14 15 16 16 16 16 17 18 19 20 20 19 20 21 22 22 24 22 23 24 27 27 26 27 28 30 30 31 33 37 41 41 42 43 51 59 67 73 81 78 77 70 73 63 53 51 50 47 43 40 38 35 34 33 32 34 35 36 37 40 38 40 40 38 38 40 39 34 34 32 32 31 29 29 32 33 31 30 30 30 28 25 24 24 23 23 23 23 23 25 23 22 21 21 23 20 22 22 21 20 20 20 20 22 21 21 22 21 21 21 23 22 22 23 23 24 25 25 27 27 28 28 29 31 30 31 31 33 35 36 40 45 45 44 44 46 47 47 52 55 52 52 54 52 55 53 56 55 53 53 54 53 53 54 51 53 51 54 53 57 56 57 58 61 66 66 68 70 72 69 70 64 61 60 57 56 54 53 51 52 52 52 51 49 48 48 48 48 49 48 48 50 50 53 56 59 60 62 55 54 55 56 56 57 60 61 61 59 59 61 61 64 62 61 61 59 61 62 62 63 63 64 63 66 72 67 67 68 73 77 72 68 70 72 76 79 89 74 72 69 66 63 62 62 63 65 64 64 56 53 49 49 48 49 47 47 47 47 46 44 46 46 45 46 48 49 50 48 48 46 46 44 45 45 48 49 50 51 50 50 49 50 50 51 53 55 57 54 51 53 53 51 51 50 48 51 51 49 49 47 50 50 49 49 50 49 49 48 48 49 49 48 48 47 44 45 48 48 46 48 48 49 47 47 50 50 51 49 47 47 48 45 44 45 46 46 45 46 48 49 46 48 46 45 46 44 40 39 37 38 36 35 34 37 40 38 38 40 38 34 35 33 32 32 29 29 30 31 30 30 32 33 35 35 30 29 33 45 42 31 29 26 25 26 24 23 24 22 21 21 20 20 19 18 19 19 18 17 18 17 16 16 17 16 15 15 15 15 15 14 13 13 13 13 12 13 12 12 12 12 12 11 11 12 12 12 12 11 11 11 11 10 10 11 11 11 10 10 10 10 10 10 10 9 10 10 9 10 10 10 9 9 9 9 9 9 9 9 9 9 8 9 9 9 9 9 9 9 8 9 9 8 8 8 8 8 8 8 9 8 8 8 8 9 0 
7 7 7 6 6 7 7 7 7 7 7 7 7 7 8 7 7 8 7 7 8 7 8 8 8 8 7 7 7 8 8 7 8 8 8 9 8 8 8 8 9 7 8 8 9 8 8 8 9 9 8 8 9 9 9 9 9 9 8 9 9 9 9 9 9 9 9 10 9 9 10 9 9 9 9 9 10 10 10 10 10 9 10 11 10 10 11 11 11 11 11 10 11 10 11 11 11 11 12 11 12 12 13 12 13 13 13 13 13 14 14 14 15 14 15 14 15 16 15 16 17 17 17 18 18 18 19 19 21 21 21 21 23 23 22 24 24 25 26 27 28 29 30 33 37 40 41 41 43 48 54 61 72 82 82 73 68 68 68 59 53 50 44 43 41 39 36 36 34 34 35 36 37 38 41 41 45 42 38 41 42 39 36 34 33 34 32 30 29 31 34 34 33 31 27 28 25 24 25 24 23 23 21 22 23 22 22 20 21 21 20 20 22 21 21 21 20 21 22 22 21 23 21 21 22 24 23 23 24 24 24 25 26 26 27 28 27 28 31 32 32 32 34 34 37 40 44 44 44 48 49 47 47 51 54 50 52 54 56 54 52 52 57 50 53 53 51 56 56 52 53 52 53 55 54 57 59 60 62 68 69 70 72 72 69 67 63 65 63 60 57 54 54 53 51 52 49 47 49 46 48 47 46 45 46 49 47 50 53 53 57 60 61 56 53 54 55 58 58 63 67 67 67 66 67 65 64 64 65 65 64 67 63 68 70 68 69 70 72 73 72 70 74 78 82 77 74 75 82 82 80 81 73 71 69 64 64 64 62 63 66 69 67 56 54 51 49 48 46 47 46 46 45 47 44 47 45 47 46 49 49 46 47 45 45 47 46 45 47 47 48 50 49 47 48 48 49 49 54 54 57 56 56 52 50 53 52 51 50 51 49 49 47 47 47 49 49 49 50 48 49 48 50 47 48 46 48 46 48 46 47 46 47 45 46 47 44 45 47 45 48 47 44 45 44 45 44 44 42 46 44 44 46 46 46 45 44 45 46 46 41 40 40 37 36 35 37 35 37 39 37 38 40 41 39 40 34 35 33 31 28 32 34 32 33 35 36 33 35 38 38 39 48 37 30 27 25 25 24 23 21 21 21 22 21 22 19 18 19 21 18 18 18 17 18 17 16 16 16 16 16 16 15 14 15 14 14 13 12 13 12 12 12 12 12 11 13 12 12 11 11 10 10 11 11 11 11 10 10 11 10 10 10 10 10 10 10 11 9 10 10 9 10 9 9 9 9 9 9 9 10 9 8 9 9 8 9 9 9 9 8 9 8 8 8 8 8 8 8 8 8 8 8 8 8 7 8 8 9 0 
6 7 7 6 7 7 7 7 7 7 7 7 7 7 7 7 8 7 7 7 7 7 7 7 7 7 8 7 8 8 7 7 7 8 8 8 8 8 8 8 8 8 8 8 9 8 8 9 8 9 8 9 9 9 9 9 9 9 9 8 9 9 9 8 9 9 9 10 9 9 9 10 9 9 9 10 10 9 9 10 10 10 10 9 11 10 11 10 10 10 10 11 11 11 11 11 12 11 11 11 11 13 13 13 12 12 13 13 13 13 13 13 14 14 15 15 15 15 15 15 16 17 17 17 18 19 19 18 19 20 21 20 21 22 22 23 24 24 26 27 28 29 30 34 36 35 39 40 42 45 50 59 72 85 82 72 71 70 72 63 53 50 47 43 41 39 35 36 33 35 35 36 37 39 42 45 45 43 42 41 43 38 35 34 35 32 29 29 30 30 32 37 37 32 30 29 26 26 26 24 24 23 21 23 24 23 21 21 20 21 21 21 20 23 21 20 20 20 21 22 21 22 22 22 22 22 24 24 23 24 24 25 26 27 28 27 28 28 30 30 33 33 34 37 38 43 44 44 46 48 56 49 47 50 50 51 50 53 55 51 52 56 53 52 53 55 51 55 55 52 54 56 56 53 56 59 61 62 67 68 72 70 69 70 71 66 63 62 63 57 57 57 54 53 49 49 50 47 45 47 46 45 46 45 46 48 48 49 51 53 58 68 65 52 53 51 55 59 62 64 67 70 70 74 72 71 68 70 72 72 71 72 69 72 70 74 79 77 79 82 82 79 85 87 95 86 82 82 83 80 79 79 70 70 70 65 65 61 62 61 63 67 67 62 54 50 48 47 47 49 47 46 45 45 45 46 45 45 47 47 49 47 45 46 47 47 47 47 47 47 49 47 48 48 48 48 51 50 51 54 56 57 55 55 54 52 52 50 51 50 47 48 47 47 48 46 48 47 48 48 52 47 48 48 44 45 46 46 44 45 48 46 46 46 46 46 48 43 44 45 45 46 43 42 43 42 44 43 44 45 44 44 44 48 45 45 45 45 46 47 42 38 39 37 37 36 38 37 36 39 37 36 42 40 39 37 34 34 33 30 33 35 36 34 31 33 33 37 39 45 42 42 42 32 29 26 24 23 24 22 21 21 20 20 20 22 20 18 18 19 18 17 17 18 17 16 16 17 17 16 15 14 15 14 15 14 13 13 14 13 13 13 12 12 12 12 12 11 12 11 11 11 11 12 10 10 10 11 11 10 10 10 10 10 10 10 9 10 10 10 10 10 10 9 9 9 10 9 8 9 9 8 9 9 9 9 8 8 8 8 8 8 8 8 9 8 8 8 9 8 8 8 8 8 8 7 8 9 8 0 
7 6 7 6 7 7 7 7 7 7 7 7 7 7 7 7 7 8 7 8 7 7 8 8 7 7 7 7 8 8 8 8 7 7 7 8 8 8 9 8 9 8 8 8 8 9 9 8 8 8 8 9 9 8 9 9 8 9 9 9 8 9 9 9 9 9 9 9 9 10 9 10 9 9 9 10 10 10 10 9 10 11 10 9 11 10 10 10 11 11 10 10 10 11 11 11 11 12 12 12 12 11 12 12 12 12 12 13 13 13 13 13 13 13 14 14 14 15 16 17 17 18 17 17 17 18 18 18 19 20 19 21 21 21 23 22 23 23 24 26 27 28 31 33 33 37 41 39 42 43 51 60 83 84 75 68 72 73 73 64 56 52 48 44 41 38 39 38 34 36 37 38 40 40 45 49 47 44 42 44 45 41 38 36 35 30 29 30 29 29 31 36 35 31 28 27 25 25 23 24 23 24 23 23 24 23 23 22 22 21 21 20 21 21 21 21 21 20 22 21 22 22 22 22 22 23 23 25 26 24 25 26 26 28 27 28 29 30 30 31 33 35 35 39 40 46 44 44 46 47 51 52 50 48 48 48 49 52 53 51 51 54 52 50 52 53 53 54 54 55 53 56 58 56 58 58 63 62 66 66 69 71 63 66 66 62 63 60 62 60 60 57 53 54 51 48 48 46 46 46 46 43 45 45 45 46 48 51 51 54 58 68 61 52 53 53 55 59 65 65 72 67 69 76 71 74 76 79 80 80 80 79 76 78 82 87 91 89 88 92 92 81 87 91 94 85 85 86 79 80 79 81 69 68 63 63 61 61 61 59 62 62 65 60 51 49 47 46 46 46 47 44 44 45 46 46 47 46 47 47 48 47 46 45 46 46 47 48 50 47 46 48 47 47 48 46 48 49 51 53 56 59 59 57 53 55 52 50 51 47 47 45 45 44 44 48 47 49 47 48 48 48 48 47 48 46 46 46 44 45 45 43 48 45 44 45 45 44 42 42 45 45 42 40 40 40 43 43 42 43 43 44 44 44 45 43 44 46 46 45 42 41 40 38 38 38 35 36 36 36 41 41 41 39 40 36 33 32 33 37 35 34 32 31 33 33 35 36 40 38 37 34 34 30 26 25 23 25 24 22 22 20 21 21 20 20 19 18 18 17 18 17 17 16 17 16 16 16 17 16 15 15 15 14 14 14 14 13 13 12 13 12 12 12 12 12 12 12 12 11 11 11 11 11 11 11 10 11 11 10 11 10 10 10 10 10 10 10 10 9 10 9 10 10 9 9 9 10 9 9 9 9 9 9 9 9 9 8 9 8 8 8 8 9 8 8 8 9 8 9 9 8 8 8 8 8 8 8 8 0 
7 7 7 6 6 8 7 7 7 7 8 7 7 7 7 7 7 7 7 8 7 7 6 7 7 7 7 7 8 8 7 7 7 8 8 7 8 8 8 8 8 8 8 8 8 8 8 8 8 8 9 8 8 9 9 9 8 9 9 9 9 9 8 10 9 9 9 9 9 9 9 9 9 10 9 9 9 10 10 9 10 10 10 9 10 10 10 11 11 10 11 11 11 10 12 12 11 12 12 11 11 12 12 12 11 12 13 12 13 12 14 13 14 13 13 14 14 15 16 15 16 17 16 17 17 18 17 18 18 20 18 19 20 20 21 21 22 22 24 24 25 28 35 31 32 37 42 40 41 43 50 60 82 81 77 73 73 78 77 64 57 54 52 47 45 42 39 39 37 38 40 42 46 47 48 52 52 48 50 52 55 43 38 36 35 31 30 29 31 33 32 34 35 32 29 27 27 26 24 24 24 23 23 23 24 24 22 23 25 22 21 22 22 21 22 22 22 22 22 23 21 22 23 23 21 23 23 25 26 23 26 25 26 28 27 27 29 30 31 32 34 34 38 38 44 45 44 45 45 46 52 54 53 50 49 49 50 54 55 51 52 55 54 51 53 52 54 52 53 53 55 58 58 61 61 61 63 65 67 65 67 68 63 64 63 60 58 58 59 58 57 56 54 53 51 49 47 47 44 47 45 45 44 46 47 48 49 48 52 55 60 64 65 58 54 55 55 59 67 72 71 69 70 71 74 77 79 79 82 84 84 79 78 84 95 97 95 92 97 99 97 84 88 89 86 85 82 80 76 74 76 75 71 66 63 59 58 57 56 58 59 60 61 56 49 47 46 45 44 44 43 42 42 44 44 45 46 47 46 46 47 47 47 46 44 45 46 51 50 50 47 48 48 47 48 49 48 50 50 53 57 58 58 54 55 54 52 50 47 46 46 45 44 43 44 46 46 46 46 46 49 47 47 46 46 44 43 46 44 43 43 46 44 46 44 43 41 44 43 41 44 45 42 40 41 42 42 42 43 43 43 43 44 44 46 44 44 45 46 44 43 39 39 38 36 36 36 37 34 38 42 44 41 39 42 37 36 34 35 35 35 32 33 32 32 33 33 36 37 31 30 31 32 27 27 23 24 24 23 22 22 21 20 21 20 21 20 19 18 18 19 18 16 18 17 16 17 17 16 15 15 15 14 15 14 14 14 13 13 13 12 12 12 13 12 12 12 11 12 11 12 11 11 11 11 11 11 10 10 11 10 11 10 10 10 10 10 11 9 10 10 9 9 9 9 9 10 10 9 9 9 8 9 9 9 8 9 8 9 8 8 9 8 8 9 9 8 8 8 8 9 8 8 8 8 8 7 8 8 0 
7 7 7 7 7 7 7 7 7 7 7 6 7 7 7 7 7 7 7 7 7 7 8 7 7 8 7 7 8 8 8 7 8 7 8 8 8 8 8 8 8 8 8 8 8 8 9 8 8 8 9 9 9 9 8 9 9 9 9 9 8 9 9 9 9 9 10 9 9 9 9 9 9 9 9 10 9 10 9 9 10 10 10 11 10 10 10 10 10 11 11 11 10 11 11 11 11 12 11 11 12 12 12 11 12 12 12 13 13 13 14 13 14 15 14 14 14 16 15 16 16 16 15 17 17 18 17 18 18 19 20 19 20 20 20 21 21 21 23 25 25 27 30 30 33 37 39 41 42 43 49 61 73 80 78 84 81 77 80 64 57 57 53 50 47 41 40 41 42 41 44 50 52 55 56 57 61 59 57 54 55 46 38 37 34 34 32 29 31 35 32 34 36 34 29 28 26 25 23 24 25 25 23 22 22 24 23 21 22 23 21 21 21 21 22 23 22 23 22 22 23 23 23 24 22 23 24 24 25 26 26 25 25 27 28 29 30 29 32 32 34 35 36 43 47 45 45 45 44 49 51 53 56 50 50 49 51 55 55 51 55 56 52 53 52 53 53 52 54 54 56 59 60 59 65 61 63 63 67 62 65 65 65 65 61 60 56 56 54 55 52 54 54 51 52 49 47 46 44 46 45 47 45 45 47 48 49 52 51 55 59 65 66 66 58 57 59 66 72 77 73 69 69 72 72 74 73 79 82 86 85 80 79 89 99 96 94 96 91 92 91 90 90 85 85 79 78 76 71 71 74 68 67 64 59 58 55 55 54 56 55 56 58 57 50 46 45 44 44 43 43 42 43 41 42 42 44 46 45 46 47 46 47 47 45 47 48 48 50 49 47 47 47 49 49 49 48 50 50 53 54 57 58 57 56 53 51 50 47 45 45 45 44 44 43 44 43 46 45 46 47 47 47 46 46 42 46 44 45 45 47 45 46 45 44 45 44 43 43 43 44 43 40 40 40 39 40 43 42 42 45 43 43 43 47 46 47 46 42 41 40 39 39 37 36 36 36 36 35 36 36 41 42 40 40 39 37 39 34 36 37 34 32 34 32 32 32 32 33 29 27 28 29 27 25 23 22 24 23 23 22 21 21 21 20 21 20 18 18 19 18 19 18 17 17 17 16 17 16 15 15 15 15 15 15 14 13 14 13 14 13 13 12 12 12 12 12 12 12 11 11 11 11 10 11 11 11 10 10 10 10 10 10 10 10 10 10 10 9 10 10 10 9 9 9 9 9 9 10 9 9 9 10 9 9 9 8 8 9 9 8 8 8 8 8 9 8 8 9 8 8 8 8 8 8 8 8 8 8 0 
6 7 7 6 7 6 7 7 7 7 7 7 7 7 7 7 7 7 7 7 7 7 7 8 7 8 7 8 7 7 8 8 8 8 7 8 8 8 8 8 9 7 7 8 8 8 8 8 8 9 8 8 8 8 9 9 8 8 9 8 9 9 9 9 8 9 9 9 9 9 9 10 9 10 10 9 9 9 10 10 10 9 10 10 10 10 11 10 10 11 10 11 11 10 11 11 11 11 11 11 12 12 12 11 12 12 12 13 13 13 13 13 13 14 14 15 14 14 15 16 15 15 16 16 17 17 16 17 18 17 18 19 19 20 20 20 22 22 22 23 25 26 27 31 32 38 38 38 40 43 48 57 66 75 81 89 82 80 79 68 57 56 53 49 48 45 43 42 42 41 47 52 54 58 57 64 62 61 58 53 45 42 42 40 36 33 33 32 32 33 35 36 35 33 30 28 27 27 24 25 24 24 24 23 24 24 23 23 22 23 21 22 21 21 22 24 23 23 22 24 23 25 23 24 23 23 24 24 25 26 25 27 27 26 26 29 29 32 32 33 32 35 38 46 43 45 45 46 44 48 51 54 51 51 50 50 53 56 55 52 56 52 56 56 54 54 53 54 56 54 57 60 60 64 62 63 64 63 63 61 62 66 66 62 61 57 57 52 51 51 50 52 49 49 51 48 46 46 45 46 46 48 47 46 48 48 50 52 54 55 58 66 70 74 66 65 70 74 76 76 70 70 72 73 72 73 77 80 85 91 94 89 84 98 103 97 96 89 87 89 89 84 87 83 83 80 75 69 69 67 66 69 66 59 56 58 53 53 54 53 52 54 55 60 56 47 45 45 44 41 42 42 40 42 43 41 42 43 42 45 44 45 44 46 46 49 53 52 49 49 47 49 47 49 49 50 47 47 49 51 53 56 56 53 54 52 50 48 47 44 44 44 44 44 43 45 44 45 44 46 44 44 44 45 43 44 42 44 45 46 49 46 46 44 44 43 43 42 41 43 41 41 41 40 41 40 40 41 40 43 41 42 43 47 43 43 45 43 41 39 39 39 39 38 37 36 37 36 36 34 35 39 41 39 39 41 42 39 40 37 36 32 32 34 31 31 30 30 29 27 26 27 29 24 23 22 22 22 22 22 22 23 23 24 21 21 21 19 18 19 19 18 18 16 18 18 17 17 16 15 16 15 15 15 14 14 14 13 13 13 13 12 12 12 12 12 12 11 11 11 10 11 11 11 11 11 10 11 10 11 11 10 10 10 9 10 10 10 10 9 10 9 9 9 9 10 9 9 9 9 9 8 8 9 9 9 10 9 9 9 9 8 9 8 8 8 9 8 8 9 8 8 8 8 8 8 8 7 8 0 
7 7 7 7 7 6 7 7 7 7 7 7 7 7 7 7 7 7 7 8 7 8 7 7 7 8 7 7 7 7 8 8 7 8 8 7 8 8 8 7 8 8 8 7 9 8 8 8 8 8 8 9 9 8 9 9 9 9 9 9 9 9 9 9 8 10 10 9 10 9 9 9 10 9 9 9 9 9 10 9 10 9 10 10 9 10 10 11 10 10 10 11 11 11 11 11 12 11 11 11 11 12 12 13 12 12 12 13 13 13 12 14 13 14 14 14 15 15 16 15 15 16 15 15 16 17 17 16 18 18 18 19 19 19 20 20 20 22 23 23 23 25 25 27 30 35 36 37 41 44 51 54 63 73 80 92 95 91 77 67 61 59 56 52 47 49 46 43 44 47 48 53 54 54 53 59 55 53 48 47 44 43 49 43 37 35 33 32 32 32 35 36 37 35 32 29 27 27 27 25 24 23 24 24 23 24 24 23 24 23 22 22 23 22 22 23 22 23 23 22 22 24 24 22 23 23 24 25 25 26 26 25 27 27 28 28 28 31 33 33 34 35 39 42 43 44 45 44 45 47 50 55 50 49 48 50 56 56 56 53 55 54 53 60 53 57 54 52 55 58 57 60 63 65 63 64 63 64 61 65 65 65 65 60 61 59 55 52 51 50 53 51 49 48 48 49 46 46 48 47 48 47 47 48 47 50 50 54 55 56 59 63 73 79 73 73 77 79 75 73 74 73 71 73 74 76 80 85 88 97 99 100 98 110 101 97 93 87 83 83 83 82 79 79 78 74 70 68 66 65 65 67 62 59 54 54 52 53 54 51 53 55 54 57 56 48 47 43 42 42 40 42 41 42 40 41 42 42 40 43 43 44 44 46 48 48 51 52 51 52 52 49 48 47 48 48 49 49 50 50 52 54 55 54 52 51 49 50 47 46 46 46 44 44 47 44 44 43 45 45 46 43 44 45 44 43 44 42 45 44 46 47 44 46 46 44 44 43 42 41 43 44 41 41 40 43 40 41 42 42 43 41 44 47 45 46 44 44 44 41 39 39 36 37 36 36 36 36 35 37 34 38 42 43 44 44 41 39 39 36 33 32 32 31 33 32 29 29 27 25 25 25 27 24 23 22 22 21 21 21 23 21 22 22 20 19 20 19 18 18 19 18 17 18 18 18 19 17 17 16 16 15 14 15 15 15 14 14 14 12 13 12 12 12 12 12 12 12 11 10 11 11 11 11 11 11 11 10 11 10 10 10 10 10 10 10 10 10 9 9 10 9 9 9 9 9 9 9 9 9 9 9 8 9 9 9 8 9 8 8 9 8 8 9 9 8 8 9 8 8 7 8 8 8 8 8 8 8 8 0 
7 7 6 6 7 7 7 7 6 7 8 7 7 7 6 7 7 8 7 7 7 7 7 7 7 8 7 7 7 7 7 8 8 9 8 8 8 8 8 8 8 8 8 8 8 8 8 8 8 8 8 8 8 9 9 8 9 9 8 8 8 8 9 9 9 9 9 9 9 10 9 9 9 9 9 9 10 9 10 9 9 10 9 10 10 10 10 10 10 10 12 11 11 11 11 11 11 11 12 12 11 12 12 13 13 13 13 13 12 13 14 13 14 13 12 14 15 15 16 16 15 15 15 16 16 17 17 17 17 18 18 18 18 19 19 19 21 21 22 23 24 24 25 26 28 32 36 41 42 48 54 54 58 66 75 82 92 102 77 69 64 63 62 52 46 46 49 44 46 48 48 55 52 52 51 56 50 44 43 43 43 46 55 49 41 37 34 34 35 36 36 37 38 33 30 29 28 27 25 25 25 24 24 24 24 25 23 24 25 24 22 23 23 22 23 24 23 24 24 22 24 25 24 24 24 25 24 26 26 27 26 27 27 26 28 28 30 31 32 34 35 39 42 43 43 43 44 44 47 49 53 57 51 51 49 51 55 54 54 55 54 53 56 62 56 57 58 56 57 57 60 60 63 62 61 61 61 62 59 66 66 67 62 58 60 58 54 52 50 51 50 51 49 49 46 45 47 47 49 49 48 50 52 52 52 51 53 56 57 57 64 63 69 78 81 74 76 75 76 73 72 77 74 73 74 79 83 89 88 100 97 101 101 108 93 91 87 83 81 81 78 74 74 76 77 70 70 65 64 61 63 64 60 57 54 55 50 53 53 49 52 54 53 54 53 46 45 41 43 41 41 43 42 42 42 41 41 42 41 41 43 42 45 46 48 49 50 53 54 55 52 51 49 48 49 46 47 46 48 50 53 55 57 53 51 50 51 49 46 47 46 43 44 44 45 44 44 42 44 44 45 44 46 44 43 45 44 42 46 42 44 45 45 42 43 41 41 43 42 39 42 41 40 42 40 41 41 42 40 40 41 42 44 48 46 47 46 45 45 41 38 37 36 35 33 34 35 36 34 37 36 38 45 45 46 43 45 43 38 36 32 30 31 29 30 28 27 27 26 26 25 25 25 23 23 22 22 22 22 21 20 21 21 22 19 18 19 20 19 19 19 19 18 19 18 19 17 15 18 17 16 15 16 15 15 15 14 14 14 14 13 13 13 13 12 12 12 12 11 11 12 11 11 11 10 11 11 10 10 10 10 10 10 10 10 10 9 10 10 10 10 10 9 10 9 10 10 9 9 9 9 10 10 8 9 9 8 9 8 9 8 8 8 8 8 8 9 8 8 8 8 8 9 8 8 8 8 7 8 0 
6 7 7 6 7 6 7 6 7 7 7 7 7 6 7 7 7 7 8 7 7 7 7 8 7 8 8 8 7 8 8 7 7 7 8 8 7 8 8 7 8 8 8 8 8 9 7 8 8 8 8 8 7 9 8 8 8 8 9 9 9 9 9 9 8 9 9 9 9 9 9 9 10 9 10 9 10 9 10 10 9 9 10 9 10 10 10 10 10 11 10 10 10 10 11 10 11 11 11 11 12 12 12 14 12 12 12 12 12 13 13 13 14 14 13 14 14 15 14 14 15 15 15 15 16 15 16 17 17 17 19 17 18 19 19 19 19 20 21 22 23 24 25 25 28 31 32 37 42 47 49 52 56 60 73 78 86 97 80 68 61 64 61 54 48 50 53 46 46 46 47 55 53 51 49 51 45 44 44 43 45 52 58 48 43 41 38 38 37 38 38 40 39 36 33 29 29 27 26 24 24 24 25 25 25 25 25 24 25 24 23 23 22 24 23 23 22 23 23 23 23 23 25 25 25 24 24 24 26 25 25 28 27 26 28 30 30 31 32 35 38 42 42 43 44 43 42 43 45 46 56 56 52 50 50 54 57 54 55 55 54 53 56 58 54 59 56 58 64 58 59 62 61 62 61 61 61 62 61 63 63 66 62 57 57 56 55 50 49 50 50 51 50 48 46 45 49 51 49 49 51 50 50 52 54 57 58 55 63 63 62 65 66 74 78 74 75 79 75 78 76 78 85 82 83 79 85 96 90 96 93 93 98 99 91 83 81 76 78 78 76 71 69 71 73 71 65 61 59 57 58 61 61 54 53 51 52 48 48 49 48 51 53 57 51 52 48 46 45 42 40 41 41 42 40 41 40 41 40 41 41 40 43 43 46 47 49 49 54 52 52 51 50 50 46 47 46 47 48 48 52 54 56 55 52 53 51 50 48 47 45 44 45 43 44 46 44 45 44 44 44 45 44 43 48 47 43 44 45 44 43 45 46 44 42 41 42 41 40 41 39 38 40 40 44 41 42 41 42 41 44 45 46 48 49 49 45 42 41 39 36 36 33 34 32 32 34 34 35 36 38 38 39 40 41 40 47 44 37 35 33 31 30 29 28 26 27 26 25 26 26 26 24 23 23 21 21 20 21 21 21 21 20 20 20 19 18 18 18 18 18 18 16 18 17 18 16 15 17 15 16 15 15 14 14 14 14 13 14 14 13 12 12 12 12 12 12 11 11 10 11 11 11 11 12 10 10 10 10 10 10 10 10 10 10 10 10 10 9 9 10 10 9 9 9 9 9 9 10 9 9 9 9 9 8 9 9 8 9 9 9 9 9 9 8 8 8 9 8 8 8 8 8 8 8 8 8 8 8 0 
7 7 6 7 7 7 7 7 7 7 7 7 7 7 6 7 7 7 7 7 7 8 7 8 7 7 7 8 7 7 7 7 8 7 8 8 7 9 8 8 8 8 8 8 8 9 8 8 8 7 8 9 8 8 8 8 8 9 8 9 10 9 9 9 9 9 9 9 9 9 9 10 9 9 9 10 10 9 9 9 9 10 10 10 10 10 10 10 10 11 11 11 11 11 11 11 11 11 11 11 11 11 11 13 14 13 12 11 13 13 13 13 13 13 14 13 15 15 14 15 15 15 16 16 16 15 16 16 17 18 17 18 18 18 19 19 20 21 20 21 22 22 25 25 27 29 32 35 40 47 45 51 52 56 70 83 76 76 72 64 61 61 61 57 57 52 53 52 48 46 47 54 51 47 48 46 44 45 42 45 49 58 55 48 43 42 40 39 37 38 41 38 39 39 32 28 28 28 27 27 25 26 24 27 26 27 27 25 27 24 23 25 23 24 24 23 23 24 24 24 24 24 25 24 25 25 25 25 25 26 26 28 28 28 27 29 31 32 33 37 39 44 42 43 40 41 43 44 45 48 55 54 52 50 51 55 57 54 56 58 53 54 56 60 58 56 60 59 58 59 60 62 61 63 61 60 60 59 60 62 62 63 60 57 55 54 53 53 51 50 51 53 50 48 47 46 50 53 51 50 51 51 50 53 54 54 59 59 63 63 64 67 69 72 72 75 74 79 77 80 86 86 83 87 87 87 87 92 89 90 87 86 91 89 85 78 74 72 74 74 73 69 69 68 67 63 62 58 56 57 57 58 55 53 49 48 48 47 46 46 48 48 51 54 55 54 46 43 44 44 42 41 42 43 39 40 40 38 39 40 38 40 42 43 44 45 48 48 48 50 51 50 46 47 46 45 45 47 48 48 52 55 54 55 53 50 49 49 49 48 46 45 46 46 46 44 43 46 45 44 44 44 44 46 48 46 43 46 44 45 46 45 49 44 42 42 42 41 41 41 40 42 41 44 43 41 41 43 42 44 45 44 44 50 49 45 42 39 38 35 36 34 34 32 32 32 33 32 32 33 35 35 36 33 34 37 46 41 36 36 32 29 29 27 26 25 25 25 26 25 25 28 25 24 23 22 22 21 21 20 23 22 21 21 19 18 18 18 18 18 18 17 17 17 17 18 16 15 15 15 15 14 14 14 15 14 15 14 13 13 13 13 12 13 12 11 11 11 12 11 11 11 11 11 11 10 10 10 11 10 10 10 10 10 10 9 9 10 9 10 10 10 9 9 9 9 10 9 9 9 9 9 9 9 8 9 9 9 9 8 8 8 8 8 9 8 8 8 8 8 8 8 8 8 8 9 8 8 8 0 
7 7 7 6 6 7 7 7 6 7 7 7 7 7 7 7 7 7 7 8 6 6 7 7 7 7 7 7 8 7 7 7 7 8 7 8 7 8 7 7 8 8 8 8 8 8 8 8 8 8 8 8 7 8 9 9 9 8 8 8 9 8 9 9 8 10 9 9 9 9 8 9 9 9 9 10 9 9 10 9 10 10 10 9 10 10 10 11 10 11 11 10 11 11 11 11 10 11 12 12 11 11 12 11 12 12 12 12 11 12 12 13 13 14 13 13 13 14 14 15 14 14 15 15 16 15 17 16 16 17 17 18 17 19 19 19 19 21 22 21 21 23 24 25 26 29 32 38 46 44 46 47 48 53 67 91 80 61 55 54 58 60 60 61 59 58 58 53 48 46 46 52 55 50 49 44 45 45 47 54 55 63 56 47 43 42 41 40 41 40 41 40 37 37 33 29 29 29 30 27 27 26 27 28 27 27 27 25 27 24 24 24 24 25 23 23 24 23 24 24 23 25 24 24 26 25 25 25 26 25 26 28 29 29 29 29 30 32 34 37 42 42 41 41 42 43 41 43 47 52 54 55 54 49 51 55 53 52 56 58 53 55 58 59 59 57 60 56 60 61 61 60 62 64 63 61 61 59 60 57 61 59 56 55 56 53 53 51 50 51 52 55 53 49 48 46 49 51 53 55 53 52 52 51 54 57 59 60 60 62 64 69 68 66 71 73 75 78 79 85 85 85 81 83 87 82 82 84 81 80 80 82 82 84 77 73 71 70 68 70 69 67 66 65 64 61 60 55 54 53 56 57 56 52 49 47 46 46 44 47 46 47 49 50 53 53 51 43 43 42 42 43 43 41 39 39 41 40 39 38 39 41 40 41 42 44 46 47 49 47 48 47 47 47 47 45 45 45 48 48 52 51 54 54 51 48 48 49 46 47 45 45 45 46 44 44 45 45 45 43 44 44 46 49 45 45 46 45 46 47 46 47 47 45 42 41 39 39 40 41 41 43 44 41 41 41 41 41 43 45 43 42 43 48 47 42 39 37 37 36 35 33 32 31 31 31 32 31 30 30 32 32 33 30 30 34 42 40 36 34 31 29 28 26 25 24 24 25 24 24 25 26 25 25 23 22 22 21 21 21 23 22 22 21 19 19 18 19 18 19 18 17 17 17 17 17 17 16 15 15 15 15 15 16 14 14 14 13 14 13 13 12 13 11 12 12 12 12 11 11 11 11 10 11 11 10 11 11 11 10 10 10 10 10 10 10 9 10 9 11 8 10 9 9 9 9 9 9 9 9 9 9 10 9 9 9 8 9 9 8 9 9 9 8 8 9 8 8 8 7 8 9 8 8 8 8 8 8 8 0 
6 7 7 6 7 7 6 7 7 7 7 7 7 7 7 7 7 7 7 7 7 7 7 7 7 7 8 8 8 8 8 7 7 8 8 8 8 8 8 8 8 8 8 8 7 8 8 8 8 8 9 8 9 9 8 9 8 8 9 9 8 9 9 9 8 9 9 9 9 9 8 9 9 9 9 9 9 10 9 10 10 9 10 9 10 10 9 10 10 10 10 10 10 10 10 11 10 11 11 11 12 12 13 11 11 12 12 12 12 12 13 12 12 13 15 14 13 14 13 14 14 15 15 15 15 15 15 16 17 17 17 17 17 17 19 18 19 19 20 21 22 21 23 26 27 29 33 38 51 44 47 45 46 50 58 95 87 65 52 52 58 59 56 53 54 59 57 52 49 46 45 48 57 56 51 47 49 46 49 54 57 58 50 44 43 42 43 41 42 40 38 36 34 35 33 30 32 30 29 27 28 25 26 27 25 26 26 28 27 25 25 25 24 23 23 24 25 25 25 24 24 24 25 26 25 27 25 26 27 27 26 27 31 29 30 29 31 33 36 40 43 43 41 40 40 42 43 45 48 51 52 54 54 54 55 56 53 54 57 60 56 56 59 57 58 57 61 60 60 62 63 61 62 63 62 64 66 61 60 59 57 58 55 51 53 50 51 51 51 53 54 56 58 54 52 50 54 53 54 55 57 52 51 52 54 55 56 57 58 61 65 66 71 70 74 74 80 84 83 86 84 82 80 82 83 81 81 76 75 71 72 73 75 75 71 69 69 64 65 64 67 64 61 58 59 60 56 55 51 51 52 56 56 52 48 47 44 47 46 44 45 47 48 51 52 53 51 44 42 42 42 43 42 41 41 39 36 40 38 39 38 39 38 41 43 44 46 43 46 47 48 47 47 47 45 46 46 46 45 46 48 51 53 55 53 48 50 49 46 47 47 48 44 45 45 43 45 45 45 45 45 45 48 47 46 46 45 47 47 48 45 45 45 45 43 39 41 39 42 41 43 42 41 41 41 42 42 43 42 41 42 40 42 47 45 41 38 38 37 35 34 33 33 31 29 29 31 30 30 28 29 30 32 35 33 37 40 36 34 32 31 28 26 26 25 23 23 23 22 24 26 25 25 24 23 24 23 22 21 21 22 23 21 21 20 18 19 19 20 19 19 18 17 17 17 17 16 16 16 16 16 16 15 14 15 14 14 13 13 13 13 13 13 12 12 12 11 11 11 11 11 11 11 11 11 10 11 10 11 10 10 10 10 10 10 10 9 10 10 9 9 9 10 10 9 9 8 9 9 9 9 9 9 8 9 9 9 9 8 9 9 9 8 8 8 8 8 8 8 8 8 8 8 8 8 8 8 8 8 0 
7 6 7 7 7 7 7 7 7 6 7 6 7 7 7 7 7 6 7 7 7 7 7 7 7 7 8 7 8 7 7 7 7 7 7 7 8 8 7 8 8 8 8 8 8 7 8 8 8 8 8 8 8 8 8 8 8 8 9 8 8 9 9 9 8 9 9 9 9 9 9 8 9 9 9 9 10 9 9 10 9 10 10 10 11 10 10 10 10 11 11 10 10 10 10 10 10 10 11 11 12 12 11 12 12 11 12 12 12 12 13 12 13 14 13 12 14 13 14 14 14 15 14 15 16 15 15 16 17 16 17 17 17 18 18 19 19 19 20 21 21 23 24 24 25 30 32 40 47 37 38 42 43 45 56 83 91 69 52 55 62 62 58 51 49 54 48 47 45 43 44 50 53 58 54 51 51 49 53 49 50 58 48 43 43 43 42 43 39 36 33 32 32 34 33 31 32 33 32 30 28 27 28 26 24 26 25 27 26 25 25 24 24 23 23 24 24 26 26 25 24 24 25 25 26 26 25 27 26 27 28 28 30 29 32 30 31 35 42 44 41 41 41 41 42 43 42 44 49 50 51 53 55 56 56 54 54 53 59 61 56 56 56 59 58 58 62 62 60 60 63 63 65 64 62 61 60 58 56 56 60 56 55 52 52 49 51 51 52 50 52 55 57 56 57 55 58 58 56 56 57 56 54 53 55 55 56 55 59 62 64 70 75 74 72 78 83 87 82 84 76 74 76 78 75 76 76 70 68 68 68 70 69 71 64 64 63 61 59 60 59 55 56 57 58 57 54 53 49 48 52 51 53 53 48 45 44 44 44 42 45 46 48 50 49 52 53 47 41 41 42 43 44 41 40 38 38 38 39 38 37 41 41 41 42 43 43 43 44 46 48 47 46 47 48 48 48 47 46 47 49 49 52 54 52 48 46 49 46 48 48 47 45 45 45 45 45 48 46 48 48 46 45 45 44 43 42 45 47 46 45 46 44 42 42 41 41 40 42 42 43 42 42 41 43 40 41 42 43 42 40 42 41 39 41 44 39 37 37 36 33 33 32 31 30 30 31 30 29 28 28 30 32 38 36 38 37 34 33 29 30 28 26 26 25 23 24 24 23 23 25 24 25 24 24 25 24 22 23 21 21 22 21 21 20 19 19 19 19 20 19 18 17 18 18 17 16 17 16 16 15 15 15 14 15 13 14 13 14 13 13 13 12 12 12 12 12 11 11 11 11 11 11 11 11 10 11 11 10 10 10 10 10 10 10 10 9 9 9 9 9 10 10 10 10 9 10 9 9 9 9 9 9 8 8 9 8 9 8 8 8 8 8 8 9 7 9 8 8 8 8 8 8 8 8 9 8 8 8 0 
7 6 7 7 6 6 7 7 7 7 7 7 6 7 7 7 7 7 7 7 7 7 7 7 7 7 7 7 8 7 7 8 7 8 8 8 7 7 8 8 8 8 8 8 8 8 8 8 8 8 8 8 8 8 8 8 8 9 9 8 8 8 8 9 9 9 8 10 9 8 9 9 9 10 9 9 9 9 9 10 10 9 10 10 10 10 10 10 10 11 11 10 11 11 10 11 11 11 11 11 11 12 11 11 12 12 12 12 12 13 12 12 12 14 13 13 13 14 14 14 16 15 14 14 15 15 15 16 16 16 17 17 18 19 17 18 19 20 21 20 21 22 24 25 27 31 33 37 42 38 37 39 43 43 52 70 80 76 68 58 59 67 61 52 52 56 49 48 47 43 44 49 54 56 53 49 48 51 52 50 49 53 47 43 39 41 43 38 36 34 31 32 30 31 34 32 31 33 33 31 31 28 26 26 24 25 26 26 27 26 26 25 23 24 23 25 25 26 26 25 25 24 26 24 25 26 27 26 27 28 29 29 30 29 31 33 33 37 41 44 41 40 40 40 41 43 44 48 50 51 51 55 57 57 59 53 52 56 61 62 59 55 57 59 61 61 61 62 60 62 67 71 67 63 63 61 61 56 57 58 60 56 54 52 51 50 51 50 52 52 53 53 54 58 59 59 61 60 61 57 57 57 56 52 55 60 59 59 63 64 66 72 77 80 81 81 84 81 84 78 69 71 72 73 71 71 68 67 66 66 67 66 65 66 63 61 62 61 57 60 57 53 53 53 53 54 53 50 51 48 49 50 51 51 49 44 44 44 44 44 45 45 48 50 50 56 49 45 45 42 41 41 41 39 40 38 40 37 40 38 40 41 41 41 42 44 41 44 45 45 46 47 49 47 47 48 51 52 49 48 49 50 53 52 49 49 47 48 49 48 46 47 46 46 46 47 45 46 46 48 45 46 44 44 44 44 44 44 44 45 47 43 45 43 42 42 40 40 41 43 43 42 44 42 43 43 44 44 43 43 46 44 42 42 42 46 40 38 39 36 34 32 30 30 30 30 29 29 29 31 28 29 30 37 37 35 35 33 31 27 29 26 27 25 24 23 23 23 22 23 22 23 25 23 23 25 23 26 23 22 21 21 21 22 21 20 19 19 20 19 19 18 18 18 18 18 17 15 16 16 16 15 15 14 15 15 14 14 14 13 13 13 13 13 12 13 12 11 11 12 11 11 11 11 11 11 10 10 11 10 10 10 11 10 10 10 9 10 9 9 9 10 10 10 9 8 9 8 9 9 9 10 8 9 9 9 8 9 9 9 8 8 8 8 9 8 9 9 8 8 8 8 8 8 8 8 8 8 8 0 
6 7 6 6 7 7 7 7 7 7 7 6 7 7 7 7 7 7 7 7 7 7 7 7 6 7 7 7 7 8 8 8 7 8 8 8 8 7 7 8 7 7 7 7 7 7 8 8 8 8 8 8 8 8 8 9 9 9 8 8 8 8 9 8 9 8 9 9 9 9 8 9 9 9 9 9 9 9 9 10 9 9 10 10 10 10 10 10 11 11 11 10 10 10 10 11 10 11 11 10 11 12 11 11 12 12 11 12 12 12 12 12 12 14 13 13 13 14 14 15 14 15 15 15 14 16 15 15 16 16 17 17 17 17 17 18 18 19 20 21 21 23 22 24 29 32 32 39 39 37 39 40 40 40 44 50 68 76 68 57 61 69 66 60 54 61 52 48 51 45 45 50 53 52 48 48 44 45 49 49 48 50 42 43 36 37 38 36 34 32 31 30 32 32 33 34 31 34 35 31 31 27 28 27 25 26 26 25 27 28 27 25 25 23 24 23 25 26 26 28 27 26 26 26 26 27 27 26 28 27 27 29 30 32 31 34 38 42 42 42 40 38 39 40 42 43 47 49 48 49 51 56 60 63 56 54 54 55 58 59 60 58 59 60 59 58 60 64 63 63 72 74 70 63 63 57 59 60 57 58 56 54 54 51 50 50 52 52 50 52 53 54 53 56 59 60 61 57 53 53 54 55 56 52 53 57 58 61 62 65 70 72 74 79 84 84 82 80 79 69 68 68 68 65 65 63 62 62 63 64 64 63 62 61 62 60 60 55 55 54 54 52 49 50 52 52 49 47 49 48 48 50 51 50 47 43 44 43 43 43 44 45 45 48 51 58 54 48 48 44 41 40 40 38 38 38 39 40 39 39 41 40 40 43 42 41 43 43 45 43 44 45 47 48 48 49 47 52 49 48 49 50 53 53 51 50 51 50 50 51 48 47 46 47 48 47 45 46 48 46 46 45 45 44 43 44 45 45 44 45 42 44 42 41 43 42 41 42 42 43 42 42 42 44 46 44 44 45 46 47 49 45 43 44 46 51 39 39 37 36 34 33 31 30 29 30 29 29 29 29 28 29 31 35 36 34 34 33 31 29 27 26 26 27 23 24 22 23 23 24 22 23 24 23 24 23 23 26 23 21 21 21 21 21 19 19 20 19 19 20 18 19 19 18 18 17 17 16 17 17 16 16 16 15 15 15 15 14 14 14 13 14 12 13 12 13 12 11 11 11 12 11 11 11 10 11 10 10 10 10 9 11 10 9 10 10 9 10 9 10 9 10 10 9 9 9 9 9 9 9 8 9 9 8 8 9 9 9 9 8 9 9 8 9 8 8 8 8 8 8 8 8 8 7 8 8 7 8 8 0 
7 7 7 7 7 7 6 7 7 7 7 7 7 7 7 8 7 6 7 7 7 7 7 7 7 7 8 7 7 7 7 8 8 8 7 8 7 8 7 7 8 8 8 8 8 8 7 8 8 8 8 8 8 9 7 8 8 8 8 9 8 9 8 9 9 8 9 8 9 9 9 9 9 9 10 9 9 10 10 9 10 10 9 10 10 10 10 11 11 11 10 10 10 10 10 10 11 10 12 10 10 11 11 11 12 11 12 12 12 12 12 12 13 12 13 12 13 13 13 14 14 14 15 14 15 15 16 15 15 15 16 16 16 17 18 18 18 18 19 20 21 22 23 22 27 29 33 40 42 39 37 40 36 37 40 42 54 62 57 52 59 65 71 69 61 65 65 59 55 50 49 52 55 50 47 46 43 42 44 46 46 49 40 39 35 34 32 33 32 31 30 31 31 31 32 33 31 31 37 32 31 26 27 27 26 26 24 24 26 26 29 27 26 25 23 24 24 25 27 28 27 28 27 26 25 27 28 26 28 29 29 29 30 33 33 36 41 41 42 41 38 39 40 40 41 45 50 49 48 50 49 55 61 61 55 52 54 56 58 59 62 58 59 61 61 59 59 59 62 62 70 74 67 61 57 54 56 56 58 56 55 56 54 52 51 53 53 53 53 53 54 55 54 56 58 59 57 54 52 53 55 57 55 55 56 59 61 64 65 67 71 72 69 71 75 79 75 73 69 65 64 63 64 61 62 59 61 59 58 58 61 58 59 61 58 59 57 56 52 51 52 51 48 49 51 50 48 48 47 47 48 49 50 49 45 45 44 43 43 42 44 44 48 46 52 53 54 51 52 49 44 39 38 39 40 39 39 40 40 41 41 40 40 42 45 44 42 43 44 43 43 44 45 48 49 47 46 46 47 49 50 53 54 51 53 54 51 48 51 50 49 50 46 49 47 48 47 46 45 46 45 44 44 46 44 44 43 45 43 45 43 43 43 41 42 40 42 43 44 43 43 41 44 44 47 46 47 46 46 47 50 45 44 44 44 45 42 40 38 35 32 32 31 30 30 29 28 27 30 30 30 28 30 33 36 34 33 33 32 30 27 28 26 25 24 22 23 22 23 23 21 22 22 21 22 21 22 26 22 21 21 22 21 22 20 20 19 20 21 22 20 19 18 18 19 18 18 16 17 17 15 16 15 14 15 14 14 14 13 13 13 14 13 13 12 12 11 12 13 12 12 11 10 11 10 11 10 11 10 10 11 10 10 10 11 10 10 9 10 10 10 10 10 9 9 9 8 8 9 9 9 8 9 9 9 8 8 9 9 8 9 8 8 8 9 8 8 8 8 9 8 8 7 7 8 7 8 8 8 0 
6 6 7 7 7 7 7 7 6 7 6 7 7 6 6 7 7 7 7 7 7 7 8 7 7 7 7 7 7 7 7 8 7 8 7 8 8 7 8 8 8 7 8 8 7 8 8 8 8 8 8 8 8 8 8 9 8 8 8 8 8 9 8 8 9 8 8 9 9 9 9 9 9 9 9 8 10 9 9 9 10 10 9 10 10 10 10 13 14 13 11 10 10 10 11 10 11 10 11 11 11 12 11 11 12 12 12 12 12 13 13 12 13 12 12 13 13 12 13 13 14 14 15 15 14 15 15 15 16 15 17 17 17 16 17 18 18 18 19 20 20 21 22 23 26 29 34 42 37 34 37 37 36 36 36 38 48 54 52 51 56 63 75 75 69 68 70 68 56 56 52 50 51 51 46 46 44 43 45 44 41 44 37 35 36 34 31 31 30 30 30 30 29 30 31 31 32 32 38 35 31 28 27 24 24 23 23 24 26 27 30 28 26 24 23 23 24 25 27 27 28 31 29 26 25 26 29 27 29 29 31 31 30 33 34 39 40 39 37 40 40 39 40 41 43 47 49 47 46 48 52 54 61 61 56 56 56 57 58 61 62 59 59 59 62 63 61 62 62 63 67 71 68 64 58 58 56 56 53 54 56 56 57 54 51 52 53 53 55 55 57 56 54 53 52 55 51 51 51 52 55 54 58 57 56 65 69 67 66 65 67 69 65 68 65 64 67 67 63 59 58 60 61 59 59 60 57 57 56 55 55 55 54 56 57 56 52 53 51 48 49 48 47 48 48 48 51 48 45 46 47 47 50 51 46 46 45 43 43 43 42 43 45 46 51 48 51 51 51 51 44 42 40 38 39 38 40 41 43 41 41 40 39 42 45 44 45 43 44 46 45 45 46 45 48 47 45 46 47 47 47 52 54 54 52 52 52 49 49 51 51 48 47 46 44 44 45 44 41 43 43 44 42 44 46 43 42 43 43 43 42 41 40 40 40 42 42 42 40 42 42 43 45 45 44 44 43 44 47 48 49 45 44 41 40 41 38 37 36 34 32 32 31 31 30 29 28 28 28 29 29 29 28 30 35 39 34 35 33 32 29 29 26 25 25 23 23 23 22 22 22 21 22 21 22 21 22 25 21 20 21 20 21 20 19 20 19 19 21 21 19 19 18 18 19 18 21 16 16 17 16 15 17 16 16 16 14 15 14 12 13 14 13 13 13 13 12 12 12 12 11 11 10 10 10 10 10 11 10 10 10 10 10 10 9 10 10 10 10 10 9 9 10 10 9 9 9 9 9 9 8 9 9 9 9 8 8 8 8 9 9 9 9 8 8 8 8 8 8 7 8 8 8 8 7 8 8 8 8 0 
6 6 7 6 7 7 7 7 7 7 7 7 7 7 7 7 7 7 7 7 8 7 8 7 7 7 8 7 7 8 7 8 8 8 8 8 7 8 8 7 8 8 7 8 8 7 8 8 8 8 8 8 9 9 7 8 9 8 8 8 9 9 8 8 8 8 9 9 9 9 9 9 10 9 8 9 9 10 10 10 10 10 10 10 10 10 10 10 15 14 11 10 10 10 10 11 11 10 10 11 10 11 11 11 12 11 11 12 12 12 13 12 12 13 12 13 13 13 12 14 13 14 14 14 15 14 15 15 16 16 15 16 17 17 18 18 18 18 19 19 20 20 21 22 26 31 34 41 39 33 37 38 36 35 37 36 41 51 52 48 53 62 80 84 76 77 70 70 65 59 50 50 49 49 45 45 44 43 44 42 39 39 36 35 35 34 31 30 29 26 29 30 30 30 31 31 31 33 37 35 32 27 25 25 24 23 24 24 27 25 29 29 27 27 24 24 25 25 25 29 28 30 28 27 26 26 29 30 31 30 30 32 33 36 39 42 43 40 39 41 39 40 40 42 46 47 50 47 47 49 51 55 60 63 59 58 60 56 58 63 61 61 59 61 61 62 57 59 62 64 63 65 68 68 58 56 57 54 54 54 56 55 57 58 53 56 56 57 55 53 55 53 50 50 51 51 50 51 51 51 54 55 57 61 59 66 65 64 67 62 65 64 61 62 60 59 59 60 57 56 57 57 57 55 55 55 55 55 55 53 53 53 54 55 54 50 53 51 49 47 49 47 45 46 46 47 47 47 46 45 44 45 47 51 49 47 43 44 42 43 43 42 45 46 46 46 47 50 49 52 47 43 40 39 39 39 41 42 44 42 41 39 39 40 43 45 45 44 45 46 45 45 45 46 46 46 45 45 46 46 47 49 50 51 52 50 48 48 48 49 48 48 46 45 45 43 44 42 43 43 39 40 43 43 43 44 45 45 44 42 42 43 43 40 41 41 41 42 41 40 41 43 43 44 44 45 44 45 48 47 48 46 41 38 40 39 38 36 34 33 31 34 31 31 31 30 27 27 27 28 28 28 28 30 35 36 34 34 33 30 32 28 28 27 25 24 23 23 22 22 21 21 22 21 22 23 22 24 23 20 20 19 19 19 19 19 19 19 21 22 19 18 18 18 18 19 18 18 16 16 16 16 17 16 16 15 15 15 14 13 14 13 13 13 13 12 13 12 12 11 12 11 11 11 11 11 10 11 10 11 10 10 10 10 10 9 10 10 9 10 9 9 9 9 9 9 9 9 9 9 8 9 9 9 9 9 8 9 9 8 9 9 8 9 8 8 9 8 8 8 9 8 8 8 9 8 8 8 7 0 
7 6 6 7 6 7 7 6 7 7 7 7 7 7 7 7 7 7 7 7 7 7 7 7 7 7 7 7 8 7 7 7 7 7 7 7 7 8 8 8 7 8 7 7 8 7 8 8 8 8 8 9 8 8 9 9 8 8 8 9 9 8 9 9 9 9 9 8 9 9 9 9 9 9 9 9 9 10 9 9 9 9 9 10 10 10 10 10 11 11 11 10 10 10 10 10 10 10 11 11 11 10 11 11 12 12 11 11 12 12 12 12 11 12 12 13 12 13 12 13 14 13 13 14 14 16 15 14 15 16 17 19 17 17 17 18 18 18 18 20 19 20 22 23 29 33 31 35 40 37 42 48 40 39 37 36 40 45 46 45 50 59 75 78 80 80 81 75 60 56 50 48 48 49 44 41 41 42 42 42 39 37 35 34 35 35 31 29 29 29 30 29 31 31 30 31 31 34 39 39 32 28 26 25 25 23 23 24 25 27 29 30 28 26 25 25 25 26 27 28 29 28 28 28 27 28 29 29 30 30 31 33 39 40 39 42 41 39 38 38 40 40 42 45 47 50 48 47 46 48 51 57 61 62 62 60 60 56 58 59 60 63 59 60 63 62 58 59 60 61 62 64 67 69 64 61 59 56 57 60 59 54 60 55 55 56 57 58 56 55 53 51 50 48 49 49 51 50 53 54 58 57 58 62 61 65 63 61 59 59 60 59 56 57 53 57 56 54 55 56 54 54 53 52 52 52 52 51 53 53 54 54 51 54 51 49 47 47 47 45 47 45 45 47 45 46 45 45 45 43 44 46 45 47 48 48 45 46 43 41 44 44 43 45 45 47 47 50 49 49 50 47 43 39 41 39 40 41 41 39 40 39 39 42 45 44 47 43 42 44 45 46 46 46 46 46 46 45 45 45 46 46 47 48 47 49 47 47 48 48 47 47 45 43 42 41 43 41 41 40 40 41 40 43 44 44 44 45 45 46 45 42 43 44 42 42 44 43 42 44 43 42 43 44 42 42 45 47 50 47 45 40 39 40 37 36 36 36 35 34 32 31 33 31 31 30 29 28 28 30 29 28 28 29 37 36 35 35 32 32 30 29 28 28 25 24 24 23 22 23 21 22 23 24 23 25 23 22 20 19 19 19 18 18 20 19 18 17 19 19 19 17 18 18 18 18 18 17 16 16 16 17 16 15 16 16 15 16 13 13 14 14 13 13 12 12 13 12 12 11 11 11 11 11 10 10 10 11 10 10 10 10 10 10 10 9 10 9 10 9 10 9 9 9 9 9 9 10 9 9 8 9 9 9 8 9 8 8 8 8 8 8 8 8 8 8 8 9 8 8 8 8 8 8 8 8 8 8 7 0 
6 7 7 7 7 6 7 6 7 7 7 7 7 7 7 7 7 7 7 7 7 7 7 8 7 7 7 7 7 7 7 7 7 8 8 7 8 8 8 7 8 7 8 8 8 8 8 8 9 8 8 8 8 8 8 8 8 8 8 8 9 9 9 8 9 8 8 9 9 9 9 9 9 10 9 9 9 9 9 10 9 9 10 10 10 9 10 10 11 11 10 10 9 10 10 11 10 11 10 11 11 10 11 11 11 12 11 12 11 12 12 12 12 12 13 12 12 12 14 13 14 15 13 13 14 14 15 16 15 15 19 24 18 16 17 17 18 19 19 18 19 21 22 23 32 42 28 30 36 41 50 53 43 46 39 40 40 41 40 44 47 54 70 75 81 86 95 78 68 57 51 46 45 46 42 43 39 42 40 39 37 37 34 34 35 32 30 30 29 30 30 31 31 31 32 31 33 34 37 36 34 28 25 24 25 23 22 24 27 27 28 29 29 28 27 25 26 26 28 29 30 29 30 29 28 28 30 29 31 31 35 36 43 40 39 38 40 37 37 38 41 40 43 48 49 47 48 46 46 51 53 56 59 60 66 61 57 55 57 58 62 62 59 60 60 60 60 59 61 59 62 61 66 65 66 62 62 61 62 63 60 58 57 55 58 56 54 54 53 54 52 50 49 48 50 51 51 53 58 56 57 56 57 59 58 60 58 56 55 54 54 55 52 53 52 52 53 53 53 55 54 50 51 52 51 51 49 50 50 51 52 51 49 50 47 48 47 45 46 43 45 45 44 43 45 46 46 43 45 43 42 45 47 47 47 47 47 44 43 42 42 43 44 46 46 45 48 48 46 46 47 47 44 39 40 40 41 40 42 43 41 40 41 43 43 45 45 45 43 44 45 45 43 44 45 46 46 45 45 46 43 47 48 47 48 46 45 47 48 46 46 45 46 44 42 43 42 40 41 39 40 40 40 42 43 44 45 45 47 47 45 43 43 44 43 43 43 44 42 42 44 45 43 45 45 45 47 47 47 41 40 38 39 38 37 37 37 34 35 35 33 33 32 32 32 32 28 28 28 28 30 28 28 28 34 34 32 32 33 33 32 30 29 29 26 25 23 23 22 23 22 21 22 24 23 23 22 21 20 20 19 20 19 19 18 19 20 20 20 20 17 17 18 17 17 17 18 18 16 16 16 16 15 15 14 15 14 14 14 13 13 13 13 14 13 12 13 11 11 11 11 11 11 10 10 11 11 10 11 10 10 10 10 10 10 9 9 9 10 9 9 9 10 9 10 9 10 10 9 9 9 9 9 9 8 9 8 9 8 8 9 8 8 8 9 8 8 8 8 8 8 8 8 8 8 7 8 8 8 0 
7 7 7 6 7 7 6 7 7 7 7 7 6 7 7 6 7 7 7 7 7 7 7 7 7 7 7 7 7 6 7 8 7 7 7 7 7 7 7 8 7 8 8 8 8 7 8 8 8 7 8 8 8 8 8 9 8 8 8 8 9 8 9 9 9 8 8 9 9 9 8 9 9 10 9 9 9 9 10 9 9 10 10 10 10 9 10 10 10 10 10 10 11 10 11 9 10 10 10 11 11 11 11 11 11 12 12 11 12 12 12 12 12 12 12 12 13 13 13 13 13 14 14 13 14 13 14 14 15 15 19 18 17 16 16 18 17 18 19 19 19 20 22 24 34 44 29 28 34 45 47 45 44 51 45 41 37 38 38 41 44 52 60 65 78 90 91 85 86 75 63 53 43 42 41 42 43 41 40 37 36 37 36 35 35 32 31 30 31 31 32 33 32 31 32 31 34 35 36 34 31 28 26 25 23 24 23 25 25 26 29 28 26 28 27 26 27 25 27 28 31 29 29 29 30 30 30 32 33 34 39 40 43 39 38 38 37 37 38 39 40 42 46 53 52 46 46 47 50 52 52 55 56 58 65 63 55 57 55 59 63 65 60 56 58 60 61 60 62 62 59 62 64 63 64 65 67 65 63 65 62 62 55 58 56 55 54 52 52 53 50 49 49 50 51 52 52 55 54 55 56 54 53 55 54 55 54 50 50 52 52 49 51 50 50 50 50 51 52 49 50 49 49 48 48 49 48 50 49 49 50 49 48 48 47 44 46 44 44 43 44 46 45 45 45 47 49 44 43 43 42 45 47 48 46 46 46 43 44 43 42 43 45 47 45 46 48 47 47 45 48 44 44 40 40 39 40 41 41 41 42 42 41 43 43 43 46 45 44 42 44 47 48 45 42 46 47 47 46 44 47 46 47 47 47 46 47 44 47 47 47 44 43 44 41 40 39 39 38 39 40 40 39 41 42 43 45 46 46 46 46 46 45 43 44 45 45 48 43 43 42 41 42 42 44 46 46 42 41 40 39 38 38 39 35 37 36 35 34 33 33 33 33 32 32 32 29 29 27 29 29 29 28 28 34 34 34 35 36 32 32 30 30 29 26 25 23 23 23 22 22 23 22 23 26 24 23 21 20 19 20 19 20 20 20 20 20 21 21 18 18 18 18 17 18 18 17 16 17 15 15 16 16 14 14 15 13 13 13 13 13 14 14 13 12 12 11 12 11 12 11 10 10 11 11 11 10 11 10 10 10 11 10 10 9 10 10 10 9 10 9 9 10 9 8 9 9 9 9 9 9 9 8 8 8 9 8 8 8 8 8 9 9 9 8 8 9 8 8 9 8 8 8 8 8 8 8 8 8 0 
7 7 7 7 6 6 7 6 7 7 7 7 7 7 7 7 7 6 7 7 7 7 7 7 7 7 7 6 7 7 8 7 7 7 8 8 8 8 7 8 8 8 8 8 8 7 8 8 7 8 8 8 8 8 8 8 8 8 8 8 8 8 8 8 8 9 9 9 9 9 9 9 9 9 9 9 9 9 9 10 9 10 9 10 10 10 10 9 10 10 10 10 11 11 10 11 11 10 11 11 11 10 11 12 10 10 11 11 12 11 11 12 12 12 12 12 13 13 13 14 13 13 14 14 14 14 14 15 14 16 17 18 16 15 16 16 18 19 18 19 20 21 21 23 28 40 38 31 36 42 43 44 42 43 39 38 36 37 37 41 44 51 55 61 69 84 84 78 80 81 74 61 48 41 41 38 39 38 40 41 40 38 35 37 35 33 34 32 32 32 33 32 31 32 32 34 37 36 33 32 33 30 26 24 23 24 25 25 24 25 29 29 29 29 28 28 25 27 29 29 30 28 31 30 30 32 32 33 38 42 45 47 46 41 38 37 37 40 38 40 41 44 49 50 46 48 45 47 50 50 52 54 57 61 62 61 56 57 56 60 63 61 62 57 59 63 59 58 58 61 63 58 61 63 60 65 64 64 64 67 61 59 55 55 54 54 50 50 50 52 50 50 51 50 50 55 54 54 55 55 51 50 51 51 50 50 50 49 48 48 49 48 48 48 48 50 49 48 50 49 48 49 48 47 46 48 46 47 48 50 49 48 45 45 45 44 44 43 43 44 42 42 42 41 41 44 45 44 44 41 42 41 43 46 47 48 46 43 43 44 43 42 43 44 46 49 50 51 49 48 48 47 42 43 42 41 40 39 41 41 41 41 40 42 43 42 43 44 45 45 46 47 47 47 47 44 46 46 47 46 48 46 46 48 47 45 47 45 46 44 46 44 42 44 45 41 39 39 38 38 38 40 39 42 42 43 43 46 46 44 44 44 48 47 46 47 47 46 43 45 44 42 43 43 45 45 43 44 42 40 40 39 38 37 37 34 34 34 33 33 31 32 32 32 31 30 29 29 28 29 29 30 29 28 34 33 32 34 38 35 33 30 30 28 27 26 24 23 22 23 22 22 21 23 25 26 23 22 20 20 20 19 19 19 19 22 21 19 20 17 17 17 18 18 17 16 17 16 17 16 16 16 16 14 15 15 14 13 13 14 13 13 13 12 13 13 12 11 12 12 11 11 10 11 11 11 11 11 10 10 10 10 10 10 10 10 10 9 9 9 10 9 9 9 9 9 10 9 9 9 9 9 9 9 8 8 9 9 8 8 9 8 9 8 8 8 8 8 8 8 8 8 8 8 7 8 8 8 7 0 
7 6 7 6 6 7 6 7 6 7 7 7 8 7 7 6 7 7 7 7 6 7 8 7 7 7 7 7 7 7 7 8 8 7 8 8 8 8 7 7 8 8 8 7 8 8 8 7 7 8 8 8 8 8 8 8 8 9 8 8 8 8 9 8 9 9 8 9 8 9 8 9 9 8 9 9 9 9 9 9 10 9 10 10 10 10 9 10 10 10 10 9 10 10 10 10 10 10 10 10 10 11 10 11 10 11 11 11 12 11 11 12 13 12 12 12 13 13 13 13 13 14 14 14 13 13 14 15 15 15 15 16 16 17 17 17 17 17 18 18 18 21 22 22 25 32 34 29 33 36 45 42 42 40 38 39 35 37 39 44 45 47 51 56 61 72 83 75 75 75 73 60 50 41 40 38 39 43 42 44 42 39 39 37 37 35 35 34 36 32 34 33 33 34 36 36 35 33 31 31 30 29 27 25 25 25 25 25 26 27 26 28 30 31 28 26 29 28 30 31 30 28 30 30 31 34 35 38 43 41 45 48 42 38 37 38 37 38 39 41 44 45 47 48 49 47 46 48 49 52 52 52 56 67 62 59 59 57 58 59 62 63 63 61 59 62 60 59 62 62 60 58 60 61 62 64 62 65 65 65 58 58 55 53 54 51 51 50 52 50 51 51 51 53 50 50 53 51 52 51 51 49 49 47 48 45 46 44 47 47 47 46 45 46 46 46 47 47 48 46 47 45 45 44 45 48 48 49 49 45 45 45 43 43 43 44 41 43 43 43 44 43 40 41 41 40 43 42 44 41 40 42 42 47 46 48 45 41 43 41 42 41 42 42 43 44 47 48 50 50 54 46 43 43 44 48 42 40 39 41 41 41 43 43 46 44 43 45 44 46 46 47 46 48 48 46 46 49 46 45 46 46 47 45 46 45 44 44 44 44 46 44 43 43 43 41 40 39 39 38 38 39 41 41 42 42 46 47 45 44 44 47 47 46 48 49 46 45 47 47 44 46 46 43 44 45 42 44 44 41 40 39 37 36 35 33 33 33 32 30 33 31 31 32 32 31 30 30 29 30 28 30 30 29 31 31 30 32 33 34 34 36 34 30 27 26 26 23 23 24 23 21 22 23 23 25 26 23 21 20 20 19 20 19 21 20 20 19 18 18 17 18 19 19 17 17 16 16 17 17 15 16 15 15 14 14 14 14 15 13 13 13 13 13 13 12 12 11 11 11 11 10 11 11 10 11 11 10 10 10 10 10 10 9 10 9 10 9 9 10 9 10 9 9 9 9 9 9 9 9 9 9 9 8 9 8 9 9 8 8 8 8 9 9 8 8 8 8 8 8 8 8 7 8 7 8 8 7 8 0 
7 7 7 7 6 7 7 6 7 7 7 7 7 7 8 7 7 6 7 7 7 7 7 7 7 7 7 7 7 7 7 8 8 7 7 7 8 8 7 7 8 7 8 8 8 8 8 8 8 8 8 8 8 8 8 8 8 8 8 9 8 8 9 8 8 8 9 9 8 8 8 9 9 9 9 9 9 9 9 9 9 10 10 9 9 10 9 10 10 10 10 10 9 10 10 10 10 10 10 10 10 10 11 10 10 11 12 11 11 11 11 11 12 12 12 12 13 13 13 13 14 13 13 12 14 14 15 14 15 15 15 16 16 16 16 17 16 18 18 19 18 20 20 21 22 23 25 26 29 31 45 49 46 49 42 42 43 42 45 46 46 49 50 53 57 64 83 89 83 64 56 52 44 39 39 36 40 43 44 47 47 41 39 38 38 38 38 34 35 36 33 34 34 35 32 33 33 34 33 30 30 30 29 26 27 25 26 26 27 28 28 28 29 31 29 28 29 29 31 32 30 30 31 32 34 36 39 42 45 42 42 42 38 38 37 36 38 38 40 44 45 47 45 45 45 46 47 50 52 52 50 51 59 64 66 62 61 57 56 56 57 59 64 62 59 61 59 61 62 62 60 60 61 58 62 62 63 65 64 63 59 57 54 56 53 54 50 51 48 50 51 51 51 51 51 49 50 47 48 47 47 45 44 44 44 44 45 45 44 44 43 45 44 45 43 44 46 47 49 46 46 46 45 44 45 44 44 46 47 46 44 44 42 43 43 41 40 41 40 40 42 42 41 40 40 39 39 41 41 42 40 40 41 42 49 48 45 43 46 43 41 42 41 42 43 44 44 46 50 56 58 48 43 45 49 48 44 42 40 39 42 45 45 44 45 43 45 46 47 47 46 48 47 46 46 47 47 47 47 48 46 46 47 48 48 47 46 43 45 44 45 44 44 43 42 42 40 39 40 38 38 38 40 41 43 41 44 45 47 44 44 47 45 46 45 44 46 46 45 47 47 46 49 45 44 44 42 40 46 45 42 38 35 35 34 33 31 32 31 30 31 30 31 32 32 31 30 29 30 31 30 29 29 28 32 29 30 26 28 29 34 36 33 30 29 26 24 23 23 22 22 22 24 23 25 25 25 23 23 21 20 19 20 19 20 21 21 20 19 18 18 17 18 19 17 17 17 17 17 16 16 15 15 15 14 14 15 14 13 14 13 13 12 12 13 13 12 11 12 11 12 11 11 11 11 11 11 11 11 10 10 10 10 10 10 9 10 10 9 10 10 9 9 9 9 9 9 9 8 9 8 9 9 9 9 9 9 8 8 9 9 9 8 8 8 8 8 8 8 8 8 8 8 8 8 8 8 8 8 0 
7 6 6 6 7 7 7 7 6 7 7 7 7 7 7 7 7 8 6 7 7 7 8 7 7 7 7 7 7 7 7 7 7 7 8 8 7 8 7 7 8 8 8 8 8 7 8 8 8 8 9 8 8 7 8 8 8 8 8 8 8 8 8 8 9 8 9 9 9 8 9 9 8 9 8 9 9 8 9 9 9 9 10 10 9 10 10 10 10 10 9 10 10 10 10 10 10 11 10 10 11 10 11 11 11 11 11 11 12 11 12 11 12 11 12 12 11 12 12 12 13 12 13 13 14 14 15 14 14 15 14 15 15 16 16 16 16 17 17 19 18 19 19 20 21 23 23 24 25 27 33 38 40 49 44 45 44 44 45 45 44 44 45 48 51 62 78 111 91 62 50 45 40 37 35 36 40 41 46 47 45 44 43 41 41 41 38 35 35 36 36 38 40 36 32 33 34 36 34 31 30 30 29 27 27 26 28 27 28 31 31 30 28 30 29 29 32 32 33 32 32 32 34 36 35 37 44 43 41 40 41 41 37 38 36 40 38 40 42 43 45 43 43 44 44 47 50 51 51 50 50 53 58 58 62 64 66 58 59 56 58 63 64 60 59 58 60 61 62 63 60 62 61 61 60 61 61 65 60 65 58 56 55 55 52 50 49 49 49 48 48 48 48 49 49 47 47 45 45 44 44 44 41 43 42 42 42 41 43 44 42 43 45 46 46 45 48 47 45 44 44 44 46 44 44 42 44 43 43 42 43 43 43 41 42 42 40 40 38 39 40 40 40 39 39 38 40 40 41 41 40 38 41 41 45 49 45 47 43 43 42 41 40 40 41 42 41 45 44 50 52 51 46 47 47 50 50 49 42 40 41 43 45 45 43 45 44 45 46 45 47 48 48 46 45 47 46 49 50 48 50 47 47 45 46 46 47 45 46 46 45 45 43 43 43 43 41 42 40 39 38 39 41 38 40 39 42 43 45 45 46 45 45 46 45 45 46 47 47 45 46 48 49 44 44 46 41 40 49 44 39 38 35 33 33 33 32 32 31 29 31 31 32 32 30 29 29 30 31 31 30 29 28 29 30 28 27 25 26 30 34 38 30 28 29 25 24 23 23 23 23 22 23 23 25 25 23 22 21 20 20 20 20 19 21 20 21 21 19 19 18 17 19 21 20 19 18 16 17 17 16 16 16 15 15 14 14 14 13 14 14 13 14 12 12 11 12 12 11 12 11 11 11 10 11 10 10 10 11 10 10 10 10 10 10 10 10 9 10 9 10 9 9 9 9 9 9 9 9 9 9 9 9 8 9 8 9 9 8 8 8 8 8 8 8 8 8 8 8 8 7 9 8 8 8 8 8 7 8 0 
7 6 6 6 7 6 7 7 6 6 7 6 7 7 7 7 6 7 6 6 7 7 7 7 7 7 8 7 7 7 7 8 7 7 7 8 7 7 8 8 8 7 8 8 8 8 7 8 8 8 8 8 8 8 8 8 9 8 8 9 8 8 9 9 8 9 8 9 8 8 9 9 8 9 9 9 9 9 9 9 10 9 9 9 10 9 10 9 10 10 10 10 10 10 10 10 10 10 9 10 11 11 11 10 11 11 12 11 11 12 11 12 12 12 12 13 12 13 13 13 13 13 13 13 13 14 13 14 15 15 15 15 14 16 16 16 16 16 17 17 17 18 19 20 19 21 22 24 23 25 26 29 31 38 42 40 39 38 38 38 38 39 42 44 50 58 80 116 93 62 51 44 39 37 36 35 40 46 48 49 51 50 48 43 42 44 40 39 37 39 42 40 42 38 34 35 36 36 34 31 29 29 28 29 27 28 28 28 31 32 30 30 27 30 29 32 33 36 35 32 36 39 39 44 41 48 52 46 42 39 39 40 39 39 39 39 42 42 45 49 48 44 45 46 45 51 50 48 49 50 50 53 56 57 60 64 67 62 60 58 58 61 64 61 61 60 59 63 62 59 59 60 60 61 61 60 62 66 65 60 57 55 55 55 52 49 48 49 47 47 48 49 48 48 47 45 44 44 42 44 41 42 39 42 41 40 41 41 43 44 43 43 43 44 45 45 46 45 43 43 45 42 42 43 41 43 42 42 44 42 42 42 42 40 40 42 41 41 40 39 38 40 40 41 40 38 38 39 41 40 39 40 39 40 39 44 44 45 46 44 41 40 39 39 39 41 41 42 42 47 48 49 48 48 46 49 48 48 44 43 41 41 44 42 44 46 45 47 46 46 45 48 48 51 50 46 46 46 51 49 49 48 51 47 46 48 46 45 46 45 46 45 48 44 44 43 42 39 39 38 39 40 40 39 38 38 39 40 42 43 44 44 45 44 44 45 46 46 47 48 49 48 48 48 46 47 45 46 51 42 38 38 35 35 32 31 30 31 31 29 29 29 32 31 31 30 29 29 30 31 29 31 30 30 31 30 27 26 26 34 37 32 30 29 30 29 25 22 22 22 24 23 21 24 23 25 23 21 21 21 22 20 19 21 21 20 20 19 19 19 18 17 19 20 19 20 19 18 16 17 16 16 15 15 14 14 14 14 13 13 14 14 13 13 13 12 11 12 12 11 11 10 11 11 10 11 11 10 10 9 11 11 9 10 11 10 9 9 10 9 10 9 10 9 9 9 9 8 10 8 9 9 9 8 8 9 9 9 8 9 10 8 9 8 9 9 8 8 8 8 8 7 8 8 8 8 8 8 8 0 
7 7 7 7 6 7 7 7 6 7 6 7 7 7 7 7 7 7 7 7 7 7 7 7 7 7 7 7 7 7 7 7 8 8 7 7 8 7 8 7 7 8 7 8 7 8 8 7 8 7 8 8 8 8 8 8 8 8 8 8 8 8 9 9 8 8 8 9 9 9 9 8 8 9 9 9 9 9 9 9 9 10 9 9 9 10 9 10 10 10 10 9 10 10 9 10 10 10 10 10 11 10 10 11 11 11 11 11 11 11 11 12 11 12 12 12 11 12 12 12 13 13 12 13 12 13 13 14 14 15 15 15 14 15 15 16 15 17 17 17 17 18 17 21 19 20 21 20 24 24 24 27 27 30 34 31 33 34 32 33 33 35 40 44 51 60 87 106 89 73 67 49 40 38 36 37 40 46 50 55 54 50 47 47 48 43 44 42 39 43 42 40 37 36 37 38 39 36 33 32 30 30 31 30 30 29 30 30 34 31 30 29 30 29 31 33 34 37 38 38 42 43 42 49 52 54 55 44 41 38 39 39 39 40 41 42 43 43 46 45 46 45 44 45 43 52 51 47 49 50 51 52 54 58 60 63 66 61 61 59 60 62 66 63 63 61 60 65 62 60 58 59 59 58 59 61 63 64 65 60 56 53 52 50 51 50 48 48 48 47 46 46 47 46 45 44 44 41 43 41 41 40 40 40 40 40 41 39 41 44 45 43 41 44 43 44 44 42 41 42 41 41 41 41 42 41 41 41 42 40 39 40 41 40 40 38 38 39 38 39 39 38 38 39 39 37 37 40 38 40 39 40 39 39 39 42 42 43 47 44 43 38 39 38 39 39 38 41 47 42 42 43 44 46 46 49 50 47 46 47 46 43 42 44 43 45 47 47 47 47 46 46 51 50 49 49 47 48 52 50 50 49 50 47 47 45 45 45 45 46 47 47 45 47 42 41 43 39 39 37 38 38 37 38 36 38 38 38 41 42 45 45 45 44 43 44 45 47 49 50 47 46 48 49 48 48 52 52 57 42 38 36 35 34 32 31 32 30 30 28 29 29 30 29 31 31 29 31 31 30 29 28 30 33 34 32 29 28 30 35 34 31 31 27 29 31 25 23 22 22 21 22 22 22 22 24 23 22 22 22 22 22 20 21 19 19 20 21 20 19 20 19 18 19 19 19 18 16 17 17 16 16 15 16 15 14 14 14 15 13 13 13 12 13 12 12 12 11 12 11 11 11 10 10 10 11 11 10 10 11 10 10 10 9 10 10 10 10 9 10 9 9 10 9 9 9 9 9 9 9 9 9 8 9 9 8 8 8 8 9 8 8 8 8 8 9 8 8 8 8 8 9 8 8 8 8 8 7 7 0 
7 6 6 6 7 7 6 7 7 7 8 7 7 7 6 7 7 7 7 7 7 7 7 7 7 7 8 7 7 8 7 8 7 7 7 7 8 7 7 7 8 7 7 7 7 8 8 7 8 8 8 8 8 8 8 8 8 8 8 8 8 8 8 9 8 8 8 9 9 9 8 9 9 9 9 9 9 9 9 9 9 9 10 9 9 8 9 10 9 10 10 9 10 10 10 10 10 10 11 11 11 10 10 10 10 10 11 10 11 11 10 12 12 11 11 12 12 12 11 12 13 12 12 13 13 14 14 13 13 14 14 14 15 15 16 15 16 16 16 18 17 17 18 19 18 19 20 21 21 23 23 24 24 25 27 28 27 29 31 31 32 34 36 41 49 58 87 89 82 84 84 63 49 41 37 39 39 48 52 55 55 54 52 48 48 44 42 44 43 43 40 38 36 35 36 37 34 35 33 34 32 33 33 32 30 32 31 32 32 31 30 31 31 31 31 35 39 39 44 44 44 42 41 46 51 57 51 42 38 38 39 39 41 39 42 42 44 42 43 43 43 45 45 45 47 53 50 48 47 49 51 51 53 58 59 68 65 63 59 59 59 61 61 63 68 62 61 62 60 60 62 59 57 59 58 60 59 59 63 62 57 51 50 51 52 49 48 49 50 46 45 44 45 45 42 40 41 39 39 40 39 40 38 39 37 39 39 39 42 45 42 43 40 41 42 42 39 42 38 41 40 40 39 39 39 41 40 40 40 38 39 39 38 39 39 38 38 38 37 37 36 36 38 40 37 38 38 39 40 39 37 38 38 40 38 41 42 43 43 43 42 39 39 38 35 38 38 39 42 40 39 41 41 44 44 47 45 50 46 51 50 47 44 46 45 45 44 48 47 48 47 49 52 51 49 48 47 46 50 50 52 49 50 47 46 46 44 45 44 44 47 44 44 44 43 41 40 39 40 37 39 37 36 36 38 39 39 39 39 42 43 41 44 44 46 47 48 49 49 48 47 48 48 47 48 50 50 53 51 41 36 36 38 35 32 30 29 31 30 29 29 28 28 28 28 31 31 30 29 29 28 28 29 31 37 34 33 31 32 33 30 28 28 30 29 27 23 21 23 22 21 21 22 23 22 23 23 21 24 24 23 23 22 23 20 20 24 21 18 20 19 18 18 18 19 18 18 17 16 18 17 16 16 15 15 15 14 15 13 14 14 14 13 13 12 12 12 12 12 12 11 12 11 11 11 11 10 10 11 10 10 10 11 10 10 10 10 10 10 9 9 10 9 9 9 9 9 9 8 9 9 8 9 9 9 8 9 8 8 8 8 9 8 9 8 9 9 8 8 8 8 8 7 7 7 8 7 8 7 0 
7 7 6 7 7 7 7 6 6 7 7 7 7 6 8 6 7 7 7 7 7 7 6 7 8 7 7 7 8 8 8 7 7 8 7 7 7 7 7 8 8 7 7 7 7 8 8 8 8 7 8 8 8 8 8 8 8 8 8 8 8 8 8 8 8 8 9 9 8 9 8 9 9 9 9 9 9 9 9 9 9 9 8 9 9 9 10 10 10 9 11 10 10 10 10 10 10 10 10 10 10 10 11 11 11 11 11 11 11 11 11 11 12 11 11 11 13 12 12 12 13 12 13 13 12 14 14 14 14 14 14 14 14 15 15 15 16 16 17 17 16 17 18 19 18 19 20 20 20 22 22 24 23 24 25 25 28 28 28 28 30 33 36 43 48 61 87 81 73 83 73 71 57 45 41 41 42 49 53 56 58 58 55 56 49 51 49 46 48 44 41 39 37 36 36 34 34 32 32 35 33 34 35 34 36 34 33 33 34 34 34 37 34 36 33 32 35 42 44 43 42 39 42 44 44 44 42 40 38 40 39 40 39 40 43 46 43 44 42 42 43 44 46 48 48 50 47 50 50 50 54 52 53 56 63 67 59 61 60 60 61 59 61 64 67 66 60 61 60 63 61 61 59 61 60 60 60 59 59 62 54 52 51 49 49 48 48 49 48 45 44 44 42 42 40 41 40 38 38 39 39 39 39 38 37 38 39 39 40 43 41 41 40 39 39 37 37 37 37 38 38 37 39 37 37 40 40 40 38 39 37 37 38 38 37 37 35 36 38 37 37 37 38 39 38 37 37 40 40 37 38 38 37 38 38 39 40 42 39 40 40 40 39 40 37 37 36 37 39 37 38 39 38 42 44 46 44 46 48 48 49 52 48 44 45 46 46 47 49 48 49 46 47 49 50 49 47 46 50 53 52 48 49 48 46 44 44 44 43 43 43 45 44 44 42 43 40 41 38 36 36 36 36 36 38 39 38 42 41 43 44 45 48 45 46 49 52 51 47 47 46 45 47 48 49 48 48 48 43 41 37 37 37 35 32 31 30 29 28 29 29 28 27 28 28 29 31 28 28 29 28 28 29 31 38 35 34 33 31 32 28 29 28 30 27 25 24 24 22 22 22 21 21 22 22 23 22 21 23 25 24 23 22 23 22 22 21 21 20 20 19 20 17 18 19 18 16 16 16 16 16 16 15 16 15 15 14 14 14 14 13 14 11 13 12 12 12 12 11 12 11 11 10 11 10 10 10 11 10 11 10 10 10 10 10 9 10 10 9 9 10 10 9 9 9 9 9 9 9 10 9 9 9 9 9 9 8 9 9 8 8 9 8 8 8 8 8 8 9 8 8 8 8 8 8 8 7 8 7 0 
7 6 7 6 6 6 7 7 6 7 7 7 7 7 7 6 7 7 7 7 7 7 7 7 7 7 7 7 7 7 7 8 8 7 7 7 8 8 8 8 7 8 8 8 7 8 7 8 8 7 8 8 8 8 8 8 8 7 8 8 8 8 9 8 8 8 9 8 9 8 8 8 8 9 9 9 9 9 9 9 9 9 9 9 9 9 9 10 10 10 10 9 10 10 9 10 10 9 11 10 10 10 11 11 10 11 10 11 11 11 11 11 12 11 12 12 12 12 11 12 12 13 12 13 13 13 13 12 14 14 14 14 14 15 14 16 15 16 17 16 17 17 17 18 18 19 19 20 21 21 22 23 22 22 25 24 25 26 27 28 29 31 37 40 47 66 83 86 78 79 68 68 59 52 48 49 51 61 62 60 56 54 55 59 54 55 58 54 44 45 46 41 39 41 37 36 36 34 31 31 32 36 36 38 37 36 35 37 37 41 42 42 42 45 35 36 36 40 41 42 41 39 42 41 41 40 41 38 39 40 39 41 41 42 45 44 48 42 43 44 44 46 47 49 46 46 52 50 50 54 53 51 54 59 60 68 64 60 64 59 58 59 59 62 66 65 59 59 57 59 60 60 61 61 61 61 63 58 60 59 54 51 52 50 46 49 47 47 47 44 42 42 42 41 39 40 39 39 38 37 38 37 37 37 38 38 37 38 39 42 41 43 40 40 35 35 36 34 36 36 37 39 37 36 37 37 38 37 37 37 37 37 38 37 39 36 38 35 35 38 37 39 37 39 37 37 38 38 39 39 40 41 40 38 39 38 39 39 39 39 40 39 39 37 36 37 36 36 35 36 40 38 37 39 41 42 43 45 44 47 46 46 50 48 47 45 45 45 48 48 47 46 46 47 49 50 47 46 51 53 53 50 47 47 45 45 44 43 43 43 44 43 44 43 40 40 38 37 37 36 37 36 36 38 40 39 40 39 43 43 43 48 50 51 47 48 53 49 47 47 47 47 49 48 50 47 46 43 40 39 39 36 36 36 32 29 30 28 28 27 28 26 28 29 28 30 32 30 28 28 27 28 29 31 36 37 33 33 30 29 27 29 30 29 24 22 23 21 22 22 21 21 22 21 22 22 22 22 22 23 25 24 27 27 23 21 20 21 20 20 19 19 19 19 19 19 17 17 17 17 17 16 15 16 16 14 14 14 14 13 14 13 13 13 13 12 12 12 11 12 11 11 10 10 10 11 11 10 11 10 10 10 10 10 10 9 10 9 9 9 9 9 9 9 9 8 9 9 9 9 8 8 9 9 8 9 8 8 8 8 8 8 8 8 9 8 8 8 8 8 8 8 8 8 8 8 8 7 8 0 
7 7 7 7 7 7 7 7 6 7 6 7 7 7 7 7 7 7 7 7 7 7 7 7 7 8 7 7 7 7 7 7 7 7 7 7 7 7 8 7 7 8 7 8 7 8 8 7 8 8 8 8 8 8 8 8 8 8 8 8 8 8 9 8 9 8 8 9 9 8 9 8 9 9 9 9 10 9 9 9 9 9 10 9 9 9 9 9 10 9 9 10 10 10 10 10 10 11 10 10 10 11 10 10 10 10 10 11 11 11 11 11 12 12 10 11 12 12 12 11 12 12 12 13 13 13 13 14 14 13 14 14 14 14 14 15 16 15 16 16 16 16 18 17 19 18 19 19 19 22 21 23 23 23 23 23 25 25 26 26 30 30 37 40 43 54 76 97 89 95 66 75 70 64 63 65 62 63 66 67 60 54 52 56 55 53 57 62 49 49 54 51 50 48 48 43 46 38 32 32 32 38 39 42 44 40 41 44 43 48 46 45 47 52 40 45 44 44 43 41 39 41 41 40 43 44 44 41 41 41 43 45 47 46 50 52 44 42 43 42 46 48 47 46 45 45 48 49 51 53 54 51 54 59 63 65 67 66 70 64 60 60 61 64 65 61 61 57 58 58 60 61 62 60 61 59 60 62 60 58 53 53 49 49 47 48 48 47 46 42 42 41 40 40 39 39 39 38 37 37 37 37 38 36 38 37 36 38 36 38 41 43 41 38 36 35 35 34 35 35 36 37 36 36 37 36 37 38 37 36 37 36 37 37 35 37 36 36 34 35 36 36 37 40 37 38 39 38 39 39 39 39 41 39 40 38 38 40 40 40 38 39 39 35 35 35 35 37 38 37 37 36 38 38 40 41 41 41 43 44 44 45 45 45 47 45 44 46 47 48 47 48 48 46 51 48 47 47 50 53 52 49 50 47 47 47 43 45 44 46 45 44 43 42 43 41 38 38 37 38 35 39 38 40 39 40 40 42 42 44 48 51 54 50 52 51 58 52 47 48 48 46 48 48 46 45 45 42 39 38 38 37 36 34 33 29 29 30 28 28 27 26 28 28 29 29 30 30 30 28 28 29 29 34 39 38 34 33 29 28 27 28 27 26 23 23 21 22 21 20 21 21 21 21 21 21 21 22 24 24 26 25 28 27 21 21 21 21 20 20 20 20 21 20 19 19 19 17 17 16 17 16 15 16 16 16 16 14 14 14 14 14 13 13 12 12 12 12 12 12 11 11 11 11 11 11 11 11 10 10 10 10 10 9 10 10 10 10 10 9 9 10 9 9 9 8 9 9 8 8 9 8 9 9 10 9 8 9 9 9 8 8 9 8 8 8 9 8 8 8 8 8 8 8 7 8 8 8 7 0 
6 7 6 7 7 7 6 7 7 7 7 7 7 6 6 7 7 7 6 6 7 7 6 7 6 7 7 7 8 8 7 7 7 7 7 7 8 8 7 7 8 7 7 7 8 8 8 7 7 7 8 8 8 8 8 7 8 8 8 8 8 8 8 8 9 8 8 9 8 9 8 8 9 9 8 9 9 9 9 9 8 9 8 9 10 9 9 10 9 10 10 10 10 10 9 10 9 10 10 10 11 10 10 10 10 11 11 10 11 11 10 11 11 12 11 11 12 12 12 12 12 13 13 12 12 12 12 13 14 14 13 14 14 15 14 14 15 16 16 15 16 15 17 17 18 17 18 19 18 20 20 21 21 21 23 24 22 24 25 27 28 30 35 39 39 44 65 111 90 103 72 77 74 70 72 89 87 83 77 72 64 53 52 52 52 51 54 64 56 55 53 51 54 56 50 54 56 43 35 32 32 34 42 46 46 46 45 50 48 45 45 46 49 57 55 53 48 50 49 41 41 41 41 43 44 45 45 41 42 45 47 45 49 54 51 48 45 43 43 43 44 46 44 43 46 47 49 47 50 51 53 50 53 58 59 61 62 66 69 70 65 64 65 68 63 58 59 58 58 59 59 58 60 63 61 60 59 58 57 55 51 50 50 49 47 46 46 48 46 43 42 41 41 38 40 38 39 37 38 37 37 38 36 36 37 36 36 36 35 36 39 40 42 38 37 34 35 34 34 34 35 35 36 36 35 36 36 36 34 36 36 37 36 36 36 34 35 36 35 36 36 36 39 40 37 37 38 38 36 36 36 40 41 41 41 38 38 38 38 41 39 39 36 37 36 36 36 37 36 36 35 33 36 38 39 39 41 41 42 44 42 46 45 44 43 44 44 45 48 51 48 50 49 48 49 51 46 48 48 56 52 52 52 51 47 46 45 45 43 45 44 43 43 41 42 40 39 38 37 38 38 38 38 39 39 40 41 42 46 49 50 53 53 54 55 57 56 47 52 49 49 48 46 47 44 44 43 43 39 38 38 36 34 32 33 31 29 29 27 28 27 27 26 27 29 30 30 29 29 30 28 31 31 34 39 37 36 34 30 28 26 26 25 23 22 21 21 21 21 21 22 21 21 21 20 20 20 20 22 22 21 25 25 25 21 20 20 22 20 19 21 19 19 20 21 19 17 17 17 17 17 16 17 16 15 16 15 14 15 15 15 14 14 12 13 13 12 12 12 11 12 11 11 10 11 11 11 10 11 10 10 9 10 10 10 10 9 10 9 9 9 9 10 9 9 10 9 9 9 9 9 8 9 8 9 8 9 9 9 8 8 8 8 8 8 8 9 8 8 9 8 8 8 8 8 8 8 8 8 0 
6 7 7 7 6 7 7 7 6 6 7 7 7 7 6 7 7 8 7 7 7 7 6 8 6 7 7 7 7 7 7 7 7 7 7 8 7 8 8 8 8 8 8 8 7 8 7 7 8 7 8 8 7 8 8 8 8 8 7 8 8 8 8 9 8 9 9 9 8 8 9 9 8 8 9 9 9 9 9 9 9 9 9 10 9 9 10 9 9 10 10 9 9 9 10 9 9 10 10 10 10 10 10 10 10 11 10 10 11 11 11 11 11 11 11 12 12 11 12 12 12 12 13 13 12 12 13 13 14 13 14 13 13 14 15 15 15 15 16 15 16 16 16 17 16 17 18 19 18 19 20 20 20 21 22 23 22 22 24 26 27 29 31 36 37 41 52 86 85 84 71 76 87 86 76 88 95 94 82 72 65 57 53 51 51 50 49 60 61 57 50 52 53 50 54 60 58 40 35 33 32 33 41 45 45 42 41 43 44 40 44 45 47 51 54 52 56 53 45 40 41 42 44 44 43 42 44 44 46 47 45 45 44 47 44 44 42 45 45 42 47 44 43 43 46 49 49 49 50 49 50 50 52 53 57 59 58 62 69 69 67 63 64 69 64 61 61 59 61 63 57 59 59 63 64 62 56 55 56 53 52 50 49 48 48 46 46 46 46 44 43 41 42 42 41 41 37 38 38 38 38 37 36 37 35 36 35 35 36 37 38 39 40 36 35 34 33 32 32 32 32 34 35 35 34 36 36 36 35 37 36 35 36 36 35 34 34 34 34 36 36 36 35 40 36 36 40 37 37 36 35 38 37 38 38 38 37 39 40 43 43 39 37 38 38 37 35 36 37 36 35 35 36 37 39 39 41 41 42 42 43 48 45 43 43 43 45 46 51 54 54 52 50 49 49 49 48 51 46 52 51 52 50 50 48 46 47 47 44 44 46 43 43 39 41 42 38 41 38 37 37 39 38 39 40 43 45 48 48 51 53 54 53 52 52 51 51 48 48 51 51 45 45 45 43 41 44 40 38 33 34 34 34 32 31 29 31 30 29 28 26 27 26 28 27 27 29 29 28 29 30 31 30 33 38 36 37 33 31 28 26 25 24 23 21 21 22 21 21 20 21 21 21 19 20 21 20 20 21 19 20 26 25 22 20 19 19 19 18 18 19 18 19 20 21 19 18 16 17 17 17 16 18 17 16 15 15 15 16 14 14 13 14 13 14 14 12 12 12 12 12 13 12 11 11 11 10 10 10 9 10 10 10 9 10 10 10 9 10 10 10 10 9 9 9 9 9 9 9 9 9 8 9 8 9 8 9 8 8 8 9 8 8 8 8 8 8 8 8 8 8 8 8 7 8 8 8 8 8 0 
6 6 7 7 7 7 6 6 7 7 7 6 7 6 6 7 7 7 6 7 7 7 7 7 7 7 7 7 7 7 7 7 8 7 7 7 7 7 8 8 7 7 7 8 8 7 8 7 7 8 8 8 8 8 8 8 8 8 8 8 9 8 8 8 8 8 8 9 8 8 8 8 8 8 8 9 9 9 9 9 9 9 9 9 9 10 9 9 10 10 9 10 9 9 9 10 10 10 10 10 10 11 11 10 10 11 10 11 11 11 11 11 11 11 11 11 11 11 11 12 12 12 12 13 12 13 13 13 14 13 13 14 14 14 14 14 15 15 16 15 15 15 16 16 17 16 17 18 18 19 18 20 21 21 21 21 22 23 23 24 29 30 30 32 36 39 44 59 85 75 69 77 82 87 85 90 86 91 84 76 71 65 59 56 50 50 54 52 55 51 53 54 49 51 55 57 63 41 39 37 34 35 42 45 46 41 40 42 41 41 41 42 43 42 45 46 53 47 41 41 42 43 46 44 41 42 42 46 46 46 43 42 41 42 43 43 44 45 45 46 49 47 45 43 46 52 47 47 49 51 48 50 51 51 55 57 57 59 66 69 66 62 62 59 63 62 61 65 60 61 61 59 60 66 63 62 56 53 54 52 51 51 50 50 48 48 46 44 43 42 41 43 44 41 39 38 37 39 38 38 36 36 35 35 35 36 35 34 34 35 39 39 39 37 36 34 34 33 33 33 33 34 34 32 34 33 33 33 36 35 34 36 33 34 34 34 33 35 35 36 36 35 35 37 36 35 37 38 37 37 36 39 38 37 38 38 37 38 39 44 44 41 36 37 39 39 36 37 36 37 35 35 35 37 38 36 40 40 42 45 43 48 43 46 47 46 46 48 53 56 56 58 53 55 49 51 49 53 50 52 50 52 51 50 47 47 45 46 46 44 42 44 41 41 42 40 37 39 39 37 36 38 39 41 42 46 47 50 49 47 52 51 48 48 48 48 47 47 48 51 47 48 46 44 42 43 42 39 36 34 32 33 32 32 31 30 30 31 30 27 28 27 27 27 26 28 29 30 30 29 29 29 32 34 33 37 36 34 33 29 27 26 24 23 21 21 21 21 21 20 20 20 21 20 20 21 21 20 19 19 21 27 23 20 19 19 18 19 18 18 20 19 18 18 19 21 19 16 16 17 17 17 18 17 15 15 15 14 17 15 14 14 13 13 13 12 12 12 12 12 12 11 11 11 11 11 11 11 10 10 10 10 10 9 9 10 9 10 9 9 10 9 9 10 9 8 9 9 9 9 9 9 9 9 8 8 9 8 9 8 8 8 9 8 8 8 8 8 8 8 8 8 8 8 8 8 8 8 8 0 
6 7 7 6 6 6 7 7 7 7 7 7 7 7 7 7 7 7 7 7 6 7 7 7 8 7 7 7 7 7 8 7 7 7 7 7 7 7 7 7 7 7 8 8 8 8 8 7 8 8 7 8 7 8 8 8 7 8 8 8 8 8 8 8 9 9 8 8 8 8 8 9 10 9 9 8 8 8 9 9 9 9 9 9 9 10 10 9 10 9 10 10 9 9 10 9 9 10 11 10 10 10 10 10 10 10 11 10 11 11 11 11 11 12 11 12 11 12 11 12 12 11 11 13 13 13 12 13 13 13 14 14 14 13 14 14 14 14 15 15 15 16 16 16 17 17 17 18 18 18 18 18 19 19 20 20 21 22 23 23 25 25 28 29 30 36 37 52 78 53 75 73 74 77 78 79 71 73 75 75 78 75 67 64 59 53 55 51 53 54 57 50 48 50 51 53 70 54 57 47 39 40 44 46 42 40 40 40 41 41 40 40 41 41 39 40 41 44 43 41 42 45 46 42 40 40 42 45 43 44 43 40 40 41 43 47 45 44 43 47 47 46 45 44 49 50 48 47 48 49 50 50 51 52 54 55 56 62 67 66 65 61 59 58 59 60 60 64 62 59 59 59 63 62 66 64 59 58 53 58 53 51 49 49 48 49 46 44 44 42 42 41 44 42 40 39 38 39 37 38 37 36 35 34 32 35 34 34 34 34 36 36 36 38 35 34 32 32 32 33 33 34 34 33 33 34 34 34 34 35 35 34 34 35 35 34 34 34 34 34 37 33 34 35 34 35 36 37 36 36 36 35 37 38 38 38 37 36 38 44 44 42 39 39 39 39 39 37 36 35 36 35 35 37 38 37 38 41 41 45 44 47 46 46 47 47 45 47 51 57 53 60 57 56 53 53 54 53 50 52 51 53 54 51 49 46 45 45 46 42 40 42 43 41 42 39 38 39 39 36 36 38 40 41 43 43 44 44 43 42 44 46 46 45 44 47 45 46 49 47 47 49 46 43 43 41 40 38 34 33 31 32 31 32 31 31 30 30 30 31 30 30 29 28 27 28 28 31 31 29 30 30 31 32 34 38 37 33 31 29 27 25 24 23 22 22 20 21 20 20 20 21 19 20 20 22 21 22 23 23 26 24 22 19 18 19 18 18 20 19 18 19 18 18 19 20 16 17 17 17 17 17 18 17 16 15 15 15 15 14 14 13 14 13 14 12 12 12 12 12 13 11 10 11 10 11 11 10 10 10 11 10 10 10 10 10 9 10 9 9 9 10 9 9 9 9 9 9 9 9 9 9 9 9 9 9 9 9 8 8 8 8 8 8 8 8 8 9 8 8 8 8 8 8 8 8 8 8 8 0 
6 6 7 7 6 7 6 6 7 6 6 7 7 7 7 7 7 7 7 7 7 7 7 7 6 7 7 7 7 7 7 7 7 7 7 8 7 8 7 8 7 7 7 8 7 8 8 8 7 8 8 8 8 7 7 8 8 8 8 8 8 8 9 9 8 8 8 8 9 8 8 9 8 8 9 8 10 8 9 9 9 9 9 9 10 9 9 9 9 10 9 9 9 10 10 9 9 9 9 10 10 10 10 10 11 11 10 10 11 11 11 11 10 11 11 10 12 11 12 12 12 12 12 12 12 12 13 13 12 13 14 13 14 14 14 14 14 14 14 15 15 15 16 16 17 16 18 17 18 18 18 19 19 19 19 19 21 22 22 24 25 24 25 27 30 30 35 46 72 62 58 58 59 60 59 60 55 57 60 60 64 71 71 68 63 54 51 49 50 54 54 52 48 48 47 50 70 68 67 55 49 48 53 49 45 40 41 41 41 40 38 39 40 38 40 39 43 44 44 44 46 47 49 43 42 42 44 49 43 41 40 40 40 43 44 44 45 44 43 44 45 46 44 44 47 50 45 49 51 50 49 51 51 53 56 56 60 63 67 62 62 61 57 58 59 58 59 63 63 60 58 58 60 60 59 59 63 60 57 60 54 50 51 50 49 51 48 47 45 42 42 43 44 41 40 38 38 37 37 36 35 36 34 34 34 32 35 33 33 34 35 34 36 36 36 34 33 32 32 32 34 32 33 34 34 33 35 34 34 33 33 33 33 36 35 34 35 33 35 34 35 36 34 37 36 34 35 37 36 36 35 36 37 38 36 36 35 37 36 36 39 40 40 39 37 37 40 40 38 35 35 37 36 36 36 37 39 41 39 43 43 44 47 47 46 47 44 47 54 55 52 55 56 56 54 52 54 55 53 56 58 62 58 54 52 49 48 47 46 44 42 44 44 41 44 41 37 37 38 36 37 38 37 40 41 41 41 41 42 41 43 42 44 44 41 45 46 47 49 47 45 47 44 42 43 41 38 35 34 31 32 30 30 31 31 32 31 32 31 30 30 33 30 29 27 28 30 30 30 29 29 29 31 33 35 39 34 30 30 29 29 27 25 24 23 22 21 22 21 21 20 20 21 21 22 23 23 23 24 23 22 23 21 20 19 18 18 18 19 17 17 18 18 19 19 18 17 16 18 16 16 17 18 16 15 15 15 15 14 15 13 13 13 14 14 12 12 12 12 12 12 11 11 11 11 11 10 10 10 11 10 10 9 10 9 10 9 9 9 9 9 10 9 10 9 10 9 9 8 9 8 9 9 9 9 8 9 9 8 8 9 8 8 8 8 8 8 9 8 8 8 8 8 8 7 8 7 8 8 0 
6 7 6 7 6 7 7 7 7 7 7 6 7 7 6 7 7 7 7 6 7 7 7 6 7 7 7 7 7 7 7 7 8 7 7 7 7 7 7 7 7 7 7 8 8 7 8 7 8 8 8 8 8 8 8 8 8 8 8 8 8 8 8 8 8 8 9 8 8 8 9 9 8 9 9 9 8 9 9 9 9 8 8 9 9 9 9 9 9 10 9 9 10 10 10 10 10 10 9 10 10 10 11 10 11 11 10 10 11 11 11 11 11 11 11 11 11 11 11 11 11 11 12 12 13 12 12 12 13 13 13 14 14 14 13 14 14 14 15 14 16 15 15 16 16 16 16 16 17 17 18 19 18 19 19 20 20 21 24 22 22 22 25 26 29 28 31 35 50 55 43 42 43 46 47 45 44 46 49 55 57 61 67 68 62 55 50 48 47 47 51 54 55 51 49 50 63 69 72 64 54 56 58 54 47 42 41 39 40 39 39 38 39 41 40 42 52 46 46 48 50 50 51 48 46 51 55 52 42 41 41 40 40 42 42 42 42 41 42 44 44 46 44 43 46 46 46 48 51 49 49 51 52 54 55 58 63 73 66 61 62 59 59 60 57 58 58 61 61 59 55 56 59 58 57 58 60 61 57 56 53 52 51 49 50 50 50 47 45 44 43 45 44 41 39 39 38 38 37 36 35 36 34 34 33 33 34 33 33 33 34 32 34 33 34 34 33 32 32 31 32 33 36 36 34 34 34 33 34 34 35 33 33 35 34 33 33 33 33 35 34 35 34 37 36 34 35 36 35 36 36 36 40 38 37 34 35 36 35 36 35 36 38 36 35 38 39 41 38 36 37 36 36 36 36 38 40 40 42 41 45 46 48 50 49 47 46 52 56 55 52 49 55 53 51 53 54 57 57 58 61 61 61 55 52 50 51 48 49 45 46 45 42 45 44 39 38 36 37 36 35 36 36 38 39 41 40 43 41 41 41 41 40 42 44 45 46 47 47 46 46 45 42 41 40 38 38 33 32 32 30 30 31 33 32 32 32 32 30 31 29 29 28 29 29 30 32 31 29 27 28 27 31 37 38 35 31 30 28 29 27 27 26 25 25 22 20 21 21 20 21 20 21 22 23 26 24 23 25 22 22 20 19 19 19 18 18 18 18 18 17 18 19 19 19 17 18 16 16 17 17 18 18 16 16 15 15 15 13 14 15 13 14 14 13 12 12 12 12 11 11 11 12 11 11 11 10 10 10 11 11 9 10 10 10 10 10 9 10 9 9 9 9 9 9 9 9 8 9 9 9 8 9 9 9 9 8 8 9 8 8 8 8 8 8 8 9 8 8 8 8 8 8 8 8 7 8 8 7 0 
6 6 7 6 6 7 6 6 7 7 6 7 7 7 6 6 6 7 6 7 7 7 7 7 7 7 7 7 7 7 7 8 7 7 8 7 8 7 8 7 8 7 8 7 8 8 7 8 8 8 7 8 8 7 7 7 8 7 8 8 8 8 8 8 8 8 8 8 8 8 9 9 8 9 9 9 9 9 9 10 9 9 9 9 9 9 10 9 10 9 9 9 9 9 10 10 9 9 10 11 9 10 9 9 10 11 10 11 10 10 11 11 11 11 12 11 11 11 12 12 11 11 12 12 12 12 13 12 13 13 13 13 13 13 13 14 14 15 13 15 15 15 17 17 15 15 17 16 16 17 17 18 18 19 18 19 20 20 20 22 24 23 23 25 26 28 28 32 35 34 34 36 35 37 40 38 40 39 41 44 49 56 59 61 55 52 49 49 48 50 52 55 55 53 48 50 56 61 63 78 60 57 53 53 47 43 43 40 40 37 37 38 38 42 44 48 48 47 51 49 47 46 50 57 56 64 56 50 47 46 41 40 39 43 45 41 42 39 42 44 42 46 44 44 44 44 48 48 47 49 49 48 53 52 55 58 61 75 64 64 63 62 63 59 60 58 61 63 58 58 55 54 55 58 57 55 55 57 57 57 55 54 50 50 50 49 48 47 47 44 43 44 41 40 38 39 36 36 35 34 34 34 34 33 33 33 33 33 33 32 33 34 34 34 34 35 36 36 35 33 33 33 34 37 36 34 32 33 33 34 33 35 34 33 32 32 33 33 33 34 34 34 34 37 35 36 36 34 36 36 35 38 37 37 36 35 35 37 36 33 35 34 34 35 34 36 37 39 37 35 36 36 35 35 36 38 37 39 41 41 45 49 52 56 56 56 54 59 56 54 50 51 49 51 50 50 53 55 58 60 64 59 58 55 55 51 47 49 48 45 45 42 42 42 38 37 37 36 36 36 36 35 34 36 39 39 41 42 42 41 42 42 41 42 43 44 48 48 49 47 46 45 41 40 39 37 35 33 32 31 30 30 30 31 29 30 29 31 31 29 30 29 29 30 29 32 31 29 28 27 26 28 31 36 35 32 31 28 28 29 27 27 25 24 25 23 23 20 22 20 20 20 21 22 23 25 25 23 22 20 21 19 19 18 18 18 19 19 18 20 18 19 18 19 19 17 18 17 17 16 16 17 17 16 15 15 15 15 15 15 14 13 14 13 13 13 13 12 12 12 11 11 11 10 11 10 11 11 10 10 10 10 9 10 9 10 9 9 9 9 9 9 9 9 9 9 9 10 8 9 9 9 9 9 9 8 9 9 8 8 8 8 9 8 8 8 8 8 7 8 8 8 8 8 7 8 8 8 8 0 
6 6 7 6 7 7 7 7 7 6 7 7 7 7 7 7 7 7 7 7 7 7 7 7 7 7 7 7 7 8 7 8 8 7 7 7 7 7 8 8 8 7 7 7 7 8 8 8 9 8 8 7 8 8 8 8 8 8 7 8 8 8 7 8 9 8 8 9 8 8 8 9 9 8 9 9 9 8 8 9 8 10 9 9 9 9 8 10 9 9 9 9 9 10 9 10 10 9 10 10 10 10 11 10 10 10 11 11 10 10 10 10 11 11 11 11 12 12 12 12 12 12 12 13 12 12 13 12 12 13 12 13 13 14 13 14 13 13 14 14 14 15 15 17 15 16 16 17 17 17 17 18 18 18 18 19 20 20 21 20 21 22 22 24 24 26 26 29 30 29 31 31 33 32 34 35 33 34 37 41 47 51 53 51 52 51 49 48 48 51 49 55 55 57 54 51 54 57 59 70 62 58 54 52 49 48 46 44 43 38 39 35 40 43 46 46 47 45 49 50 45 44 45 52 57 58 56 49 49 49 44 43 44 47 45 43 39 40 40 43 40 42 42 43 43 45 46 47 47 50 49 48 51 52 53 59 63 66 69 64 64 63 65 59 61 61 65 62 58 55 55 56 58 56 56 55 54 56 57 58 54 52 50 49 47 48 46 47 47 44 44 42 41 40 39 38 37 36 36 34 34 34 34 33 34 32 32 32 33 32 31 32 32 32 32 34 35 33 33 33 33 33 35 35 35 36 33 32 32 34 33 33 32 32 31 34 33 33 33 33 33 35 35 35 35 36 34 36 35 36 35 37 40 37 36 36 36 36 35 35 35 34 34 34 35 34 37 37 37 37 38 36 35 36 37 37 39 39 38 40 43 48 55 56 51 56 55 55 53 50 49 49 47 52 49 49 51 54 62 61 60 56 56 53 52 49 47 46 45 46 42 43 43 42 39 36 35 35 37 34 36 35 34 34 35 40 41 44 43 42 40 40 40 43 45 47 47 49 49 47 45 43 42 40 40 36 36 34 30 30 29 30 30 29 28 28 29 30 30 30 28 28 29 28 28 29 28 27 26 25 27 26 30 34 33 32 30 28 27 28 26 27 25 24 24 23 22 22 21 21 20 21 21 21 22 25 28 24 22 20 20 19 19 18 18 19 19 20 19 20 19 19 18 19 19 18 17 17 16 16 17 18 15 16 16 15 15 13 14 14 14 13 13 13 12 12 12 12 11 12 11 11 11 11 11 11 11 10 10 11 9 10 10 10 10 10 10 9 10 9 9 9 9 9 9 9 9 9 9 9 9 9 8 8 9 9 8 8 9 8 9 8 8 8 8 8 8 8 8 8 8 8 8 8 7 8 8 8 8 0 
6 6 7 7 7 6 6 7 7 7 6 7 7 7 7 6 7 6 7 7 7 6 7 7 7 7 7 7 7 7 8 7 7 7 7 7 7 7 7 7 7 8 8 7 8 8 8 8 7 7 8 8 7 7 8 8 8 8 7 8 8 8 8 8 8 8 8 8 8 9 9 8 8 9 8 9 8 8 9 9 9 9 9 9 9 9 9 9 9 9 10 10 10 9 9 9 10 10 10 10 10 10 10 10 10 10 11 10 11 10 10 11 11 11 11 10 10 11 11 11 12 12 11 12 12 11 14 12 12 13 12 13 13 13 13 14 14 14 14 13 15 14 15 14 15 15 17 16 16 17 16 18 17 19 19 19 20 19 20 22 23 23 23 24 25 26 26 26 27 27 27 29 31 30 30 29 32 32 32 36 43 48 44 44 46 46 44 44 48 48 50 57 56 57 52 53 53 55 58 60 57 55 53 51 54 53 53 49 43 37 37 38 43 44 45 44 44 44 47 47 47 44 46 45 46 46 50 48 48 47 47 46 50 50 46 45 41 40 40 44 41 41 43 43 44 43 44 45 46 48 49 50 51 50 51 56 60 62 61 67 65 65 68 65 61 63 67 61 59 55 58 58 61 54 55 56 60 58 58 58 55 51 50 49 48 47 46 46 47 44 42 42 41 41 39 38 36 36 35 35 33 34 34 32 33 34 33 32 33 31 30 32 31 31 31 30 32 32 34 32 33 33 34 35 34 32 35 33 32 33 33 34 33 32 33 32 33 34 35 34 35 35 34 35 35 35 35 36 34 35 35 35 36 37 37 35 36 36 36 36 35 34 33 32 34 34 35 36 36 37 36 39 38 37 36 37 38 35 39 39 41 43 46 46 47 46 51 49 50 48 46 46 48 49 52 50 51 55 56 61 57 55 54 52 50 47 45 46 43 42 41 43 44 40 38 36 37 35 34 35 35 35 35 37 37 39 42 45 44 43 42 44 41 46 46 50 52 47 46 45 43 42 41 38 37 36 34 31 30 29 28 28 28 30 29 29 27 29 30 27 27 27 27 27 26 27 28 27 26 25 25 27 31 33 31 31 30 28 28 29 27 27 26 26 25 23 23 21 21 21 21 21 21 22 22 25 26 23 22 20 20 19 19 19 18 19 18 20 20 17 18 20 18 18 18 18 17 17 16 16 16 16 15 15 16 14 15 15 15 14 14 13 13 12 13 12 12 12 11 12 12 11 11 11 10 10 11 10 10 9 9 10 10 10 9 10 10 9 10 10 9 8 9 9 9 9 9 9 8 9 9 9 9 9 8 9 8 9 9 9 7 8 8 8 9 8 8 7 8 8 8 7 8 8 8 8 8 8 7 0 
6 6 6 6 7 7 7 7 6 7 7 6 7 7 7 7 6 7 7 7 7 7 7 7 7 7 7 7 7 7 7 8 7 7 7 8 7 7 7 7 8 7 7 7 8 7 8 7 8 7 8 7 8 8 8 8 8 8 8 8 8 8 8 8 8 8 9 8 9 9 8 8 8 8 9 9 8 8 9 9 9 9 9 9 9 9 9 9 9 9 9 9 9 9 10 9 10 9 10 9 10 10 10 10 10 10 10 10 10 10 10 10 10 11 11 11 11 11 11 11 11 12 13 11 11 12 12 12 12 13 13 13 13 13 13 13 13 13 15 14 14 14 14 15 15 16 16 16 16 16 16 17 17 18 18 18 19 19 19 20 21 23 35 24 24 25 22 25 26 25 26 27 27 28 28 29 28 31 30 34 39 46 38 37 40 42 38 39 41 46 48 57 56 58 51 54 55 53 57 60 58 59 57 54 55 52 51 50 43 40 40 40 41 43 46 45 44 44 44 44 45 45 43 45 45 44 47 47 45 44 49 54 53 49 46 44 41 46 45 44 41 44 47 45 43 43 45 46 45 48 49 49 52 51 53 56 59 57 60 61 63 65 71 65 61 63 67 61 60 59 63 64 63 56 58 58 62 59 59 60 59 54 50 50 48 48 48 47 43 43 43 42 42 40 40 39 37 36 37 36 34 34 33 33 33 31 31 31 30 32 30 31 31 31 32 32 32 31 31 33 32 35 34 36 36 32 32 31 34 32 32 32 32 33 32 34 32 34 35 34 33 33 33 34 34 33 34 34 35 34 34 35 35 38 38 36 37 35 35 36 35 33 33 33 33 33 35 34 35 36 36 37 37 38 37 37 37 36 38 39 41 40 43 46 45 43 46 48 48 47 47 44 47 48 49 48 49 52 54 57 55 54 55 53 49 48 46 45 44 44 42 43 41 39 38 36 37 35 34 37 35 37 36 37 40 37 44 45 45 44 44 44 46 48 50 51 51 46 45 42 42 40 38 37 37 37 33 33 29 30 29 28 28 28 27 28 28 29 29 28 26 27 26 25 25 25 25 26 27 26 24 27 31 31 30 28 28 29 28 29 29 26 27 26 25 24 24 23 21 21 21 22 22 21 22 25 24 24 24 21 21 20 19 18 19 19 19 21 20 19 17 18 17 17 19 17 17 16 16 16 16 17 16 16 15 15 15 15 14 13 13 13 12 13 12 12 12 13 11 12 11 11 11 10 10 10 11 10 11 11 10 9 10 10 10 10 9 9 9 10 10 9 9 9 9 9 9 9 9 9 9 9 9 8 8 9 8 8 8 9 8 8 8 8 8 8 8 8 8 8 8 7 8 8 7 8 8 8 8 0 
6 7 7 6 7 7 7 7 6 7 7 7 7 7 6 7 7 7 7 7 7 7 7 7 7 7 7 7 7 7 8 8 7 7 7 7 7 7 7 7 7 8 7 8 7 7 7 7 8 8 8 8 8 9 7 7 8 8 8 8 8 7 9 8 9 8 8 8 8 8 9 9 8 9 8 8 8 9 9 9 9 8 9 9 9 8 9 10 10 9 9 10 9 9 9 10 9 9 10 10 9 10 10 10 11 10 10 10 10 10 10 10 10 11 11 11 12 11 11 11 11 11 11 12 11 12 12 12 12 13 12 13 13 13 13 13 13 13 14 14 14 14 14 14 14 15 15 16 16 16 16 15 16 18 18 17 19 20 20 19 20 24 31 23 24 22 23 23 25 27 24 26 25 26 27 26 28 28 29 32 36 41 39 37 39 39 34 36 38 42 44 49 57 55 50 50 52 52 52 59 54 55 53 52 52 46 47 52 45 41 42 45 44 45 51 45 46 45 42 42 44 43 45 44 44 47 47 44 42 43 46 52 47 48 45 46 46 47 47 44 46 48 46 44 46 45 46 47 48 51 53 51 50 52 52 52 56 56 58 56 61 63 70 66 65 61 64 62 62 59 60 66 66 58 60 63 62 61 60 58 58 55 53 52 50 49 49 47 46 45 45 43 42 40 40 39 38 36 36 34 34 34 34 32 34 34 30 31 32 32 30 30 30 30 30 32 32 32 32 31 34 35 35 34 33 32 33 32 31 32 31 31 32 32 31 32 33 33 34 33 31 34 32 34 34 33 34 33 34 35 34 35 35 34 37 38 35 34 35 35 36 34 33 33 33 33 33 35 33 35 35 37 36 37 37 37 36 38 37 38 40 41 43 43 42 44 42 44 46 46 46 47 45 47 49 47 51 50 53 53 54 55 54 51 49 47 46 45 44 43 43 44 42 38 38 37 36 35 36 37 39 39 37 40 42 40 43 46 47 45 42 43 45 49 50 48 48 45 44 43 40 41 38 36 36 35 35 33 31 31 28 27 26 27 28 28 27 28 30 30 27 26 25 24 26 26 25 25 25 24 25 25 31 29 29 29 29 29 30 28 29 28 26 26 26 25 23 22 21 21 22 21 21 20 21 23 24 23 24 22 20 19 19 19 18 19 19 19 20 19 18 17 17 18 18 17 17 17 16 15 16 15 15 15 15 15 14 15 14 14 14 13 13 12 12 12 12 12 12 11 11 11 10 10 11 11 10 10 10 10 10 10 10 9 9 9 10 9 10 10 9 9 10 9 8 9 9 8 9 9 9 9 9 9 8 8 8 8 8 8 9 8 8 8 8 8 8 9 8 8 8 8 7 8 8 8 8 8 8 0 
6 6 6 7 6 7 6 6 7 6 6 6 7 7 6 7 7 7 7 8 6 7 7 7 7 7 7 7 7 7 7 8 7 7 7 8 8 8 7 8 7 7 8 7 7 8 9 8 7 8 8 8 8 8 8 7 8 8 8 8 8 8 7 8 8 8 9 9 8 8 8 8 9 8 9 9 9 9 9 9 8 9 9 9 9 8 9 9 9 9 9 10 9 9 9 10 10 10 10 10 10 10 10 9 10 10 10 10 10 10 10 10 11 11 11 11 11 11 11 12 11 12 11 12 12 11 12 12 12 12 13 13 12 13 12 13 13 12 13 14 14 14 14 14 14 15 15 14 15 16 17 16 17 17 17 19 18 18 19 20 21 22 29 22 21 21 23 22 24 23 23 23 25 25 25 26 29 27 29 30 33 43 37 35 38 40 36 35 37 38 45 49 53 48 47 44 44 48 51 50 50 51 50 50 48 46 49 56 52 50 58 51 55 59 54 48 44 42 42 42 41 42 42 41 43 44 45 42 41 43 45 45 43 44 45 45 47 46 42 46 45 46 44 46 47 47 49 48 47 48 50 50 52 49 49 51 53 54 54 54 57 60 69 68 68 64 61 58 60 60 63 66 64 60 60 60 61 64 60 57 57 55 53 52 51 48 50 47 47 45 44 43 44 40 39 41 38 35 36 33 33 33 34 32 32 34 32 31 31 31 30 30 29 30 31 30 31 31 31 32 33 34 37 34 32 32 31 31 31 32 32 31 31 31 32 34 32 31 32 33 33 32 33 33 34 33 33 33 36 35 33 32 34 34 35 35 32 34 31 34 34 35 34 33 32 32 33 35 36 35 35 34 36 35 35 35 36 36 38 39 42 41 43 43 43 43 42 45 46 46 46 46 47 46 47 48 49 49 49 53 54 53 53 51 50 50 46 45 46 45 45 44 40 39 39 37 37 37 38 40 43 39 39 39 41 44 48 49 49 47 45 45 46 46 45 47 46 45 42 42 40 39 36 37 35 33 34 32 32 29 28 28 28 28 27 26 27 29 28 28 27 25 25 26 25 25 26 25 25 25 24 25 30 29 29 30 33 31 29 29 27 30 29 28 26 25 24 23 22 22 22 21 21 22 21 22 22 25 24 22 22 19 18 18 18 18 19 19 21 19 18 18 17 17 17 17 18 17 15 15 16 16 15 15 14 15 14 15 14 14 14 12 13 12 12 12 12 12 12 11 12 11 11 11 10 10 11 10 10 10 10 10 9 10 9 9 9 9 10 10 10 9 9 9 9 9 9 8 9 9 9 9 8 9 8 9 9 8 8 8 9 8 8 8 8 8 8 8 8 8 8 8 8 8 8 8 8 7 8 0 
6 6 6 7 6 7 6 6 6 7 6 7 7 7 7 7 7 7 7 7 7 6 7 7 7 7 7 7 7 7 7 7 7 7 6 7 7 8 7 7 7 7 7 7 8 7 7 7 7 8 8 8 8 7 8 8 8 7 8 8 7 8 8 8 8 8 8 7 8 8 8 8 8 8 8 8 9 9 9 8 9 9 8 8 9 9 9 9 9 9 10 9 10 9 10 9 10 9 10 10 10 10 10 9 9 10 10 10 10 10 10 10 11 11 10 10 10 11 12 11 12 11 11 11 12 12 12 11 12 12 12 12 12 12 12 13 14 13 13 13 14 13 14 14 14 14 15 15 15 15 16 17 17 17 16 18 17 17 18 19 20 21 21 20 21 20 21 22 22 23 22 22 24 23 25 23 25 25 26 27 31 39 41 37 39 45 43 33 37 38 42 49 48 44 40 42 40 45 45 44 46 48 46 46 45 48 50 55 62 64 69 64 62 62 55 52 47 45 42 43 44 45 45 43 41 42 42 41 41 40 42 43 42 43 44 44 45 44 44 45 44 45 44 47 45 45 44 46 45 47 48 49 51 50 48 50 49 52 52 53 54 57 62 65 67 66 60 59 59 58 59 64 62 59 58 55 62 62 63 56 56 54 51 48 48 51 50 49 48 43 44 45 42 41 40 39 38 35 35 35 35 34 33 33 32 31 31 31 31 30 31 30 30 29 30 30 30 31 32 32 34 35 35 33 32 33 30 31 32 31 31 31 30 31 32 33 33 33 31 32 33 31 32 35 34 33 33 34 36 34 35 34 34 33 36 34 32 30 32 33 35 35 34 34 33 33 32 33 34 36 36 37 35 34 35 35 37 37 38 39 40 44 42 41 43 42 42 43 43 44 44 45 47 45 45 47 47 49 50 52 55 51 51 52 52 49 47 45 46 45 42 47 42 40 38 39 38 39 39 43 47 41 39 41 43 46 52 51 48 45 45 45 45 45 44 45 44 43 43 41 39 37 36 36 35 33 31 31 31 29 28 29 27 27 26 27 26 28 28 28 27 25 24 24 24 26 25 24 24 24 24 27 28 27 29 28 33 32 32 31 28 29 27 28 26 25 24 24 23 22 22 23 21 21 21 23 22 25 24 24 21 21 20 19 18 19 18 20 20 20 19 18 18 16 17 17 17 17 17 15 15 17 16 15 14 14 14 14 13 13 13 13 12 13 13 12 12 12 12 11 12 11 10 11 11 10 10 10 10 9 10 10 9 9 10 10 9 9 10 9 9 9 9 9 8 9 9 9 9 8 8 8 9 8 8 8 9 9 8 8 8 8 8 8 8 8 8 8 8 8 8 8 7 8 8 8 8 7 8 0 
7 7 6 6 6 7 6 6 7 6 7 7 7 7 7 7 6 7 7 7 7 6 8 8 7 7 7 7 7 7 7 7 7 7 7 7 8 7 7 7 7 7 7 8 7 8 8 7 8 7 7 7 8 7 7 8 8 8 7 8 7 8 8 8 8 8 7 8 9 8 9 8 9 9 9 8 8 9 8 9 9 9 9 9 8 9 9 9 8 9 9 9 9 10 10 9 9 8 10 9 10 11 10 9 10 10 10 10 10 10 11 10 10 11 10 11 11 11 11 11 11 11 12 11 12 12 11 12 12 12 12 13 12 13 13 12 14 13 14 14 13 14 14 14 14 14 14 15 16 15 16 17 16 17 17 17 18 16 18 19 19 19 18 20 19 21 19 20 20 22 24 23 21 22 23 24 24 25 26 26 27 32 39 38 40 47 40 35 39 39 47 43 43 38 37 36 37 37 39 40 42 43 42 44 42 45 47 49 57 63 63 61 58 53 50 50 47 47 49 48 51 52 48 43 42 41 42 45 42 40 41 41 43 44 41 43 43 40 43 41 41 43 43 42 44 42 42 44 44 45 46 44 47 47 49 49 50 50 52 51 53 55 58 64 65 66 60 57 56 56 57 60 64 63 60 57 56 60 60 57 56 55 52 50 49 50 49 46 48 45 43 41 42 41 40 40 39 36 37 35 34 34 34 32 34 32 31 30 32 30 29 30 31 30 31 31 31 32 31 32 33 36 35 32 33 31 30 30 31 31 32 32 31 31 30 31 32 33 32 32 33 32 32 34 35 34 33 33 33 33 33 34 33 32 33 33 32 32 31 32 34 34 34 34 33 34 33 34 35 37 35 36 37 36 36 35 36 36 37 41 42 44 43 42 41 42 43 44 44 45 43 44 46 48 47 47 48 51 53 56 53 50 51 52 55 50 48 47 47 44 43 46 44 40 38 40 44 43 44 50 54 44 40 43 47 49 58 57 51 48 46 45 46 44 45 45 43 40 40 40 39 37 35 33 34 32 30 29 31 30 29 30 26 28 27 26 27 28 29 28 27 25 25 24 24 26 24 25 25 22 22 27 25 24 26 29 29 30 33 34 30 30 32 27 28 25 27 25 24 23 24 23 23 21 21 25 22 24 22 23 21 21 20 19 19 20 19 18 20 21 20 18 17 16 18 17 17 17 15 17 16 16 15 15 14 15 15 14 14 13 13 13 12 12 12 12 13 12 11 11 11 11 11 11 11 11 10 10 10 10 10 10 10 9 9 9 10 10 9 9 9 9 9 9 9 9 9 9 9 8 9 9 8 8 8 9 9 8 9 8 9 8 8 8 9 8 8 8 8 9 7 8 8 8 8 8 7 7 8 0 
6 7 6 7 6 7 7 7 7 7 7 6 7 6 7 7 7 7 7 6 7 6 8 7 7 7 7 7 7 7 7 7 7 7 7 7 7 7 8 8 8 7 7 7 7 7 8 7 7 7 7 8 8 8 8 8 8 8 8 7 8 8 8 8 8 8 8 8 8 9 9 9 8 8 8 8 8 9 8 9 9 9 9 9 8 9 9 9 8 9 9 9 9 9 9 9 9 9 9 9 9 10 10 10 10 11 10 10 10 11 11 10 10 10 11 11 11 10 10 10 12 11 11 11 11 12 11 12 12 12 12 12 12 13 13 13 13 13 12 13 14 13 14 15 14 14 15 15 16 16 16 17 16 17 16 16 17 17 17 18 17 19 19 18 19 19 19 20 20 20 21 20 20 21 22 22 22 22 25 24 26 27 33 38 45 46 38 38 38 39 43 40 40 38 36 35 37 37 37 38 38 41 41 39 39 41 42 43 47 52 52 57 50 47 49 51 50 50 52 55 57 56 51 46 47 47 43 43 44 41 43 40 42 43 42 42 42 42 43 41 41 41 45 44 43 43 42 42 43 44 45 45 46 46 48 50 48 51 50 50 52 56 61 63 63 63 62 59 57 53 55 57 59 63 60 58 56 57 59 60 59 54 50 52 50 46 47 48 48 44 42 41 42 42 40 38 39 37 37 37 35 35 35 34 34 31 32 31 30 31 30 31 29 28 30 30 31 32 32 33 34 34 35 33 32 31 30 30 31 30 29 30 31 30 31 31 32 33 33 34 33 33 32 32 35 32 32 32 32 32 32 32 32 32 32 33 32 32 33 31 33 35 33 34 33 32 33 33 34 36 38 37 36 36 36 37 37 38 37 41 44 46 46 43 42 44 44 45 43 44 45 43 46 48 46 45 48 50 52 54 53 50 53 54 51 49 47 47 47 43 42 40 42 39 38 43 46 44 47 54 54 47 47 46 49 58 59 63 55 49 49 46 46 43 44 42 40 39 39 39 38 36 34 34 34 32 32 31 31 30 28 28 27 27 27 27 27 26 28 27 27 26 25 25 25 25 25 24 24 24 23 25 24 26 29 30 30 32 32 36 34 31 30 28 29 29 27 25 23 24 23 24 24 22 22 26 26 23 23 22 21 21 20 18 19 18 19 19 20 19 20 19 17 17 15 17 17 17 15 16 15 16 16 16 15 15 15 14 14 14 13 13 13 13 13 12 12 12 11 11 11 11 11 11 10 10 10 10 10 9 9 10 10 10 9 9 9 9 10 9 9 9 10 9 9 8 9 8 9 9 8 8 9 8 9 8 8 8 8 8 8 8 8 8 8 8 8 8 8 8 8 8 7 7 8 8 7 8 7 0 
6 7 7 6 6 7 7 7 6 6 6 6 6 6 7 7 7 7 6 7 7 7 7 7 7 7 7 7 7 7 7 7 7 7 7 8 7 7 7 7 8 7 8 7 8 7 7 7 8 8 8 8 7 7 7 8 8 8 8 8 8 8 8 8 8 8 8 8 9 7 8 8 8 9 8 9 8 9 8 8 9 9 8 9 9 9 8 9 9 9 9 9 9 10 9 10 10 9 10 9 9 9 10 10 10 10 10 10 10 10 10 10 10 11 11 11 10 10 11 10 11 11 11 11 11 12 12 12 12 11 12 12 12 13 12 12 13 13 13 13 13 13 15 14 14 14 15 14 16 15 16 16 16 16 16 15 16 17 17 18 17 18 18 18 18 20 19 19 20 20 19 20 21 20 21 22 20 23 23 24 23 26 28 31 40 34 35 38 36 36 34 35 35 34 33 32 36 38 36 37 35 37 39 37 36 39 37 38 40 43 45 46 44 44 45 49 53 54 56 59 55 54 50 48 47 46 45 46 45 42 42 41 42 42 41 45 41 40 41 40 42 41 46 41 43 42 41 41 44 42 44 44 48 46 47 48 50 49 49 52 53 59 67 66 60 60 57 54 58 55 54 56 56 59 60 58 55 55 58 61 58 54 50 52 50 47 47 47 46 44 43 41 40 40 39 39 38 36 37 37 36 33 35 34 33 34 33 30 30 31 32 30 30 30 31 31 31 32 33 35 33 33 34 33 32 31 31 30 31 31 30 30 31 30 32 32 32 32 31 33 32 32 32 32 30 32 33 34 32 32 31 32 32 32 32 32 33 32 32 31 32 33 32 32 33 32 32 33 33 36 35 37 37 36 39 37 35 38 37 40 43 44 47 45 45 46 46 43 45 44 44 43 45 47 47 47 49 49 54 57 56 56 54 52 49 47 46 45 47 44 45 45 50 46 42 44 43 44 48 55 57 55 53 54 64 65 62 60 52 49 50 48 47 43 43 42 38 37 38 36 36 34 35 34 33 32 31 30 29 29 29 28 27 27 27 27 26 27 28 26 25 25 25 25 25 24 24 24 24 23 24 26 24 26 28 32 32 34 33 40 40 34 31 29 29 28 27 25 23 24 24 24 23 22 22 25 23 22 22 20 21 20 21 19 19 19 19 18 19 20 19 18 18 18 17 18 17 16 16 16 15 16 15 15 15 15 14 14 14 13 14 13 12 13 13 12 12 12 11 11 10 11 10 10 11 10 10 10 10 9 10 10 9 10 9 10 9 9 9 9 9 10 10 9 9 9 9 9 9 9 9 8 9 8 8 8 9 9 8 8 8 8 9 8 8 8 8 8 8 8 8 9 8 8 7 8 7 8 7 0 
7 7 7 6 7 6 7 7 7 7 6 7 8 7 6 7 7 7 7 7 7 7 6 7 6 6 8 7 7 8 7 7 8 7 7 7 7 7 7 7 8 8 8 7 7 8 7 7 7 8 8 8 7 7 8 8 8 8 8 8 7 7 8 8 7 8 8 7 8 8 8 8 8 8 8 9 8 8 8 8 9 9 9 9 8 9 9 10 10 9 9 9 9 9 9 9 9 10 10 10 9 9 10 10 9 10 10 10 10 11 10 11 10 10 11 11 11 11 11 11 11 12 11 12 12 11 12 12 12 11 13 12 12 12 12 14 13 12 14 13 14 14 13 13 14 14 14 14 16 15 16 15 16 16 15 16 16 15 17 18 17 18 17 17 18 18 18 19 20 19 20 19 20 20 20 21 21 20 22 22 23 24 24 28 39 33 32 31 31 33 30 31 34 33 31 31 35 37 35 35 36 40 37 35 36 38 35 36 36 40 40 40 38 40 43 43 47 49 55 52 49 48 48 45 45 46 44 42 40 43 43 42 40 40 41 41 42 40 41 39 41 42 41 42 40 41 40 41 43 44 44 44 46 46 46 48 50 47 49 52 56 67 73 59 54 57 58 58 57 54 56 57 60 58 57 56 55 57 57 57 59 58 55 51 50 48 47 47 48 45 43 42 41 40 41 40 38 39 36 34 35 35 35 35 34 32 32 32 30 31 30 31 31 30 30 30 31 32 32 34 34 34 33 32 31 30 29 31 31 30 30 30 30 31 30 30 32 31 32 32 32 32 32 31 32 31 32 31 32 32 31 32 32 31 31 32 31 33 31 31 32 32 33 34 34 32 32 33 33 33 36 41 39 38 39 38 35 37 40 40 40 43 45 47 47 47 48 46 44 44 45 44 47 48 48 47 52 50 54 55 55 57 54 52 49 46 46 43 45 41 43 46 53 48 47 47 47 47 48 52 56 62 61 65 66 60 55 51 49 47 46 48 43 43 43 39 37 36 37 36 36 33 35 32 32 32 31 32 32 30 30 29 27 29 27 27 27 26 26 26 27 25 26 25 25 24 25 24 23 24 24 25 25 28 28 30 29 31 34 38 39 39 36 30 28 27 25 25 25 23 24 23 24 23 23 25 24 22 21 21 21 20 20 20 19 19 19 19 19 18 18 18 17 17 17 17 17 17 16 16 16 15 15 16 14 15 15 14 14 14 13 13 12 12 12 12 12 12 11 12 12 10 11 11 10 11 10 10 10 10 10 9 11 10 9 10 9 9 9 9 9 9 9 9 9 8 9 9 8 9 9 9 8 8 9 9 9 9 8 8 8 9 8 9 8 8 8 8 8 8 8 7 8 8 7 8 8 7 8 0 
7 6 7 6 6 7 6 7 7 7 7 6 6 6 7 6 7 7 7 7 7 6 7 6 6 6 7 7 7 7 7 7 7 8 7 7 8 8 7 7 7 8 7 7 7 7 7 7 8 8 7 8 8 7 7 7 8 8 7 7 8 8 8 8 8 8 8 8 8 8 8 8 8 9 8 8 8 9 9 8 9 9 9 8 9 9 9 9 9 9 9 9 9 9 9 10 10 9 9 10 10 10 10 10 10 10 10 11 10 10 10 11 10 10 10 10 11 10 10 11 11 10 11 11 12 12 12 12 12 12 12 12 12 12 13 12 13 12 12 12 14 14 13 13 15 14 14 15 15 18 16 15 15 16 15 16 16 15 16 16 17 16 17 17 17 17 18 18 19 18 19 19 20 20 20 21 21 20 21 22 22 23 23 26 29 32 32 28 26 27 28 28 31 32 31 32 35 39 33 34 40 37 34 33 34 36 37 35 35 36 37 39 37 38 39 40 41 41 42 45 48 45 42 45 45 42 44 43 39 42 41 41 41 41 42 40 39 41 41 42 41 41 43 40 40 43 41 41 42 43 44 44 46 48 46 48 48 49 51 52 55 74 77 52 52 62 58 59 57 58 60 66 60 57 55 53 55 62 59 55 58 55 54 50 51 51 48 49 49 46 43 41 40 42 41 40 39 40 36 37 36 37 35 35 34 33 32 33 29 31 30 30 30 30 29 31 32 33 33 33 35 34 31 31 31 31 31 30 31 30 30 30 31 31 31 30 30 32 31 31 33 31 31 31 31 31 31 30 30 31 31 31 31 30 30 30 32 31 32 33 33 32 31 33 33 33 33 32 32 34 35 39 38 40 38 37 37 38 40 40 42 42 43 46 46 48 46 48 46 45 46 50 48 50 48 49 51 52 56 53 52 52 52 49 46 46 44 42 42 41 43 46 48 48 47 48 51 49 51 50 58 66 67 62 57 51 47 44 43 42 40 40 40 40 38 36 38 36 36 36 34 35 34 32 32 32 33 31 32 32 29 29 28 27 27 28 25 26 26 26 25 26 25 24 25 24 24 24 25 26 27 24 26 25 26 26 26 26 30 36 36 37 45 32 28 25 25 24 26 24 23 22 24 23 24 25 22 22 21 22 22 20 20 21 19 20 19 19 19 18 17 17 17 17 18 16 17 16 16 16 15 15 14 15 14 15 14 14 14 14 14 13 13 13 13 13 12 12 11 11 11 12 11 10 11 10 10 10 10 11 10 10 10 11 10 10 9 9 9 8 9 9 8 9 9 9 9 8 8 8 9 9 9 9 8 9 9 9 9 9 8 9 8 8 8 8 8 8 8 8 7 8 8 8 7 8 7 8 8 0 
6 7 7 6 6 7 7 6 7 7 7 7 6 7 7 7 7 6 7 7 6 7 7 7 7 7 6 7 8 7 7 7 7 7 7 7 7 7 7 7 7 7 7 8 7 8 8 7 8 8 8 7 7 8 8 8 7 7 8 8 8 8 8 8 8 8 8 8 8 8 8 7 8 8 8 8 8 8 9 9 9 8 9 9 9 9 9 9 9 9 9 10 9 9 9 10 9 9 10 9 10 9 10 10 9 9 10 9 10 10 10 10 10 11 11 11 11 10 11 10 11 10 11 11 11 11 11 12 11 12 12 12 12 12 12 12 12 12 13 12 13 12 14 13 14 14 14 14 16 19 15 15 15 15 15 15 15 15 16 17 16 17 17 17 17 17 18 17 18 18 18 18 19 19 19 19 21 20 20 21 21 22 23 24 25 29 25 26 25 25 26 27 27 28 29 32 34 35 33 35 37 35 34 32 34 36 37 37 37 35 38 37 34 36 39 39 38 37 40 41 42 43 40 40 39 39 39 40 37 40 39 40 41 38 38 39 38 39 37 40 41 40 41 40 41 40 40 39 41 44 44 45 45 50 49 49 47 51 49 52 57 77 69 63 60 62 60 60 62 58 62 68 62 56 56 54 57 65 61 58 58 57 56 51 52 49 48 48 48 49 44 42 44 43 42 39 40 39 37 36 36 36 34 35 35 35 33 31 29 31 31 31 30 30 30 32 32 32 34 32 35 34 30 32 30 30 29 30 31 31 30 30 30 30 31 31 30 30 30 30 32 33 30 30 32 32 31 31 32 32 30 31 30 30 31 30 31 31 32 34 32 32 33 34 33 32 31 33 35 34 37 40 45 44 42 41 38 40 41 41 40 41 42 43 46 45 47 46 46 44 47 50 47 48 48 49 49 53 57 52 51 52 51 47 45 46 43 42 41 42 41 44 47 46 48 52 53 52 51 47 51 56 58 53 48 45 42 40 40 39 39 38 37 34 36 33 35 34 34 34 34 33 33 30 32 29 31 31 30 31 29 27 26 26 27 27 25 25 24 26 24 24 24 25 26 24 24 25 27 30 29 25 24 26 26 24 24 26 29 43 41 43 44 29 28 25 24 25 24 24 23 21 22 22 24 25 24 21 22 22 21 22 21 20 20 20 19 19 19 19 19 18 17 18 18 17 17 16 16 16 15 16 15 16 14 15 14 15 14 14 13 13 13 13 12 12 12 11 13 11 12 11 10 10 10 11 10 10 11 10 10 9 9 9 9 9 10 10 10 9 9 9 9 9 9 8 9 9 9 9 8 8 9 8 8 9 8 8 8 8 7 7 8 8 8 8 8 8 8 7 8 8 8 8 8 7 7 8 8 0 
7 6 6 7 6 6 6 7 6 7 7 7 6 7 7 7 6 7 6 7 7 6 7 7 7 7 7 8 7 7 7 7 7 7 7 7 8 7 8 7 7 7 7 7 7 7 7 8 8 7 7 8 8 8 7 7 8 7 8 8 7 8 8 8 8 8 8 8 8 8 8 8 8 8 8 9 8 8 9 8 8 9 8 9 9 9 9 8 9 9 8 10 9 9 10 9 9 9 9 10 10 10 10 9 10 10 10 10 10 9 10 10 10 10 10 10 10 11 11 11 11 11 11 11 10 11 11 10 11 11 12 11 12 12 12 12 13 13 13 12 13 13 14 13 14 14 15 14 15 15 15 14 15 15 15 15 15 15 14 16 16 16 17 16 17 18 17 17 18 18 18 18 18 18 19 18 19 19 21 21 21 20 22 22 22 24 23 24 24 23 25 25 27 26 28 29 32 30 32 30 31 32 31 32 34 36 37 36 36 35 38 35 35 38 36 37 36 36 38 40 38 38 35 35 37 35 39 37 37 38 36 38 38 40 36 37 36 36 39 41 41 42 41 41 41 41 42 40 42 43 44 45 45 48 51 50 49 52 50 52 55 69 68 71 68 66 64 63 63 63 67 70 65 60 59 56 62 68 65 62 61 64 57 55 55 53 51 49 51 48 46 45 43 43 42 40 40 41 38 38 37 35 36 35 34 34 33 31 31 33 32 30 31 30 29 32 31 32 33 34 33 32 31 30 29 30 32 32 31 30 30 30 29 31 30 31 30 30 30 30 31 31 29 30 29 31 31 31 31 30 31 32 30 30 30 31 32 31 32 32 32 32 33 33 33 31 33 33 34 33 38 39 41 42 41 42 41 42 40 41 40 39 39 41 43 43 46 46 47 44 45 47 45 48 48 47 50 52 55 56 53 52 48 47 46 44 44 40 39 41 42 40 43 45 46 48 48 51 48 45 51 52 49 45 41 39 38 38 36 35 36 36 34 34 34 34 35 36 35 36 34 32 31 31 30 31 29 31 30 28 28 26 28 27 27 27 24 25 24 24 23 24 25 28 26 25 24 26 27 32 31 27 25 25 23 23 24 24 34 48 41 45 34 27 26 24 24 23 25 23 23 22 24 22 24 24 23 23 22 23 22 22 22 22 20 20 21 20 20 18 18 18 19 18 18 18 18 17 17 16 16 17 15 15 15 14 15 14 13 13 13 13 14 13 12 12 11 11 12 11 11 11 11 10 11 11 10 10 10 10 9 10 10 10 9 10 9 9 10 9 9 9 9 8 9 9 9 9 8 9 9 9 8 9 9 8 9 8 8 8 8 8 8 8 8 8 8 7 8 8 7 7 8 8 8 8 8 8 8 0 
7 7 7 7 7 6 6 7 7 6 7 7 6 7 7 6 7 6 7 7 6 7 7 7 7 6 7 7 7 7 7 7 7 7 7 7 7 7 7 7 7 7 8 7 7 7 8 8 7 7 7 8 8 7 8 8 8 7 8 8 8 8 8 8 8 8 8 8 8 8 8 8 8 8 8 9 9 8 8 9 9 8 9 8 8 9 9 8 9 8 9 8 9 9 9 9 9 9 9 9 10 9 9 9 9 10 10 9 10 10 10 9 10 10 10 11 10 10 11 11 11 10 11 10 11 11 11 12 11 12 12 12 12 12 12 12 12 12 12 13 13 13 13 14 13 14 15 15 15 15 14 16 14 15 14 15 16 15 16 16 16 15 17 16 16 16 17 17 17 17 17 18 18 18 19 18 19 20 19 20 20 21 22 22 22 22 23 22 23 23 23 26 26 25 26 29 33 28 28 26 27 29 31 33 30 31 29 32 32 34 39 33 35 33 32 33 33 34 36 36 36 33 34 33 33 34 34 36 35 38 37 38 39 37 37 36 35 36 40 41 42 41 41 39 40 41 41 40 41 42 41 44 48 49 50 51 51 52 51 54 57 60 63 65 66 64 63 63 67 67 68 70 67 63 59 58 61 66 65 65 61 65 61 58 56 55 51 50 51 51 48 45 44 44 45 42 40 40 37 37 38 36 38 37 36 34 34 32 32 31 32 31 32 32 32 32 32 31 34 34 33 33 31 29 30 31 31 30 31 32 30 29 31 31 30 29 29 29 31 30 30 30 30 30 29 31 31 31 31 30 29 32 31 31 31 30 29 31 32 31 31 30 31 33 35 33 34 35 34 34 36 36 37 39 39 40 41 42 40 39 40 39 39 40 39 42 43 46 47 44 45 46 45 46 48 46 51 53 56 56 54 50 48 46 45 43 41 39 38 40 42 41 42 42 44 45 47 49 50 48 57 52 43 40 40 37 35 36 35 35 33 33 33 32 32 34 33 36 37 35 32 33 31 29 29 30 30 30 28 28 27 28 28 27 27 27 24 25 25 23 24 26 26 26 25 26 25 27 30 34 33 33 29 25 24 25 27 34 43 44 37 35 30 26 24 24 23 24 24 22 22 22 22 23 25 23 23 23 22 21 21 23 23 22 21 21 20 21 19 19 18 18 18 18 17 19 17 16 17 16 18 17 16 14 15 14 15 14 15 13 12 14 12 13 13 12 12 13 11 11 12 11 10 10 10 11 10 11 10 10 11 10 10 10 10 9 10 9 9 9 10 9 10 9 9 9 9 8 9 9 9 8 9 9 8 9 8 9 9 9 8 8 8 8 8 8 8 8 8 8 8 8 7 8 7 8 7 7 8 0 
6 6 6 7 7 7 6 6 7 7 6 6 6 7 7 7 7 7 7 7 7 7 7 6 7 7 7 6 7 7 7 7 7 7 7 8 6 7 7 7 8 7 8 7 7 8 7 7 7 7 7 8 8 7 8 8 7 8 8 8 8 8 8 8 8 8 8 7 8 8 8 8 8 8 8 8 8 9 8 8 8 8 7 9 8 9 8 9 8 9 9 9 9 9 10 10 9 9 9 10 9 9 10 9 9 9 10 10 9 9 10 10 11 10 11 10 10 11 10 10 10 11 11 11 11 12 11 11 11 11 11 12 12 12 12 13 12 12 12 12 13 13 13 14 13 13 14 14 14 14 14 14 14 14 15 15 15 15 16 15 16 15 15 15 15 17 17 16 16 17 17 16 17 18 18 18 19 19 19 19 20 21 21 21 21 20 21 22 23 22 23 23 22 24 25 25 28 27 26 25 25 26 26 28 28 27 29 30 30 31 31 32 32 31 31 32 32 31 32 34 34 32 33 32 35 34 34 34 36 39 36 36 37 34 36 36 37 40 39 38 38 39 39 38 39 39 40 40 41 42 41 42 46 45 47 48 50 51 54 52 56 57 58 59 64 65 61 62 68 72 72 70 66 66 65 62 60 65 66 66 63 61 59 57 58 54 50 49 51 50 48 46 44 45 45 41 41 40 39 39 38 37 37 37 34 35 35 34 33 33 31 31 32 31 32 31 32 33 34 32 31 33 31 31 31 30 30 31 30 30 29 29 30 30 30 29 29 29 29 29 30 29 28 29 29 30 30 31 31 31 31 31 31 32 29 32 30 30 30 32 31 32 31 33 35 34 36 37 34 35 34 33 36 38 37 38 39 40 39 40 41 40 40 40 40 41 41 42 43 42 42 42 44 46 47 47 50 52 54 53 53 52 47 44 43 40 41 39 41 38 40 38 41 44 44 45 46 46 54 54 57 46 39 36 37 35 34 33 33 32 32 32 31 31 30 32 32 34 34 32 30 31 31 30 30 31 28 29 27 27 28 28 27 27 26 26 26 26 25 27 24 26 25 26 25 27 28 28 34 33 32 33 35 32 30 32 33 43 46 40 36 31 28 24 23 23 25 23 22 22 22 22 21 22 24 22 21 22 22 22 22 23 23 23 21 22 21 20 20 19 19 18 18 18 19 19 18 16 17 17 16 17 16 15 14 15 15 15 14 14 13 13 12 13 13 12 12 12 12 12 12 11 11 11 11 10 10 10 10 10 9 10 10 10 9 10 9 9 9 9 9 9 9 10 8 9 8 9 9 8 9 9 8 8 9 8 8 8 8 8 8 8 8 8 7 7 8 8 8 8 8 8 7 8 7 7 8 8 7 0 
6 6 6 7 7 6 7 6 7 7 7 6 7 6 7 7 7 7 7 7 7 7 7 7 6 6 6 6 7 7 7 7 7 7 7 7 7 7 7 7 7 8 7 8 7 7 8 8 7 7 8 7 8 8 7 8 7 7 7 8 8 8 8 8 7 8 8 8 8 8 8 7 9 8 9 8 8 9 8 8 9 8 9 9 9 8 9 9 8 9 9 9 9 9 9 9 9 9 9 9 9 9 9 10 10 9 10 10 10 9 10 10 10 10 9 10 10 10 10 11 11 11 12 11 11 11 10 12 11 10 12 11 12 12 12 12 11 13 12 13 13 12 13 12 13 14 14 14 15 14 15 15 14 15 14 14 15 14 16 15 15 16 15 15 16 16 16 16 17 17 17 17 17 17 18 18 18 18 19 22 20 19 20 20 19 20 20 21 22 21 21 22 23 23 25 24 24 24 24 24 24 25 24 27 27 30 26 27 31 30 31 30 28 29 29 29 30 30 31 33 32 31 30 30 33 32 32 34 35 36 37 38 36 34 37 36 37 38 38 38 38 39 39 39 39 39 39 41 40 40 41 42 45 42 44 45 47 49 50 52 56 55 56 58 59 60 59 64 67 71 73 71 64 61 65 61 60 62 64 67 62 60 57 57 55 54 51 49 48 49 47 46 45 44 44 41 41 41 38 37 41 37 39 37 36 35 35 33 33 32 34 32 32 32 33 33 34 33 33 33 33 33 31 30 31 30 31 31 29 29 29 30 30 29 28 28 29 29 29 28 29 29 28 29 29 30 30 31 30 30 30 30 31 30 31 30 30 31 32 29 30 30 33 34 36 35 38 35 36 36 35 34 35 37 37 38 40 39 40 42 41 39 40 38 40 41 41 42 41 40 42 43 43 44 45 47 51 51 51 52 52 52 48 43 42 40 42 40 39 39 40 40 39 40 42 44 44 42 45 47 49 39 35 35 34 33 31 32 30 30 30 31 30 29 30 30 30 32 31 30 30 29 30 30 30 30 30 29 28 29 27 29 27 27 26 26 27 27 26 26 25 26 24 27 27 26 28 31 37 35 32 32 36 38 37 35 42 48 41 35 30 26 26 23 23 22 24 23 23 22 21 21 20 22 23 22 22 21 22 21 23 25 24 23 23 21 21 21 19 19 19 18 19 19 19 19 18 16 15 16 16 16 16 15 15 14 14 14 14 14 13 13 12 13 13 13 12 12 11 12 12 11 11 10 11 11 11 10 10 9 10 10 10 9 10 9 9 10 9 9 9 9 9 10 9 9 9 9 8 8 9 9 8 8 9 9 8 9 8 9 8 8 8 8 8 8 8 7 8 8 8 8 8 7 8 8 8 7 8 0 
6 6 6 6 7 7 6 6 6 7 7 6 6 6 6 7 7 6 7 7 7 6 7 6 6 7 7 7 7 7 7 7 7 8 7 7 7 7 7 7 7 7 7 7 7 8 7 7 8 7 7 7 7 8 8 8 7 7 8 8 8 8 8 8 7 8 8 9 8 8 8 8 7 8 9 8 9 9 9 8 9 8 9 9 8 9 9 8 9 9 9 9 9 9 9 9 9 9 9 8 9 9 9 10 9 9 9 10 9 9 9 10 10 10 10 10 10 10 10 10 10 11 11 11 10 11 11 12 11 11 11 12 12 12 12 11 12 12 12 13 12 12 13 13 13 13 14 15 15 14 15 14 14 15 15 14 14 15 15 15 16 16 15 15 16 15 15 16 16 17 17 17 16 17 18 18 17 18 19 22 19 20 19 19 20 20 20 19 21 20 21 22 22 21 22 23 23 23 23 23 23 23 25 24 25 27 26 28 30 28 28 28 26 25 26 27 28 28 30 30 30 31 30 29 30 32 32 33 33 33 32 34 34 35 35 36 37 37 40 38 38 39 38 38 37 38 39 39 39 40 42 40 42 43 42 43 45 48 49 50 55 51 51 54 59 56 61 61 64 72 70 67 65 62 60 60 59 58 60 63 62 62 60 55 53 53 52 54 47 47 49 46 46 43 44 43 41 41 39 38 39 40 38 36 35 36 35 31 34 33 33 33 33 32 33 34 33 34 34 33 32 31 32 32 29 31 30 32 31 30 29 30 29 27 27 29 29 28 28 28 28 28 29 30 29 28 30 29 29 30 30 29 29 30 30 29 30 31 31 32 31 30 32 33 38 35 39 38 35 34 35 34 35 34 37 37 38 39 39 41 42 40 39 40 39 41 41 42 42 43 42 43 42 46 47 49 51 52 50 50 52 51 46 45 43 42 40 41 40 41 41 41 38 39 42 41 41 39 40 41 38 36 35 34 32 30 31 29 30 29 30 29 30 29 29 30 28 31 29 28 28 28 27 29 30 30 31 29 30 30 28 29 28 27 25 25 29 28 25 25 25 25 25 25 25 28 30 33 37 36 32 33 32 36 36 36 43 41 34 30 27 25 25 23 24 22 23 24 23 21 22 21 20 21 19 20 20 20 21 22 21 24 23 22 22 21 22 21 19 19 18 19 19 19 21 20 18 17 17 17 17 17 16 15 16 14 13 15 13 14 14 13 12 12 13 12 11 12 12 11 11 11 12 11 11 11 10 10 10 9 9 10 10 10 10 10 10 9 9 9 9 8 9 9 9 8 9 8 9 9 9 9 8 9 9 9 9 8 8 8 9 8 8 8 8 8 8 8 8 8 8 8 8 8 7 7 7 7 7 0 
7 6 6 6 6 7 7 7 7 7 6 7 7 7 6 7 7 7 7 7 7 7 7 7 6 6 7 6 7 7 7 6 7 7 7 7 7 7 7 7 7 7 7 7 7 7 7 8 8 8 7 8 8 7 8 8 8 8 7 8 8 7 8 8 8 8 8 8 8 8 8 8 8 8 8 7 8 8 8 8 9 8 9 9 9 8 8 9 8 9 9 9 9 9 9 9 9 9 9 9 9 10 9 9 9 10 10 10 10 9 9 9 10 10 10 10 10 11 10 10 10 11 11 10 11 11 10 11 12 12 11 11 11 12 12 11 12 11 11 13 13 13 13 13 13 13 14 14 16 15 15 14 15 14 14 13 14 14 14 15 15 15 16 15 14 16 16 15 16 17 16 16 17 16 17 18 17 18 18 20 20 17 19 18 18 19 20 20 20 21 20 20 20 19 21 23 22 22 22 22 22 22 23 23 24 24 26 29 29 27 27 26 26 25 25 26 27 28 28 29 29 28 29 29 30 29 30 31 30 30 32 32 34 34 35 38 38 37 39 40 39 39 40 37 38 38 39 39 38 40 42 41 42 43 43 43 43 45 46 48 54 50 48 50 51 55 55 60 63 68 69 69 66 64 59 57 57 55 60 62 62 61 62 57 53 51 51 53 50 49 48 45 44 44 44 41 41 39 41 39 38 38 37 37 35 34 34 33 34 32 33 33 33 33 34 34 35 33 32 32 31 31 31 30 30 31 31 30 31 30 29 29 29 30 29 28 28 29 28 28 27 29 27 29 29 30 30 30 30 31 30 31 31 31 31 29 30 32 31 32 32 31 33 35 36 35 37 39 37 37 37 36 36 36 37 36 36 39 38 40 41 40 40 42 39 40 43 43 42 44 43 42 43 44 45 47 50 50 51 50 52 48 46 45 43 42 43 43 42 41 40 38 40 39 42 40 38 37 36 36 34 34 32 32 30 29 29 29 29 29 29 29 29 29 28 28 28 29 29 28 28 29 29 28 29 30 31 31 28 29 28 28 27 28 27 25 25 27 26 26 25 24 25 25 26 28 29 36 36 36 34 30 30 30 29 32 33 32 28 27 25 24 24 24 23 21 24 29 26 22 22 21 21 21 20 20 20 20 21 21 22 22 23 22 22 21 22 21 21 19 19 19 20 20 21 20 18 17 16 17 16 17 18 16 15 16 15 14 13 14 14 14 13 13 13 12 13 12 12 11 11 11 11 11 10 11 10 10 10 10 10 10 10 9 9 9 10 9 10 9 9 9 9 8 9 9 9 8 8 9 9 8 9 8 8 8 9 9 8 8 8 8 9 8 8 8 8 8 8 8 8 8 8 8 8 7 8 8 8 0 
6 6 6 6 6 7 7 7 6 7 6 7 6 7 6 7 7 7 7 7 7 7 7 7 7 7 7 7 7 6 7 7 7 6 7 7 8 8 7 8 8 7 8 8 8 7 7 8 8 8 7 7 7 7 8 8 7 8 7 8 8 8 9 8 8 8 8 8 8 8 8 8 8 8 9 8 8 8 8 8 8 8 8 9 9 9 8 9 9 8 9 8 9 9 9 9 9 9 9 10 9 9 10 9 10 10 10 10 9 10 9 10 10 10 10 10 11 10 11 11 11 11 10 10 11 11 11 10 11 10 11 12 12 11 12 11 12 12 12 12 13 13 13 14 13 14 14 16 22 16 14 14 14 14 14 13 14 14 15 14 15 14 15 14 15 15 15 15 15 15 16 16 17 16 17 18 16 17 18 18 18 18 18 18 18 19 18 19 19 20 20 20 20 21 22 21 21 22 22 22 21 22 21 23 24 24 27 27 27 25 26 26 25 24 26 25 26 27 27 27 28 27 27 29 30 29 30 29 31 30 32 33 33 34 34 36 36 39 44 42 40 42 37 37 37 37 38 37 38 39 40 39 42 41 41 42 43 43 45 47 49 48 47 49 49 52 51 55 59 64 68 71 71 65 61 56 58 54 57 61 62 65 65 58 52 52 49 52 52 49 48 45 45 44 43 42 40 39 40 39 38 38 38 37 38 35 35 33 35 34 34 35 34 35 37 34 33 31 30 30 32 30 29 30 31 31 31 29 29 30 28 30 29 29 27 28 28 28 28 29 28 29 30 30 29 29 29 29 30 31 29 30 30 30 30 30 30 32 32 31 33 34 33 35 34 35 35 35 36 36 43 38 37 36 36 36 36 38 38 40 42 40 41 40 40 40 39 41 42 44 41 41 42 43 46 48 48 50 51 51 51 49 46 47 45 43 44 44 43 43 42 40 38 37 37 36 36 36 35 34 33 32 31 30 29 30 29 28 28 29 29 28 27 26 29 27 28 29 28 27 27 27 27 27 27 29 29 28 28 30 28 27 28 27 26 26 26 28 28 25 25 25 25 26 27 28 31 34 37 35 33 30 30 28 29 29 29 28 25 25 26 24 21 23 22 23 23 28 24 23 23 20 22 21 19 20 21 20 23 23 24 21 22 24 25 24 21 19 20 19 19 20 19 18 19 21 18 17 18 17 18 15 16 16 15 14 14 14 14 13 14 13 14 13 13 13 13 12 12 11 12 12 11 11 10 11 10 10 9 10 9 9 9 10 9 9 9 9 9 9 9 9 8 8 9 9 8 8 9 9 9 9 9 9 8 9 8 9 8 9 8 8 8 8 8 8 8 8 8 8 8 8 8 7 8 8 7 9 7 0 
6 6 6 7 6 7 7 6 6 7 7 6 6 6 6 7 7 7 7 7 7 7 7 6 7 7 7 7 7 7 7 6 7 6 6 7 7 7 7 7 7 8 7 7 7 7 7 7 7 7 7 7 8 7 7 7 7 8 7 7 7 8 8 8 8 7 8 8 8 9 8 8 8 9 8 8 8 8 8 8 9 9 8 9 8 8 9 8 9 8 9 9 9 9 8 9 10 9 9 10 9 9 9 10 9 9 9 9 9 9 10 9 10 10 11 10 11 10 10 10 10 10 11 10 11 11 11 10 11 12 10 12 12 11 11 12 11 12 12 12 12 12 12 12 13 13 14 15 29 18 14 14 15 14 14 14 15 15 15 14 14 14 14 14 16 15 15 15 16 16 16 16 16 16 16 17 17 17 17 17 18 18 18 17 18 18 18 19 19 19 20 21 20 20 20 21 20 21 21 20 21 21 21 23 22 24 25 24 23 26 26 24 25 24 24 25 25 27 29 27 28 27 28 29 30 29 30 30 31 32 31 34 33 32 34 36 38 40 41 41 40 39 38 35 35 37 37 39 38 38 39 39 40 39 38 42 45 43 43 48 48 47 49 50 49 48 51 51 54 58 61 63 71 70 62 58 52 52 51 55 56 63 63 61 52 48 48 49 48 49 48 48 44 44 43 42 41 39 40 41 38 37 37 37 36 35 35 35 34 34 34 35 35 35 39 34 36 31 31 31 30 31 32 30 31 31 30 29 29 30 28 30 29 28 28 29 28 28 27 28 29 28 28 29 29 28 28 28 29 31 30 30 31 30 29 29 31 31 34 33 34 34 34 34 33 34 35 35 33 36 36 36 36 36 37 37 38 38 39 38 42 41 40 39 38 39 40 41 42 41 42 42 42 44 47 47 45 47 50 51 52 48 49 49 48 44 44 45 43 40 41 37 38 36 36 36 35 34 33 32 31 29 30 29 28 28 27 26 28 27 27 27 27 28 26 26 28 27 27 27 26 27 27 27 29 27 28 28 28 29 28 27 27 26 27 26 26 27 26 25 24 25 25 24 27 29 36 34 39 35 32 29 28 28 27 28 28 27 24 24 23 21 22 22 22 22 22 22 21 21 21 20 21 20 21 19 19 21 23 25 23 23 22 23 24 26 23 20 21 20 20 19 19 19 21 20 18 17 19 17 16 15 16 17 17 15 15 15 14 15 14 13 13 12 14 14 13 12 12 12 12 12 11 11 10 9 10 11 10 10 10 10 10 9 10 10 10 10 9 8 9 9 9 9 9 9 9 8 9 8 9 9 8 8 8 9 8 8 8 8 8 8 8 8 8 8 8 7 8 7 8 7 7 8 8 7 8 8 7 0 
6 6 6 6 6 6 6 6 6 6 7 6 7 7 7 6 6 7 6 7 7 7 7 7 7 7 7 7 7 7 7 8 7 8 7 7 7 7 7 7 8 7 7 7 7 8 7 7 7 7 8 8 8 7 7 8 8 8 8 8 7 7 8 8 7 9 8 8 8 8 8 8 8 8 8 8 8 8 8 9 8 8 8 8 8 9 8 8 9 9 9 8 9 9 9 9 9 9 9 9 9 9 9 10 9 10 10 9 10 10 10 10 9 9 10 10 10 9 11 11 10 10 10 11 11 11 11 11 11 11 11 10 11 12 12 12 12 11 12 11 12 12 13 12 13 14 14 14 16 14 13 14 14 14 13 14 13 14 14 14 15 14 14 15 15 15 15 16 15 15 15 15 16 17 17 17 17 16 16 17 17 17 17 18 18 17 18 18 19 18 20 26 19 20 19 20 19 21 20 21 20 21 21 23 22 24 26 25 24 24 24 23 24 23 24 24 24 26 27 28 27 28 27 27 27 28 30 32 31 30 31 31 32 33 34 36 37 39 40 41 39 37 36 36 36 37 36 37 38 39 37 39 40 39 40 40 43 42 44 47 49 49 50 48 48 49 50 50 54 54 59 60 69 70 66 60 55 52 51 52 53 59 60 62 56 49 47 46 47 48 49 48 44 43 43 44 43 39 40 40 38 41 38 40 37 36 35 35 36 35 34 34 36 36 36 37 36 33 31 31 31 33 31 31 31 31 30 29 30 29 29 28 29 29 28 29 28 27 28 28 27 28 28 30 28 29 29 30 30 30 29 31 31 30 30 30 33 33 30 32 34 34 33 35 34 34 36 33 34 34 34 37 37 37 37 39 38 39 37 40 39 40 39 39 38 39 41 40 40 41 42 41 42 42 41 43 43 48 49 52 54 51 49 50 47 44 45 43 41 41 40 38 37 34 33 33 35 33 32 30 30 29 28 29 28 26 27 26 28 28 27 28 27 27 27 27 25 26 27 26 26 26 26 28 27 28 28 28 29 28 30 28 29 28 28 27 28 27 25 25 24 26 27 26 28 32 38 37 36 37 34 31 28 27 27 26 25 24 23 22 21 21 22 21 22 21 22 22 21 20 22 22 20 21 21 20 20 20 20 20 19 22 22 23 24 27 22 19 18 19 19 20 19 20 20 19 18 18 19 17 16 16 16 17 15 16 16 15 15 14 14 14 14 12 14 15 13 13 11 11 12 11 10 11 11 10 10 10 10 9 10 10 10 9 9 10 10 9 9 10 9 9 9 9 9 9 8 9 8 9 8 8 9 9 9 8 8 9 8 8 8 8 8 8 8 8 8 8 8 7 8 7 8 7 8 7 8 7 7 0 
7 7 7 6 7 6 6 7 7 6 6 7 7 6 6 7 7 6 7 6 7 7 7 7 6 7 7 7 7 6 7 7 7 7 7 7 7 7 7 7 7 7 7 7 7 7 7 7 7 8 7 7 7 7 8 7 8 7 7 8 7 8 7 8 8 7 7 8 8 8 8 8 9 8 8 8 8 8 8 8 9 9 9 8 9 8 8 9 9 9 9 8 9 8 9 8 9 9 9 9 9 9 10 10 9 10 9 9 9 10 10 10 10 9 9 9 10 10 10 11 10 11 10 10 10 10 10 11 11 11 11 11 11 11 12 11 12 12 12 11 12 12 13 13 12 12 14 14 15 14 14 14 13 14 14 13 13 13 14 14 15 15 14 15 13 14 16 15 15 17 15 15 16 15 16 16 16 17 17 16 17 17 17 18 17 18 16 17 18 18 19 19 19 19 19 20 20 20 20 20 20 22 21 21 23 23 24 26 24 25 24 22 22 23 23 23 23 25 25 25 26 26 27 28 28 28 29 30 30 31 29 31 31 33 35 36 35 38 38 37 36 35 36 36 36 37 36 36 38 36 37 38 39 41 40 40 41 43 46 47 47 52 51 50 48 48 50 50 53 54 54 56 63 68 68 62 57 52 52 50 51 54 55 57 59 54 48 48 47 45 47 50 48 43 43 43 44 40 43 43 40 40 39 38 38 37 36 35 34 35 34 35 34 33 36 35 35 34 34 33 33 32 32 32 33 31 32 31 30 30 29 29 28 28 28 28 27 27 28 28 29 27 29 28 28 30 30 31 29 31 31 31 32 30 30 31 31 32 33 33 33 32 35 33 34 35 35 33 33 34 35 34 35 37 37 40 39 37 37 37 39 37 38 38 39 39 39 41 40 40 41 41 42 41 40 42 43 44 49 54 52 51 50 47 47 46 46 45 40 40 37 35 34 33 34 33 32 31 31 28 29 29 28 27 26 26 25 26 27 26 28 27 26 27 26 27 25 24 25 26 26 26 26 26 27 28 27 28 28 28 30 29 28 27 28 27 28 28 28 26 25 26 25 27 29 36 38 36 34 34 37 30 29 26 25 23 24 23 22 23 22 21 21 20 21 22 22 22 21 21 21 21 22 21 20 20 20 20 19 18 20 20 25 25 25 24 21 19 20 18 20 21 19 22 19 19 18 21 22 19 17 19 17 16 16 17 17 15 15 15 14 15 13 14 13 13 12 12 11 11 11 11 11 10 10 10 11 10 10 10 9 9 9 10 10 9 9 9 9 9 9 9 9 9 9 8 9 9 9 8 9 9 9 8 8 9 9 8 8 8 8 8 8 9 8 8 8 8 8 8 7 8 8 8 8 8 8 8 8 0 
6 7 7 7 6 7 7 7 7 7 6 7 7 7 7 6 6 6 7 7 7 7 7 7 7 6 7 7 6 7 7 7 7 7 7 7 7 7 8 7 7 7 7 7 7 7 7 7 8 7 8 8 7 8 7 8 7 7 7 8 7 8 8 8 7 8 8 8 8 8 8 8 8 8 8 8 8 8 8 9 8 8 9 8 8 8 8 9 9 9 9 9 10 9 9 9 9 9 9 9 9 9 10 10 9 10 9 9 10 10 10 10 10 10 9 10 10 9 10 10 10 10 10 10 11 11 10 11 10 11 10 12 11 11 11 12 12 12 12 12 12 12 13 12 13 13 13 13 13 13 14 14 13 14 13 14 14 14 13 13 14 13 13 14 14 15 14 13 15 14 14 15 15 15 15 16 17 16 16 16 17 17 16 17 17 17 17 17 17 18 18 18 18 20 19 19 20 18 20 19 19 20 21 23 23 24 25 25 26 26 23 24 22 23 23 23 23 23 25 24 27 26 26 27 28 29 29 29 30 29 29 31 32 33 36 34 35 41 39 35 35 34 34 35 35 35 35 35 37 37 40 41 41 39 41 39 42 43 46 47 51 52 52 52 49 48 51 53 52 54 54 61 61 62 62 64 56 54 52 50 54 54 55 54 55 52 51 51 50 45 46 47 49 44 44 44 44 45 43 42 42 42 42 41 39 38 37 37 36 36 36 35 36 37 35 35 34 37 36 35 33 34 33 32 32 32 31 31 31 31 29 28 28 29 29 29 28 27 28 28 29 28 28 30 30 31 30 31 30 32 31 33 30 35 32 32 33 33 32 32 31 33 35 32 33 33 33 34 32 34 34 36 36 37 37 39 37 36 36 38 38 39 39 38 38 38 38 39 39 41 39 41 41 41 41 40 44 45 48 52 55 54 48 44 45 44 46 44 40 38 37 34 32 31 33 32 33 30 28 28 27 27 28 26 26 26 26 27 25 28 27 27 26 26 26 24 26 25 25 24 25 26 26 28 28 28 27 26 27 29 30 30 29 30 28 28 28 29 27 28 27 25 26 28 30 35 36 34 33 33 37 33 29 26 24 23 22 22 21 21 20 21 20 20 21 22 21 22 21 23 22 22 23 21 20 21 20 19 19 19 20 22 28 27 24 22 20 19 20 19 19 19 20 19 20 19 20 21 19 18 16 17 17 16 16 15 15 16 15 15 14 14 13 13 12 13 12 13 12 11 11 11 11 11 10 11 10 11 10 10 10 10 9 10 9 9 9 10 10 9 8 9 9 9 8 9 9 9 9 9 8 8 9 8 9 8 8 9 8 9 8 8 8 9 8 8 8 8 8 8 7 7 8 8 7 7 8 8 7 0 
7 6 7 6 6 7 6 7 7 6 7 6 6 7 6 6 7 6 7 7 7 7 7 7 7 7 7 7 7 7 6 7 7 7 7 7 7 7 7 7 7 7 7 7 7 7 7 7 7 8 7 8 7 7 7 8 7 8 7 7 7 7 7 8 7 8 8 7 8 8 8 8 8 8 8 8 8 8 8 8 8 8 8 9 8 8 9 8 9 9 9 8 9 9 8 8 9 9 9 9 10 9 8 9 9 9 9 9 9 10 10 9 10 10 10 10 10 10 11 10 10 10 10 11 10 11 10 11 10 11 11 11 12 12 11 12 12 11 12 11 12 12 13 12 14 15 12 13 13 13 13 13 13 13 13 13 13 14 14 13 13 14 14 14 14 14 14 14 14 14 15 15 15 15 16 16 16 15 16 16 17 16 16 17 17 17 17 17 17 17 19 18 19 18 18 17 18 20 19 20 19 20 20 23 23 21 23 23 24 27 24 23 22 21 22 22 22 23 24 25 27 27 26 28 28 28 26 27 28 29 29 30 31 33 35 35 36 37 36 34 34 32 33 34 35 35 35 34 35 39 42 45 44 43 41 40 40 43 44 46 49 47 49 52 51 54 51 53 54 55 58 62 66 64 61 61 57 55 52 53 57 57 54 52 53 52 51 54 48 47 47 46 50 46 45 49 47 44 44 44 43 43 43 42 39 39 38 37 38 37 38 36 35 34 36 35 34 36 36 34 34 34 34 32 33 31 32 30 32 31 30 28 30 29 28 30 30 28 29 29 30 29 29 31 30 32 31 30 32 31 31 31 31 32 30 33 31 32 32 31 32 32 31 32 31 33 33 31 34 33 35 35 36 37 37 38 37 38 37 37 38 38 38 38 38 38 40 39 42 41 40 44 42 41 40 40 41 45 45 50 56 56 51 48 48 44 41 42 40 40 36 34 33 34 33 34 32 29 27 27 27 24 27 26 26 25 27 26 26 28 28 27 27 26 26 24 24 25 24 25 24 26 26 28 28 27 28 28 27 28 30 29 29 30 29 30 30 26 27 27 26 27 28 27 30 33 38 35 32 32 33 32 29 26 26 24 23 21 22 22 21 20 20 21 20 21 21 23 21 21 21 23 24 22 22 21 21 19 19 20 22 26 30 22 21 20 20 18 18 19 18 18 19 18 19 19 19 19 19 17 16 16 16 16 16 15 17 16 15 15 15 14 14 13 13 12 12 12 11 12 11 11 11 10 10 10 10 10 10 10 9 9 10 9 9 9 9 9 9 9 9 9 9 9 9 9 8 8 8 8 9 9 9 8 9 8 8 8 8 8 8 8 8 8 8 8 8 8 7 7 8 8 8 8 7 8 8 7 8 0 
6 6 7 7 7 6 6 7 6 6 7 7 7 6 6 7 7 6 6 7 7 7 6 6 6 7 7 7 7 7 6 7 7 7 7 6 7 7 7 7 7 7 7 7 8 7 7 7 7 7 8 7 7 8 8 7 8 8 8 7 7 7 7 8 8 8 8 8 8 8 8 8 8 8 9 8 8 8 8 8 8 8 8 8 8 8 8 8 8 8 9 8 8 9 9 10 8 9 9 9 9 9 9 10 9 9 9 9 9 10 10 10 10 9 10 10 10 10 10 10 10 10 10 10 10 11 11 10 11 10 11 11 11 10 12 11 12 12 11 12 12 13 13 13 13 13 13 13 13 12 13 13 13 13 12 13 13 13 14 14 14 14 14 14 15 14 15 15 15 14 14 15 14 16 15 16 16 16 15 15 16 17 17 16 16 17 17 17 18 18 18 17 17 18 17 19 19 20 19 19 18 19 20 21 22 21 21 23 24 24 23 23 22 23 23 21 22 24 23 26 27 27 27 27 27 28 25 27 26 29 30 30 31 33 34 35 35 37 36 34 35 31 32 33 33 36 35 35 36 41 40 41 42 41 38 39 42 42 42 43 46 43 47 48 51 52 52 52 53 58 65 64 65 61 60 59 57 52 53 55 61 58 51 51 53 51 51 56 51 52 48 49 53 48 48 48 48 46 46 46 45 45 45 44 44 41 40 40 40 38 38 37 37 37 36 35 35 36 34 36 34 35 33 32 32 31 32 32 31 31 30 30 29 30 29 30 29 30 29 29 28 30 30 30 30 32 31 31 33 31 32 32 31 32 32 31 30 32 32 31 31 33 32 31 33 33 32 33 34 34 36 36 36 36 36 36 36 36 37 37 38 37 38 38 38 39 40 40 40 44 44 47 42 41 39 40 41 42 44 48 54 55 53 49 48 44 41 39 41 38 36 33 35 34 32 31 29 28 27 27 26 26 26 25 26 26 26 26 26 28 28 25 28 25 25 25 24 24 24 24 24 24 26 28 27 26 28 27 28 28 28 31 31 30 31 31 28 27 26 26 28 28 28 30 29 30 38 36 33 33 33 30 31 27 24 24 22 22 20 20 20 20 20 20 20 21 22 23 22 21 23 23 22 22 22 21 22 22 21 21 23 27 25 21 20 20 19 18 18 18 19 18 17 17 19 22 20 17 18 17 16 15 16 17 16 16 16 15 15 15 16 14 14 13 13 12 13 12 12 11 11 11 11 10 10 11 10 10 10 10 10 9 10 10 10 10 9 9 10 9 9 9 9 9 9 9 9 9 8 9 9 8 8 9 9 9 9 8 8 8 8 7 8 8 8 8 8 8 8 8 8 8 8 8 7 8 8 7 7 0 
6 7 7 7 6 6 7 7 6 6 7 6 7 6 7 6 7 6 7 7 6 7 7 7 7 7 7 7 7 7 7 7 7 7 7 7 7 7 7 7 7 7 7 7 7 7 7 8 7 8 7 7 7 7 7 8 7 7 7 7 8 8 7 7 8 8 8 8 8 8 8 8 8 8 8 8 7 8 9 8 8 8 8 9 9 8 8 9 8 9 8 8 9 9 9 9 8 9 9 9 9 9 9 9 9 10 10 9 9 9 10 9 9 9 10 9 10 10 10 10 10 10 10 10 10 10 11 11 11 12 11 11 11 10 11 11 12 11 12 12 12 12 12 12 14 13 13 13 13 13 12 12 13 13 12 13 13 13 12 14 14 14 13 14 17 15 15 14 14 14 14 15 15 15 15 15 15 15 15 16 15 15 16 16 16 17 16 17 18 17 17 16 17 18 18 18 18 18 18 18 19 19 19 20 21 21 22 23 23 21 23 23 22 23 22 23 24 22 25 25 27 27 27 28 26 26 26 27 27 28 30 30 30 33 35 35 36 34 34 33 33 31 32 32 34 35 35 37 37 41 35 38 36 35 36 40 41 40 40 42 42 43 43 46 47 49 49 51 56 60 73 69 59 56 57 57 53 54 56 55 65 56 53 51 53 56 54 56 55 53 53 54 54 52 49 49 49 49 49 46 44 44 45 44 42 42 40 40 40 38 37 38 36 36 36 36 35 36 35 35 36 36 34 33 32 31 33 32 31 31 31 29 31 29 29 29 30 30 30 29 29 31 31 30 30 31 32 32 32 33 31 32 33 31 32 31 32 31 32 31 31 31 31 30 32 33 32 32 34 35 35 35 35 36 36 37 35 36 36 38 37 38 38 37 39 40 41 41 41 42 47 45 42 41 39 40 41 43 44 48 49 53 54 51 47 42 41 39 41 37 35 34 35 31 30 28 29 27 26 25 25 25 24 26 28 30 26 25 28 27 27 27 26 26 27 24 25 25 23 24 25 25 26 26 26 26 26 27 29 29 30 30 31 29 33 32 28 27 26 29 27 29 31 32 31 28 37 40 35 33 31 31 32 27 25 23 22 21 21 20 20 19 20 21 21 23 22 23 22 22 23 25 24 21 22 23 22 22 23 26 26 25 21 21 20 19 19 18 18 18 22 20 18 18 21 24 19 17 17 17 16 15 16 16 17 16 15 15 15 15 14 14 13 13 12 12 12 12 12 11 11 11 11 10 10 10 10 10 10 10 10 9 10 9 9 9 9 9 9 9 9 9 9 9 9 8 9 9 8 8 8 8 8 8 8 9 9 8 8 8 8 8 8 8 8 8 8 8 8 7 7 8 8 8 8 7 8 8 7 0 
7 6 7 7 6 6 6 7 6 6 7 7 6 7 6 7 7 6 6 6 7 7 7 7 7 6 6 6 7 7 7 7 7 7 7 7 7 7 7 7 7 7 7 7 7 7 8 7 7 8 7 7 8 7 7 7 7 8 8 8 8 8 8 7 7 8 8 8 8 7 8 8 8 8 8 8 8 8 8 8 8 8 8 8 9 8 8 9 9 9 9 8 8 8 9 9 9 9 9 9 9 9 9 9 10 9 9 9 9 9 10 9 10 9 10 9 9 10 10 10 11 10 10 10 10 10 11 11 10 11 10 10 11 10 11 11 11 12 11 12 13 11 13 13 11 12 13 12 13 13 13 12 12 13 13 12 12 13 13 13 13 15 13 14 14 14 15 13 14 15 14 14 14 15 15 15 15 15 15 15 15 15 17 17 15 16 16 17 17 16 17 17 20 20 18 17 17 19 18 18 19 19 20 20 18 20 20 21 22 22 22 22 22 22 22 22 23 23 24 26 26 27 27 28 28 28 27 27 27 28 28 29 31 31 33 35 35 36 35 35 34 33 33 32 34 34 35 38 38 40 36 33 33 35 37 37 40 38 39 41 40 43 42 46 48 47 48 51 54 61 78 63 52 51 52 52 52 54 57 59 68 63 55 54 60 58 55 54 55 53 52 53 54 53 51 51 51 50 50 49 48 45 44 44 43 43 41 41 41 41 39 38 36 38 35 36 35 35 35 35 35 35 35 32 32 32 32 32 30 32 31 31 30 30 30 30 30 30 30 31 30 31 33 32 32 31 30 32 32 32 31 32 32 31 31 30 30 30 31 30 30 33 31 31 31 32 32 32 34 33 34 33 36 35 34 35 35 35 37 37 37 37 38 39 40 42 39 40 43 48 46 44 44 44 39 40 39 42 44 49 48 51 56 51 45 41 37 38 36 35 34 32 30 28 27 26 26 25 25 26 25 25 25 25 30 34 26 25 27 27 28 26 27 25 26 26 25 26 24 25 24 24 24 24 24 25 25 27 29 30 31 30 31 30 33 34 32 29 27 30 28 31 37 35 34 34 40 40 34 31 31 30 30 27 25 23 23 21 19 19 20 20 20 21 21 21 23 23 22 22 24 27 24 22 23 21 22 22 23 23 23 23 21 21 22 21 20 19 18 18 18 20 23 20 21 20 18 17 17 16 16 16 16 16 15 15 15 15 15 14 14 13 13 13 12 11 11 12 11 11 10 11 11 11 10 10 10 10 11 10 9 9 9 9 9 9 10 8 9 9 9 9 9 9 9 9 8 9 9 9 9 8 8 8 9 8 8 8 8 9 9 8 8 8 8 8 8 8 8 7 7 7 8 7 8 7 7 8 8 0 
6 7 6 7 6 7 7 6 7 6 6 6 6 7 7 6 7 7 6 7 6 7 6 7 8 7 7 7 7 7 7 7 7 7 7 7 7 7 6 7 8 7 7 7 7 7 7 7 7 8 7 7 8 7 8 7 7 8 8 7 8 8 7 7 8 8 8 8 8 8 8 8 8 8 8 7 8 8 9 8 8 8 8 8 8 8 8 8 8 8 9 9 9 8 9 9 9 9 9 9 9 9 8 8 8 9 9 10 10 10 10 9 9 10 10 9 10 9 10 10 10 10 10 10 11 10 10 10 10 11 11 10 10 11 11 11 12 11 12 12 11 12 12 12 12 12 12 13 13 13 12 12 12 12 12 13 12 13 14 13 13 14 14 14 15 14 14 14 14 14 15 13 14 14 14 15 14 14 15 15 15 16 16 17 15 16 16 17 15 16 17 16 18 17 17 17 18 18 17 18 18 17 18 17 19 20 19 21 22 21 22 22 22 22 22 22 23 23 24 25 25 25 28 29 28 28 27 27 28 28 28 30 30 32 34 35 36 37 35 33 34 32 32 33 34 35 35 35 35 40 37 34 34 35 35 38 38 40 37 38 40 42 44 45 47 47 50 51 53 64 89 64 51 51 55 61 55 55 56 61 73 68 58 60 60 58 59 62 58 55 55 56 55 54 52 49 52 52 50 49 46 47 46 44 42 43 41 40 40 40 40 37 38 35 36 37 34 36 34 36 35 35 35 33 33 33 32 31 31 31 32 31 32 30 30 30 30 30 31 31 30 32 33 31 32 32 32 31 33 32 31 32 33 32 30 31 30 30 31 30 31 30 30 30 32 31 34 33 34 35 33 34 33 35 36 36 35 35 37 38 36 39 40 39 39 41 40 42 44 45 43 43 45 42 40 40 38 44 46 51 49 52 54 46 43 43 38 37 39 35 32 30 30 26 28 26 26 25 25 26 24 23 24 24 26 26 25 24 26 26 29 26 27 26 27 26 25 25 23 25 24 23 24 24 24 24 26 27 27 29 31 31 30 33 35 33 31 28 29 29 30 35 41 35 38 38 38 35 31 30 30 29 28 27 25 24 23 23 21 20 20 20 21 21 21 21 21 21 24 24 26 26 23 21 21 20 21 22 21 21 21 23 21 21 21 21 19 18 19 20 18 21 26 22 21 19 18 18 16 16 15 16 17 16 15 14 14 14 15 14 13 13 12 12 12 11 11 11 11 11 11 10 11 11 10 10 10 10 10 10 9 10 10 10 10 8 8 9 9 9 9 9 10 9 9 8 9 8 9 8 8 8 9 9 8 8 9 8 9 8 8 8 8 8 9 8 8 8 8 7 8 7 8 8 7 7 8 8 7 0 
6 6 6 7 7 6 6 6 6 6 6 7 7 6 6 7 6 7 6 7 6 7 7 7 7 7 7 7 6 7 7 7 7 7 7 7 7 7 7 7 7 8 8 7 7 7 7 8 8 7 7 7 7 8 7 7 8 7 8 7 8 8 7 7 8 8 8 8 8 7 8 8 7 8 8 8 8 8 8 8 8 9 8 8 8 8 8 8 8 8 9 9 8 9 9 9 9 8 9 9 9 8 9 9 9 8 9 9 9 9 10 10 10 10 10 10 10 9 10 10 10 10 10 10 11 10 11 10 10 11 10 11 11 11 11 11 10 11 12 11 12 12 12 12 12 12 12 11 13 12 12 12 12 12 12 12 12 13 12 13 13 13 13 13 14 14 14 14 14 13 14 14 14 14 15 15 14 14 14 14 15 15 15 16 15 15 16 16 16 16 17 16 17 17 18 17 17 17 17 18 18 18 17 19 18 19 19 19 19 21 20 23 23 22 23 23 22 23 24 26 25 26 26 27 27 29 28 29 28 29 29 30 31 32 33 35 40 36 35 32 33 34 32 32 34 33 34 35 36 34 34 33 33 34 36 37 38 37 39 40 42 41 44 44 44 46 49 51 52 63 91 67 60 53 58 61 57 55 54 66 73 69 67 64 63 58 59 62 56 57 58 57 57 55 51 49 49 50 48 47 48 47 45 46 45 43 41 40 39 40 40 39 36 35 35 36 35 36 34 35 36 37 34 33 33 33 33 34 33 33 32 32 32 31 32 33 33 31 31 31 32 32 32 33 32 32 32 31 32 33 32 34 32 30 31 31 30 30 30 30 31 29 30 30 31 32 31 32 34 33 34 33 35 35 35 36 36 37 37 37 38 37 38 39 39 40 40 44 45 45 45 44 45 43 42 45 44 47 48 48 51 50 49 43 43 41 38 38 36 35 30 28 28 27 25 26 25 25 24 24 24 25 23 24 24 25 26 26 25 28 27 26 26 25 25 27 25 26 25 24 25 24 24 24 25 26 25 26 28 28 31 30 31 34 32 30 30 29 29 31 31 37 39 35 32 34 31 31 28 28 28 27 27 27 28 25 22 21 21 21 21 19 21 21 20 21 21 23 24 25 26 25 23 21 21 21 20 21 21 20 20 21 20 21 22 21 19 19 17 19 19 20 23 20 21 19 18 18 17 16 16 17 17 16 15 15 15 14 14 14 13 12 12 12 12 11 11 11 11 11 11 10 11 11 11 10 10 10 10 10 10 10 10 10 9 9 9 9 9 9 9 8 8 9 9 9 8 9 9 8 8 9 9 8 8 8 8 8 7 8 8 8 8 7 8 8 8 8 8 7 7 8 8 7 8 8 8 7 7 0 
6 6 6 6 6 7 6 7 7 6 7 7 6 7 7 6 6 6 6 7 7 6 7 6 7 6 7 6 7 7 7 7 7 7 7 7 7 8 6 7 7 7 8 7 7 7 8 7 7 7 7 7 7 8 8 7 7 8 7 7 8 7 8 7 7 7 8 8 8 8 7 8 8 8 8 8 8 8 8 8 8 8 8 9 8 8 8 8 8 8 9 8 8 9 8 9 9 9 9 9 8 8 9 9 9 9 9 10 9 10 9 9 10 10 10 9 10 10 10 10 10 10 10 10 10 10 10 10 10 11 10 10 10 11 11 10 12 11 11 11 12 11 12 12 13 11 12 12 13 12 12 12 13 13 13 13 13 12 13 13 12 13 14 13 13 14 14 15 14 15 14 14 14 14 15 14 15 14 15 15 15 15 15 14 15 15 17 15 15 15 16 16 16 17 17 16 16 17 17 17 18 17 18 19 18 19 19 19 19 19 22 22 21 21 22 23 22 22 24 25 23 25 26 27 26 28 30 29 29 30 31 32 32 33 36 37 38 35 34 35 33 33 34 33 34 36 35 36 35 34 33 33 33 33 35 37 37 37 37 38 42 43 43 44 47 46 49 50 54 69 85 70 62 60 65 61 57 56 56 66 71 69 66 65 66 61 59 59 55 57 54 54 59 56 55 51 50 47 46 47 48 45 46 47 44 45 43 41 40 39 37 38 36 36 35 36 36 36 36 36 36 35 35 33 34 32 34 34 34 33 32 34 32 33 33 33 34 34 32 34 31 32 32 33 34 34 33 32 33 31 32 31 31 32 32 31 30 29 30 30 31 29 30 29 31 31 32 31 33 34 34 35 34 35 36 35 37 37 39 39 38 37 37 40 41 41 42 44 47 43 41 41 42 43 44 46 46 43 46 46 43 43 42 41 39 40 38 35 36 30 27 28 29 26 25 25 26 25 25 24 23 24 23 25 25 26 26 25 25 26 27 27 26 25 28 24 25 24 23 24 25 24 24 25 25 25 28 26 27 30 31 30 30 33 32 31 30 29 29 32 35 39 38 37 32 30 30 30 28 28 28 26 26 26 26 25 23 22 20 21 20 20 21 22 21 21 20 23 24 26 26 26 24 21 20 19 20 19 20 19 19 19 20 21 21 20 19 19 17 20 19 19 21 20 18 18 17 17 18 16 16 16 15 16 15 15 16 14 13 13 12 13 12 13 12 11 10 11 11 11 11 10 10 11 10 11 10 10 10 9 10 9 9 10 9 9 8 9 9 9 9 9 9 9 8 9 9 9 8 9 9 8 8 9 8 9 9 8 8 8 7 8 8 8 8 7 8 8 7 7 9 9 7 7 8 7 8 7 7 0 
7 6 7 7 6 6 6 6 6 7 7 6 6 6 7 7 6 7 6 7 7 7 6 6 7 7 7 7 7 7 7 7 7 7 7 7 6 6 7 7 8 6 7 7 7 7 7 7 7 7 7 7 8 8 8 8 8 7 8 7 8 8 8 8 8 7 8 8 8 8 8 7 8 8 8 8 8 8 8 8 8 8 8 8 8 8 8 8 8 9 8 8 8 9 8 9 9 8 9 9 9 9 9 9 9 9 9 10 9 10 10 10 9 8 10 10 10 10 10 9 10 10 10 10 10 10 10 10 10 11 10 10 11 10 11 11 11 11 11 11 12 11 11 11 12 11 12 12 12 12 12 12 12 12 12 13 12 12 13 13 12 13 13 13 14 13 14 14 14 13 13 13 14 14 15 14 14 14 15 15 15 15 14 15 15 15 15 16 16 16 16 16 17 17 16 17 16 16 17 17 16 17 18 17 18 18 18 17 19 20 19 20 21 20 22 21 22 22 24 23 24 24 25 27 27 29 29 31 30 30 31 32 33 35 37 36 37 38 36 34 35 34 33 33 33 37 35 34 32 31 32 32 35 35 35 35 35 35 38 39 39 42 42 44 46 46 50 51 57 75 79 71 73 67 64 59 59 58 62 62 67 71 73 66 65 62 61 59 58 55 52 53 54 55 54 52 48 49 46 46 46 47 45 46 45 46 43 45 41 40 38 37 38 37 37 35 35 36 36 36 36 35 34 34 34 35 34 34 34 36 34 33 34 34 34 33 33 34 34 32 32 33 34 34 34 33 33 33 34 33 32 32 32 31 30 32 30 31 30 30 30 30 31 31 30 31 31 31 31 33 34 34 33 36 36 36 36 35 38 37 38 36 39 39 41 43 44 45 45 40 40 39 38 41 41 43 44 42 43 44 42 41 40 40 38 35 36 33 29 29 28 27 26 26 25 24 24 25 25 23 23 25 24 24 25 24 25 25 25 27 27 28 27 28 29 25 25 25 24 23 26 25 25 24 24 25 27 29 30 31 30 29 32 31 30 29 30 27 31 37 35 38 36 36 30 29 29 28 26 28 27 26 26 26 27 25 23 23 22 20 21 20 22 21 22 21 21 23 26 27 26 25 23 21 19 20 19 19 19 19 18 20 20 22 21 20 18 18 18 17 17 19 20 18 18 17 18 18 17 16 16 17 15 16 15 14 14 14 13 14 13 13 13 13 13 11 11 12 11 11 11 10 10 10 10 10 9 9 9 10 10 10 10 9 9 9 9 10 9 9 9 9 9 9 8 9 8 9 9 9 8 8 8 9 8 9 8 8 8 8 9 8 8 8 8 8 8 8 7 8 8 8 8 7 8 7 8 7 7 0 
6 7 6 6 7 7 6 7 7 6 7 6 7 6 6 6 7 7 7 7 6 7 7 7 7 7 6 6 7 7 7 7 7 7 7 7 7 7 7 7 7 7 7 7 7 7 7 7 7 7 7 7 7 7 7 7 7 7 7 7 7 8 8 7 7 7 8 8 8 7 8 8 8 8 8 8 7 8 8 7 8 8 8 8 9 9 8 8 8 9 8 8 8 9 8 8 8 9 8 9 9 9 9 9 10 9 9 10 9 9 9 9 9 9 9 10 9 9 9 10 10 10 10 9 9 10 10 10 10 10 11 11 10 11 11 11 10 11 10 12 11 11 11 11 11 12 11 12 12 11 13 12 12 12 12 13 13 13 12 13 13 13 13 13 13 13 14 13 13 13 14 14 14 14 14 14 14 14 15 15 15 15 14 15 15 14 16 15 15 16 16 16 16 16 16 17 17 16 17 18 18 17 18 17 18 17 18 18 18 18 19 20 20 19 20 21 21 22 23 23 23 24 25 25 26 27 30 32 30 31 32 34 34 40 40 38 38 38 36 34 34 34 34 34 37 38 34 33 32 34 32 33 34 34 34 35 36 36 37 37 38 42 44 44 46 46 51 53 58 77 78 73 70 67 62 57 64 61 64 57 63 65 69 66 63 63 60 58 59 54 51 51 51 53 56 51 50 49 46 47 44 46 45 45 43 44 44 43 41 40 38 38 38 36 37 35 37 37 37 37 38 36 34 35 35 35 35 35 35 35 34 35 35 35 34 34 36 34 33 34 32 32 35 34 34 34 37 32 34 33 32 32 32 31 31 30 31 30 30 30 29 30 30 31 31 32 30 30 32 32 33 34 34 35 37 37 37 36 39 38 38 38 37 39 42 45 46 44 41 40 40 39 38 38 39 40 39 41 43 41 39 38 39 39 36 35 32 32 29 27 27 27 26 24 24 24 24 24 24 24 23 23 24 23 25 24 25 25 26 28 28 26 27 28 28 25 24 26 24 24 23 26 25 25 25 25 28 30 31 31 30 32 33 31 29 29 31 30 35 37 37 37 35 34 31 29 29 27 26 27 27 26 26 25 25 24 23 22 22 21 20 21 20 21 22 22 21 22 24 26 27 27 24 22 20 19 20 18 18 19 19 20 20 21 22 18 18 18 16 17 18 17 19 17 17 16 17 16 17 16 16 15 15 15 15 14 13 15 13 13 12 12 12 12 12 11 11 11 11 11 11 10 11 10 10 10 10 10 9 10 9 9 10 9 9 9 9 9 9 9 9 9 8 9 9 8 9 9 8 8 8 8 8 9 8 8 8 8 9 8 8 8 8 8 7 8 8 8 8 7 8 8 8 8 8 8 7 8 7 0 
7 6 6 7 6 6 7 7 7 7 7 6 7 7 6 7 6 7 7 7 7 6 7 6 7 7 7 7 6 6 7 7 7 7 7 7 7 7 7 7 7 7 8 6 8 7 8 7 7 7 7 7 8 8 7 7 8 8 8 8 7 7 7 8 8 8 7 7 8 8 8 8 8 8 7 8 8 8 8 8 8 8 8 8 9 8 9 8 8 8 8 8 9 8 9 8 9 8 8 9 8 9 9 9 9 10 9 9 9 9 9 9 9 9 9 9 10 9 9 9 9 11 9 10 10 10 10 10 10 11 10 11 10 10 10 10 10 11 10 10 11 11 11 11 11 11 11 12 12 11 11 12 12 12 13 12 12 12 13 13 13 12 13 13 13 13 13 13 14 13 13 15 14 14 13 14 14 14 14 15 15 14 14 15 14 15 15 14 15 15 16 16 16 16 16 15 16 16 16 16 17 18 17 18 18 18 18 17 18 18 19 20 20 20 20 21 21 21 23 22 22 23 24 25 27 27 30 32 33 35 35 37 39 42 43 40 37 34 36 34 36 35 34 35 35 34 33 32 32 35 34 33 34 34 34 37 36 36 37 36 39 44 44 46 46 48 50 52 57 65 71 67 67 65 66 67 69 62 62 59 60 62 67 67 64 64 60 61 56 54 53 51 51 53 57 50 51 52 51 48 47 44 45 42 43 44 41 42 40 40 39 38 37 37 36 36 36 37 37 37 40 37 36 38 37 37 34 35 36 36 35 34 36 37 36 36 38 34 34 35 33 34 34 34 33 35 34 33 32 32 31 33 32 30 30 30 31 31 29 30 30 30 30 30 31 32 31 31 33 33 34 34 34 37 37 38 37 37 38 38 38 37 38 40 43 44 43 41 40 37 37 38 39 36 38 38 39 39 40 41 38 38 38 37 34 34 31 30 28 28 27 25 26 25 25 25 24 23 24 23 23 25 24 24 24 25 25 26 26 27 27 27 29 29 26 25 25 24 24 26 27 25 27 26 25 27 29 30 30 27 28 30 32 29 29 30 31 33 37 38 37 36 35 33 32 28 27 27 27 26 27 26 24 26 25 25 24 23 22 21 21 21 20 22 22 21 22 23 25 27 24 25 23 22 20 20 19 18 19 18 17 19 22 22 22 20 17 18 17 17 17 17 18 17 17 16 16 16 16 15 15 16 14 14 13 14 14 13 12 13 12 12 12 12 11 11 11 11 11 11 11 11 10 10 10 10 9 10 10 10 9 10 10 9 9 10 9 9 9 9 9 9 8 8 8 8 9 9 9 8 8 8 8 8 7 8 8 8 8 8 7 8 7 8 7 8 7 8 8 8 8 7 8 7 8 7 7 8 7 0 
6 6 7 7 6 6 6 6 7 7 7 6 6 6 6 7 6 6 7 7 7 6 6 6 7 7 7 6 6 7 6 7 7 7 7 7 7 7 6 7 6 7 7 7 7 7 7 7 8 7 7 7 7 7 7 7 7 8 8 7 8 8 8 8 8 8 8 8 7 8 8 8 8 8 8 7 8 8 8 8 8 8 8 8 8 8 8 8 8 9 8 9 9 8 9 9 9 9 8 8 9 9 9 8 9 9 9 9 9 9 9 9 9 9 9 10 10 9 10 9 9 10 9 10 10 10 10 10 10 10 10 10 10 11 10 10 10 11 11 11 11 11 11 11 11 11 12 12 11 12 11 12 12 11 11 12 12 12 12 12 12 13 13 13 13 12 13 13 14 13 14 13 13 13 13 13 13 14 14 13 14 14 15 15 15 14 15 15 15 15 16 15 16 16 16 17 15 16 16 17 17 16 17 16 17 17 18 19 18 19 18 20 19 20 21 20 21 20 21 21 21 22 23 25 25 28 31 32 32 33 35 35 45 44 46 37 36 33 33 33 34 34 38 36 34 35 33 34 33 35 34 33 32 32 35 35 36 36 36 38 38 40 44 45 46 47 50 53 55 58 65 63 61 64 64 66 65 62 61 60 59 61 64 68 67 65 61 57 55 57 52 50 51 54 57 53 55 55 53 51 50 46 45 43 43 42 41 40 39 39 40 40 39 36 37 39 37 38 37 38 36 40 38 38 38 36 38 36 38 36 36 36 36 37 36 35 35 35 37 34 34 34 34 34 35 33 31 33 34 32 32 32 32 30 31 31 30 29 29 29 29 30 30 29 31 31 32 32 32 33 33 34 36 36 37 38 38 38 38 37 38 39 39 39 41 42 42 41 39 37 36 37 37 37 37 37 38 38 40 39 37 37 37 35 32 33 31 28 30 27 25 27 25 25 23 24 23 23 24 24 23 24 24 25 23 24 26 28 27 27 27 27 29 28 27 26 25 25 24 23 25 26 27 26 26 28 27 29 28 27 28 33 30 29 28 29 32 35 39 36 35 33 32 30 31 30 28 27 28 26 25 25 25 24 24 26 26 23 23 22 22 21 22 22 21 22 22 23 25 25 24 23 23 22 19 19 18 17 18 19 19 19 20 22 22 19 18 18 18 17 17 18 18 17 16 17 16 17 17 16 16 15 15 15 13 13 13 13 13 12 12 12 12 11 11 11 11 11 11 10 10 10 10 10 9 10 10 10 10 9 9 9 9 9 9 9 9 9 9 8 9 9 9 8 8 9 8 9 8 9 8 9 9 8 8 9 8 8 8 8 8 8 8 8 8 7 7 8 8 8 7 8 8 8 8 8 8 7 7 0 
7 7 6 7 6 6 6 6 7 6 6 6 7 7 6 7 6 7 7 7 7 6 7 7 7 7 7 7 7 7 7 6 7 7 7 8 7 7 7 7 7 7 8 7 7 7 7 7 7 7 7 8 7 7 7 8 7 7 7 7 8 8 7 7 8 8 7 8 8 7 8 8 8 8 8 8 8 8 8 8 8 8 8 8 8 8 9 8 8 8 8 9 9 8 8 8 8 9 8 9 9 9 9 9 8 9 9 9 9 9 9 9 9 9 9 10 9 9 9 10 10 10 10 10 11 9 10 10 10 10 11 11 10 10 10 11 10 11 10 11 11 11 11 11 11 12 11 12 11 12 12 11 12 12 12 12 12 12 12 12 11 13 12 12 12 13 12 12 14 13 13 13 13 13 13 15 13 14 14 14 14 14 14 13 15 15 14 15 15 14 15 16 15 16 15 17 16 16 16 16 16 16 16 17 17 17 16 18 17 18 18 19 18 20 20 20 20 20 21 21 22 23 22 24 27 29 30 29 32 33 36 39 42 49 43 40 33 32 31 32 33 34 36 36 33 33 34 34 33 34 33 35 32 32 33 35 36 37 36 35 40 40 41 43 44 47 49 50 53 54 56 59 60 61 60 60 59 62 58 57 57 57 58 64 65 70 62 58 55 56 54 50 53 52 54 53 53 55 57 56 55 50 47 45 42 41 41 40 39 40 38 40 38 39 39 37 37 38 38 36 37 39 37 40 39 37 36 37 38 37 37 36 37 37 35 34 36 36 36 35 37 36 36 34 34 33 34 34 35 34 33 31 32 33 31 31 31 30 29 29 29 29 31 31 31 31 32 32 33 33 32 35 37 37 35 37 39 40 37 40 42 44 39 39 38 44 44 41 38 37 35 36 35 35 35 38 37 38 37 38 37 37 35 39 32 30 30 28 28 27 26 25 26 23 24 23 24 23 23 23 24 25 25 24 24 26 24 26 26 27 27 29 29 28 27 25 26 24 24 24 24 25 25 25 27 29 28 29 27 27 29 28 28 29 29 30 32 35 37 34 34 31 31 31 30 29 29 28 28 27 28 26 24 25 24 25 24 22 22 22 21 21 21 22 21 21 22 22 23 25 25 23 22 22 20 20 19 19 18 20 19 18 22 21 21 18 17 17 17 17 17 18 17 17 16 16 15 15 16 15 14 14 15 14 14 13 14 13 13 13 12 11 12 11 11 11 11 11 11 10 10 10 9 10 10 10 10 9 10 10 10 9 10 10 10 9 9 9 9 8 9 9 9 9 9 9 9 9 8 9 8 8 8 8 8 8 8 8 8 7 7 8 8 8 8 7 8 8 8 7 7 7 8 8 7 8 7 7 8 0 
6 7 6 6 6 6 7 6 6 7 6 6 6 7 7 6 6 7 6 6 6 7 7 7 7 7 6 6 7 7 7 7 7 7 7 6 8 7 7 7 7 7 7 7 7 7 7 7 7 7 8 7 8 7 8 7 7 7 8 7 7 7 8 7 8 7 8 8 7 7 7 8 7 8 8 8 8 8 8 7 9 8 8 8 8 8 8 8 8 8 8 9 8 8 9 9 9 8 9 8 9 9 9 8 9 9 9 9 9 10 9 9 9 9 9 10 9 9 10 10 9 10 10 10 10 10 10 9 10 10 10 10 11 10 10 11 11 10 10 11 11 10 11 12 11 12 11 11 12 12 11 12 11 12 12 12 12 12 13 12 13 11 12 12 12 12 13 13 13 13 13 13 13 13 14 13 13 13 13 14 15 14 14 15 14 15 15 15 14 13 15 15 15 15 15 15 16 16 16 15 15 16 15 17 16 16 18 18 17 17 19 18 18 19 18 19 20 21 20 22 21 22 23 25 27 27 28 29 31 32 33 37 44 50 46 39 32 30 30 31 34 36 36 34 36 33 33 34 33 32 32 32 32 32 34 33 35 35 36 37 38 42 42 42 44 46 46 49 52 51 51 54 56 55 56 56 56 57 57 58 57 54 56 57 61 69 67 60 56 56 53 51 50 50 51 50 49 51 53 57 56 53 49 47 44 43 42 42 41 40 39 38 38 40 40 38 38 39 40 39 38 40 40 41 41 40 39 37 38 39 38 36 37 37 37 36 36 37 37 36 38 37 35 35 36 34 34 33 35 34 35 31 32 31 31 31 31 30 29 29 29 30 30 30 32 31 32 32 33 34 35 34 37 38 38 37 36 37 39 39 42 43 42 39 40 42 40 39 38 35 33 34 33 32 34 34 34 35 35 37 35 34 34 36 31 31 29 28 28 27 26 26 25 25 24 24 24 23 23 23 23 24 25 24 25 26 26 26 27 26 27 28 29 28 25 25 25 25 25 23 24 24 24 27 28 27 26 27 26 27 30 29 29 28 30 32 36 36 35 35 32 31 33 30 29 29 28 32 30 27 28 26 26 26 27 24 25 23 23 21 22 22 20 21 21 22 23 23 23 23 25 25 23 23 22 19 18 19 19 18 19 20 20 20 20 18 17 17 17 17 17 18 16 17 16 16 16 15 16 14 15 15 15 14 14 14 13 13 12 13 12 12 11 11 11 10 11 11 10 11 10 10 9 10 9 10 10 9 10 10 10 9 9 9 9 9 9 9 9 9 9 9 9 9 8 8 9 8 8 9 8 8 9 9 8 8 8 8 8 8 8 8 8 8 8 8 8 7 7 7 8 8 8 8 7 8 7 7 7 0 
6 6 6 6 6 6 6 6 6 7 6 6 7 7 6 6 6 7 7 7 7 6 7 6 7 6 7 7 7 7 7 7 7 6 7 7 7 7 8 7 7 7 7 7 7 7 7 7 7 7 7 8 7 7 7 7 8 8 7 7 8 7 8 7 7 8 8 9 7 8 7 7 8 8 8 8 7 8 8 8 8 8 7 7 8 8 8 8 8 8 8 9 9 8 9 8 9 8 8 9 8 9 8 8 9 9 8 9 9 9 10 8 10 9 9 9 9 10 10 10 9 10 10 10 9 10 10 11 10 10 10 10 10 10 10 10 11 11 10 10 10 11 11 11 11 11 11 12 11 12 11 12 11 12 12 11 12 12 12 12 11 12 12 12 13 12 12 12 12 14 13 13 13 13 13 13 13 13 13 13 12 14 14 14 14 14 14 15 14 14 16 15 15 15 16 16 16 16 16 16 17 16 16 17 16 17 17 18 18 17 18 18 18 18 18 19 19 21 21 20 22 23 22 24 26 26 28 27 30 31 32 37 47 46 41 39 33 30 30 30 32 33 32 34 32 31 31 31 32 32 30 32 32 32 34 33 36 36 35 36 37 40 41 43 44 43 43 46 50 51 47 51 52 51 54 56 53 57 60 56 57 56 55 58 66 70 62 62 58 57 56 53 49 49 48 47 47 49 50 51 53 52 50 49 48 45 43 41 41 39 38 39 40 40 38 37 39 40 40 38 41 41 44 43 41 40 38 41 39 40 40 40 40 37 37 37 37 38 38 37 41 38 38 37 36 37 35 35 34 32 33 32 31 30 30 30 29 29 31 31 29 29 31 30 31 31 32 33 33 35 37 34 35 36 37 36 38 41 40 43 42 42 44 42 42 42 41 38 37 36 33 33 32 33 32 32 33 33 33 36 35 34 32 30 31 31 28 26 26 26 26 26 25 24 24 24 24 24 23 23 24 25 23 25 25 25 26 26 26 28 30 31 29 27 25 24 24 24 23 23 23 24 25 26 26 26 26 25 26 26 29 28 30 27 28 35 34 34 31 30 31 31 32 32 29 31 29 30 30 28 28 28 26 26 25 24 23 23 23 22 23 22 22 22 23 23 24 22 23 23 26 28 23 22 20 19 19 18 19 19 19 19 19 20 19 18 19 18 18 17 17 17 18 17 17 15 16 15 15 15 15 15 14 13 14 13 12 13 13 12 12 12 11 12 11 11 11 12 11 10 10 10 10 10 10 10 10 10 10 10 9 9 9 9 9 9 9 9 9 9 8 9 9 8 8 8 8 8 8 8 8 8 8 8 8 8 8 8 8 9 9 8 8 8 8 8 8 8 7 8 7 8 7 7 7 8 7 7 8 0 
6 6 7 6 7 7 6 7 7 6 7 7 6 6 7 6 7 7 7 6 7 6 7 6 7 7 7 7 6 7 7 6 7 7 7 7 7 7 6 7 7 7 7 7 7 7 7 7 7 7 7 7 7 7 7 7 7 7 8 8 7 8 7 7 8 8 8 8 7 7 8 8 8 8 8 8 7 8 8 8 8 9 8 8 8 8 8 8 9 8 8 8 8 8 9 9 9 9 9 9 9 9 9 9 9 8 9 8 9 9 9 9 9 9 10 9 9 9 9 10 9 9 10 10 10 9 10 10 10 10 10 10 10 10 10 11 11 10 10 11 10 10 10 11 11 11 10 11 11 11 11 11 12 12 12 12 12 12 12 12 12 12 12 12 12 12 13 13 12 13 13 13 13 13 13 13 13 13 13 14 13 13 14 14 14 14 14 14 15 14 14 14 15 15 15 15 15 16 15 15 16 16 15 16 16 17 16 16 18 17 18 18 19 17 19 19 19 19 20 21 22 22 23 24 25 26 28 27 29 29 33 36 45 49 42 34 34 29 31 32 31 31 32 32 31 31 30 29 31 32 31 31 32 33 33 33 35 36 33 33 36 37 40 38 39 40 43 43 49 47 49 49 49 49 50 53 51 52 55 53 57 55 56 61 68 73 61 65 64 62 60 55 52 49 47 46 46 47 48 48 47 50 47 48 47 47 44 45 43 41 38 38 42 40 38 38 39 39 41 40 44 42 43 44 43 41 41 42 41 41 43 41 40 39 38 38 37 39 38 39 39 37 37 36 35 35 33 34 33 31 32 32 30 32 30 30 30 30 30 30 29 30 30 30 32 32 33 34 34 35 34 36 35 35 35 39 40 40 43 41 42 41 42 42 41 40 40 38 35 35 32 32 31 30 31 33 30 31 32 33 34 34 32 31 29 30 28 27 26 26 25 25 25 25 24 23 24 25 24 25 25 25 25 26 25 26 25 28 27 30 31 31 30 26 24 24 25 23 24 24 24 24 24 25 25 24 25 23 24 27 26 26 27 26 34 33 30 30 29 30 30 30 30 31 30 29 27 28 30 31 28 27 26 26 25 25 24 23 24 22 22 22 23 23 25 24 25 26 23 23 27 25 23 21 21 19 18 18 19 20 19 19 18 20 20 19 17 17 17 17 17 17 18 17 17 16 15 15 15 15 15 15 14 14 14 13 13 13 12 11 12 11 11 11 11 10 10 11 10 11 10 9 11 10 10 10 11 9 10 10 10 9 9 9 10 9 9 9 9 9 9 9 8 9 8 9 8 9 8 8 8 8 8 8 9 8 8 8 8 8 8 8 7 7 8 8 7 7 8 7 8 7 8 8 7 7 7 7 8 0 
6 6 7 6 6 6 6 6 6 7 6 6 7 6 6 7 7 7 7 7 7 6 7 7 7 7 7 6 7 6 7 7 6 7 7 7 8 7 7 7 7 7 7 7 8 7 8 7 7 7 7 7 7 8 7 7 7 7 7 8 8 8 7 8 7 8 7 7 8 8 7 7 7 8 8 8 8 8 8 8 8 8 8 8 7 8 8 8 8 8 8 8 8 8 9 8 8 8 9 9 9 8 9 8 9 9 8 8 9 9 9 10 10 9 9 10 9 9 9 10 10 9 10 9 9 10 10 10 10 10 10 10 10 11 10 10 10 10 11 11 10 10 11 11 10 11 11 12 11 12 11 11 10 11 11 11 12 12 12 11 12 11 12 12 12 12 12 12 13 12 12 13 13 13 13 13 13 13 13 13 14 14 14 14 14 13 14 15 14 14 14 14 15 15 16 16 16 16 16 16 16 16 15 16 16 16 17 17 17 16 17 18 17 18 19 18 19 20 20 20 21 22 23 24 25 26 25 26 28 29 32 37 41 44 43 36 35 34 34 31 32 29 31 29 30 30 30 31 30 31 31 31 32 33 31 33 34 35 33 33 34 36 36 36 38 39 39 41 44 47 48 47 45 49 48 51 51 51 53 53 54 54 55 60 71 74 70 70 68 71 67 58 54 51 50 47 46 46 46 45 46 48 46 46 48 47 45 45 42 41 41 41 39 40 41 41 40 40 41 42 45 44 44 44 44 43 40 43 40 40 41 42 42 40 38 38 37 38 38 38 36 36 39 36 37 36 32 33 31 32 31 31 31 31 30 30 30 30 30 30 30 30 30 31 32 32 33 33 34 33 34 35 34 35 35 39 41 40 42 42 41 38 37 39 38 38 37 36 33 33 32 31 30 31 30 30 31 30 31 31 32 33 31 31 29 29 29 28 27 25 25 25 26 25 24 24 24 25 24 24 24 25 26 24 26 26 25 27 28 28 32 32 28 26 24 24 23 22 24 24 23 23 25 24 25 24 24 23 24 25 25 24 28 31 32 30 31 30 31 30 30 28 30 31 30 32 29 31 30 29 29 27 27 25 26 24 24 23 23 24 23 22 22 23 25 25 26 26 25 27 25 23 23 22 20 19 19 20 19 19 19 19 19 20 20 18 17 18 17 17 16 17 18 16 16 16 16 15 14 14 14 14 14 13 13 12 13 13 12 12 12 12 11 11 11 11 10 11 11 11 10 10 10 10 10 10 10 10 9 9 9 10 9 10 9 9 9 9 9 9 9 9 9 9 8 9 8 9 9 8 8 8 8 8 8 8 8 7 8 8 7 8 7 8 8 7 8 8 8 7 7 7 7 7 8 7 7 7 7 0 
6 6 6 6 6 6 6 6 6 6 6 7 7 6 7 6 6 6 7 7 7 7 7 7 7 7 7 6 7 7 7 7 7 7 7 7 7 7 7 7 7 7 8 8 7 7 7 7 7 7 7 7 7 7 7 7 7 7 7 7 7 7 8 7 7 8 7 8 7 7 7 8 8 7 8 7 8 8 8 8 7 8 8 7 8 7 8 8 8 8 8 8 8 8 8 8 8 8 8 8 8 9 8 10 9 9 9 9 9 9 9 9 9 9 9 9 10 9 9 9 9 10 10 10 9 10 10 10 10 10 10 10 10 10 10 10 10 10 10 10 11 10 10 11 11 11 10 11 11 10 10 11 12 12 11 11 13 12 11 11 12 12 12 12 12 12 13 13 12 12 13 13 12 12 13 12 12 12 13 13 14 14 13 14 14 13 14 13 14 14 15 14 14 15 15 15 15 15 15 16 16 16 16 16 16 16 16 17 18 17 16 18 18 19 18 18 18 20 19 20 21 22 22 22 22 24 25 27 27 29 32 34 36 36 43 40 35 35 34 34 34 32 32 30 28 31 31 30 30 30 31 31 31 32 31 33 34 33 33 32 34 35 36 36 35 37 38 38 41 45 44 46 46 48 47 50 49 47 49 48 50 53 55 56 64 74 72 70 71 73 75 67 59 55 53 50 48 45 46 46 44 46 46 46 47 43 45 46 44 42 40 40 40 40 42 42 44 41 43 42 43 43 44 45 43 43 41 41 40 40 40 40 40 40 38 38 41 37 37 38 37 35 35 36 35 34 34 33 33 33 32 31 30 30 31 30 30 31 30 30 31 30 30 31 31 31 32 35 34 33 35 36 35 35 38 40 41 43 43 42 40 38 37 37 39 37 37 35 31 32 31 30 30 31 29 30 29 31 31 31 31 30 30 30 28 28 28 27 26 25 24 26 24 25 23 25 23 24 25 26 25 25 24 24 25 27 27 28 30 29 29 32 28 26 23 23 23 23 24 23 23 26 25 24 23 22 23 23 24 23 24 24 29 32 30 30 30 32 30 33 31 29 30 28 30 30 30 34 32 29 29 27 27 25 25 24 24 23 22 23 23 24 22 23 25 25 25 23 24 23 23 22 23 23 21 20 21 20 19 19 20 19 18 20 22 19 18 18 18 17 18 18 19 17 17 16 16 15 15 14 14 14 13 14 13 13 13 12 12 12 12 11 11 11 11 11 11 10 10 11 10 10 10 10 10 10 10 9 10 9 11 9 9 10 10 9 9 10 9 9 9 8 9 9 8 9 9 8 8 8 8 8 8 7 8 8 8 8 8 8 8 8 8 8 8 8 8 8 8 7 7 8 8 7 8 7 8 7 8 0 
6 6 8 6 7 6 6 7 7 7 7 7 6 6 6 7 7 6 7 6 7 6 6 7 6 6 7 7 6 7 6 7 7 7 7 7 7 7 7 7 7 7 7 7 6 7 7 7 8 6 7 7 7 8 8 7 7 7 7 7 7 8 7 7 7 7 8 8 8 7 7 7 7 8 8 8 7 8 8 7 8 8 8 8 8 8 8 8 8 8 8 8 8 9 8 8 9 8 9 9 8 9 8 8 9 9 8 9 9 9 9 9 9 9 9 9 9 9 9 9 10 10 10 9 9 9 10 10 9 10 10 10 10 10 10 10 10 10 10 11 10 11 11 10 11 11 10 11 11 11 11 11 11 11 11 11 11 10 12 12 12 11 12 12 12 13 12 12 12 13 12 12 13 13 13 13 13 13 13 13 14 13 13 14 13 13 14 13 14 14 15 15 15 14 15 15 15 15 15 15 14 16 15 16 16 16 16 17 17 17 17 18 17 18 19 18 19 19 19 20 20 22 22 22 22 23 25 26 28 28 30 33 33 32 36 39 39 39 35 34 32 32 32 32 30 31 31 31 31 30 29 31 31 30 30 32 32 34 34 34 34 33 34 34 34 38 36 37 40 41 42 43 43 45 47 47 47 46 47 48 47 46 49 52 56 59 63 62 64 69 78 72 71 63 56 54 50 47 48 47 47 46 49 45 44 44 44 47 43 43 42 42 41 41 43 44 45 44 44 44 45 46 42 46 44 45 42 41 40 39 39 40 40 42 40 39 40 39 36 35 36 36 34 35 34 34 32 32 32 32 32 31 32 29 30 29 30 31 31 31 30 30 29 29 30 31 30 32 33 34 34 35 37 37 40 40 39 40 42 39 38 38 36 36 35 36 34 34 32 32 30 31 31 30 30 31 30 30 30 30 32 30 30 31 30 29 29 27 26 25 25 26 26 25 25 24 24 23 25 27 25 24 24 25 26 26 29 29 30 31 29 30 29 26 25 24 23 23 22 23 24 23 24 24 23 22 22 23 24 23 24 26 28 27 27 25 28 29 30 35 34 33 31 29 28 29 29 30 33 31 29 29 27 25 25 24 23 24 23 24 24 24 23 22 24 26 24 23 23 21 22 22 21 21 21 20 20 20 19 20 20 20 18 20 20 19 18 17 17 17 17 18 17 17 15 15 16 15 14 15 14 14 12 12 13 13 12 12 11 12 11 11 11 10 11 11 11 10 10 11 9 10 9 10 9 10 9 10 10 9 10 9 9 9 9 9 9 9 9 9 9 9 8 9 8 8 8 8 8 8 8 8 8 9 7 8 8 8 8 8 8 8 8 8 8 8 8 8 7 7 7 7 7 8 7 7 7 7 7 0 
6 7 6 6 7 7 6 6 7 6 6 6 6 7 7 6 6 7 6 6 7 6 6 7 7 6 6 7 7 7 7 7 7 7 7 7 6 7 6 7 7 6 7 7 7 7 7 8 7 7 7 7 7 7 7 7 7 7 7 8 7 7 7 7 8 7 7 8 8 8 8 8 8 8 8 8 8 8 8 7 8 7 8 9 7 8 8 8 8 8 9 8 8 8 9 9 8 8 8 8 9 8 9 9 8 8 8 9 8 9 8 9 9 9 9 9 9 10 10 9 9 10 10 9 10 10 9 10 10 9 10 10 10 9 10 10 10 10 10 10 10 10 10 10 10 11 11 11 11 11 11 11 10 10 12 12 11 11 12 12 11 12 12 11 11 12 12 12 13 12 12 13 12 13 13 14 13 12 13 12 13 14 13 14 13 13 15 13 14 14 14 14 13 14 15 15 14 14 15 15 14 15 16 15 17 17 17 16 16 16 17 17 18 18 18 18 18 19 18 19 20 21 21 22 23 22 25 25 25 27 30 32 32 31 32 36 37 37 32 33 32 34 31 32 32 32 31 32 32 32 30 30 30 30 31 31 32 32 33 33 31 31 34 34 35 35 36 37 38 39 42 40 42 43 46 48 46 46 46 44 45 46 44 47 50 50 52 55 58 63 72 74 73 70 60 55 54 51 50 49 48 47 47 42 45 46 44 46 47 44 41 42 42 44 48 46 45 45 46 47 48 46 46 46 47 47 42 41 42 39 40 39 39 41 38 40 39 37 36 35 35 34 37 33 35 33 34 33 33 32 30 32 31 30 31 29 30 31 30 30 30 29 30 29 30 32 31 32 34 36 35 37 36 39 39 38 37 38 39 38 38 35 35 34 35 34 33 32 32 30 31 31 31 30 29 30 29 30 30 31 31 32 30 31 27 29 27 26 27 25 25 27 28 26 25 24 25 24 27 27 26 25 25 25 25 27 27 31 31 30 32 30 27 24 24 23 22 22 23 23 24 24 24 23 24 24 24 23 25 25 25 25 25 24 24 24 24 24 28 29 33 35 35 31 30 29 29 32 30 30 29 28 29 27 25 25 24 23 22 22 22 22 23 22 25 25 25 23 21 21 21 20 21 21 20 20 20 20 20 21 21 19 18 18 19 19 18 18 17 17 17 15 17 16 16 16 15 15 15 14 15 14 13 13 13 12 12 12 11 11 12 11 10 11 11 11 11 10 10 11 10 10 10 10 10 10 10 10 9 9 9 9 10 9 9 9 9 9 9 9 9 8 8 9 8 9 8 8 8 8 9 8 8 9 9 8 8 9 8 8 7 8 8 8 8 8 8 8 8 8 8 7 8 8 7 7 8 8 8 0 
6 6 6 6 6 7 6 6 6 6 7 6 6 7 7 6 8 7 7 7 6 7 6 6 7 7 7 6 7 7 7 7 6 6 6 6 7 7 7 7 7 7 7 7 7 7 7 7 7 7 8 7 8 7 7 8 7 7 7 7 7 8 7 8 7 7 7 8 7 7 7 8 8 8 7 7 7 8 8 8 8 8 8 9 7 8 8 8 8 8 8 8 9 8 8 8 8 8 9 8 9 9 9 9 9 9 9 9 9 9 9 9 9 9 9 9 9 9 9 9 9 10 10 9 10 9 10 9 10 9 10 10 10 10 10 10 10 10 10 10 11 11 10 10 11 10 11 11 11 10 11 11 11 11 12 11 11 11 11 11 11 12 12 12 12 11 12 12 12 12 12 13 12 12 13 12 13 13 13 13 13 13 13 13 13 13 13 14 14 14 13 14 14 15 15 15 15 15 15 15 14 15 15 15 16 16 16 15 16 17 17 16 17 16 17 18 19 19 19 19 20 20 21 23 22 23 24 25 26 27 30 32 31 31 33 35 37 32 31 31 32 32 33 33 31 32 30 31 32 31 30 30 29 30 28 30 31 31 31 31 32 31 31 32 34 35 33 35 36 39 39 39 40 41 44 44 47 43 46 43 42 44 44 45 46 47 49 49 51 56 65 64 67 72 65 64 58 54 53 53 50 52 46 44 46 46 44 45 49 46 46 42 42 47 48 46 48 47 48 49 48 45 47 44 43 46 43 42 41 40 40 40 39 40 38 38 38 37 37 34 34 35 36 33 34 33 33 32 32 33 32 33 32 31 31 31 31 31 32 31 30 31 29 30 31 30 32 32 35 36 36 36 36 38 37 37 36 37 38 36 38 34 35 36 36 34 33 33 30 30 32 31 30 31 29 29 30 29 28 31 30 30 31 31 29 28 27 27 29 27 26 26 26 28 25 25 26 25 27 27 26 26 25 26 24 26 28 30 31 29 29 27 27 24 23 23 24 23 24 24 25 24 23 23 23 24 25 22 22 24 24 23 24 23 23 23 24 24 26 25 28 31 34 32 31 30 31 33 30 30 31 30 28 26 25 25 23 23 24 23 22 24 23 24 25 26 24 23 21 21 22 21 19 20 21 20 20 20 19 21 19 19 18 20 19 19 19 19 18 17 17 16 17 16 15 15 16 15 14 13 14 14 13 13 13 12 12 11 12 11 11 11 11 10 11 11 11 11 10 10 10 10 10 9 10 9 10 9 9 9 9 9 9 9 9 9 9 9 9 9 9 8 9 9 9 8 8 9 7 8 8 8 7 8 9 8 8 8 8 7 8 8 8 8 8 8 9 8 7 8 7 7 7 7 7 7 7 8 7 0 
6 6 6 7 7 6 6 6 6 6 6 6 6 7 7 6 6 6 6 7 7 6 7 7 7 6 6 7 7 7 7 6 7 6 7 7 7 7 7 7 7 7 7 7 7 7 7 7 8 7 7 7 7 7 7 7 8 7 7 7 7 6 7 7 7 7 8 7 7 7 8 8 7 7 8 8 9 8 7 8 8 8 8 8 8 8 8 8 8 8 8 8 9 8 8 8 8 8 8 8 9 8 9 8 9 9 8 9 9 8 10 8 9 9 9 9 9 9 8 9 10 10 9 9 10 10 10 9 10 10 10 10 10 10 10 10 10 10 9 10 10 11 11 10 10 11 11 10 11 10 12 11 11 11 11 11 12 12 11 12 11 11 11 12 11 12 13 12 12 13 11 12 12 12 13 13 12 13 12 13 13 14 13 13 13 13 14 14 14 15 14 14 15 14 14 14 15 14 15 14 15 15 15 15 15 16 16 17 16 16 17 16 16 17 17 18 18 19 19 19 20 20 20 23 24 25 25 24 26 27 28 31 31 32 33 34 32 31 31 33 32 33 31 34 32 32 31 32 32 33 32 30 29 28 28 30 30 30 31 31 31 32 31 33 31 32 32 34 36 36 37 40 41 41 42 44 45 45 44 45 43 42 43 41 42 45 45 46 48 51 53 58 60 63 67 66 61 57 57 55 53 52 48 47 45 43 44 45 46 49 48 45 45 46 48 50 52 49 51 51 49 48 47 46 45 45 46 44 40 40 40 40 40 42 39 39 37 37 36 36 36 36 34 35 34 33 34 32 33 32 32 31 32 32 30 31 30 32 31 31 31 31 30 30 32 33 35 36 36 36 35 35 34 33 35 35 36 37 37 37 37 34 35 35 34 34 32 31 32 33 32 31 31 30 30 29 30 28 28 30 31 30 31 31 30 29 27 26 26 26 25 26 26 25 25 25 24 25 25 25 26 26 25 28 26 28 30 29 31 29 28 28 27 25 25 24 23 23 24 26 25 25 25 24 25 23 24 24 26 24 24 24 24 23 23 24 24 25 25 25 26 28 32 33 32 32 32 32 33 33 32 32 30 26 26 25 24 24 24 23 23 24 24 26 24 26 25 23 21 21 22 20 19 20 21 21 21 20 21 21 20 18 18 17 19 19 18 17 18 17 15 16 16 16 16 14 15 14 14 14 13 13 13 14 12 13 12 12 12 11 11 11 11 11 11 11 10 11 10 9 10 10 10 10 9 9 10 9 10 9 9 9 9 10 9 9 9 9 9 9 9 9 9 8 9 8 9 7 8 9 8 8 8 8 9 8 8 8 8 8 7 8 8 7 7 7 8 8 8 8 8 8 8 7 8 7 7 7 7 0 
6 6 6 6 6 7 6 6 7 6 6 6 6 7 7 6 6 6 7 7 7 7 7 7 6 7 7 7 7 7 6 7 6 7 6 7 7 7 7 7 7 7 7 7 7 7 7 7 7 7 7 7 7 7 7 7 7 8 7 7 7 7 7 8 7 8 8 7 8 7 8 8 7 8 8 7 8 8 7 7 8 8 8 8 8 7 7 8 8 8 8 8 8 8 8 9 8 9 8 8 9 8 8 9 9 9 9 9 9 9 9 9 8 9 9 9 9 9 9 9 9 9 9 9 10 10 10 10 10 9 10 9 10 10 10 10 10 10 10 10 11 10 10 11 10 11 10 10 10 11 10 11 11 11 11 11 11 12 11 11 11 10 12 12 12 12 12 12 12 12 12 13 12 13 13 13 12 13 13 13 13 13 13 13 14 13 13 14 13 14 13 13 14 14 14 14 14 15 15 14 15 14 15 15 15 16 16 17 16 16 16 16 16 17 17 17 18 19 18 19 20 23 24 23 25 25 26 27 26 27 28 32 32 32 33 34 34 29 27 29 33 29 30 30 30 30 32 32 33 34 33 30 29 30 30 29 30 30 30 29 30 30 30 29 31 32 33 35 35 35 36 37 38 43 44 44 42 42 43 43 44 44 42 43 41 43 44 45 47 48 53 54 53 59 59 66 64 61 58 62 59 54 49 46 44 44 44 46 49 51 50 48 48 49 49 50 53 51 51 51 53 50 46 48 46 47 46 46 44 40 41 40 41 38 41 40 38 37 35 36 36 36 36 36 35 35 35 35 35 34 33 33 35 32 32 31 31 31 34 30 30 31 30 32 34 33 34 34 37 36 35 35 32 34 35 36 37 35 36 34 33 35 31 34 34 33 32 33 33 32 32 31 32 32 31 30 29 30 30 30 32 31 32 31 31 28 28 27 26 26 26 27 27 26 25 25 26 27 27 26 26 26 25 27 28 30 31 31 31 30 29 27 26 25 24 23 25 25 25 25 25 25 25 25 25 24 24 27 24 24 24 25 24 24 24 25 25 25 26 26 28 28 31 35 34 37 33 34 31 32 31 29 29 28 26 25 24 24 23 23 23 22 24 24 24 22 23 23 23 21 23 21 20 20 20 20 20 21 20 20 19 18 18 18 19 19 17 17 17 16 15 16 17 15 15 15 14 15 14 14 13 13 12 12 13 12 11 12 12 12 11 11 11 10 10 10 10 10 10 10 9 10 10 9 9 10 9 9 10 9 9 9 10 9 9 9 9 9 9 9 9 9 8 8 9 9 9 9 9 8 8 9 8 8 8 7 8 8 7 8 8 8 8 8 7 7 7 7 7 7 8 7 7 7 8 7 7 7 7 0 
6 6 7 6 7 7 6 7 6 6 6 6 7 7 6 7 6 6 6 6 6 6 7 6 7 6 6 7 7 7 7 7 7 7 7 6 7 7 7 7 7 7 7 7 6 7 7 7 7 7 7 7 7 7 6 7 7 7 7 7 7 7 7 7 7 8 7 7 7 7 8 8 8 7 7 7 8 8 8 8 8 8 8 8 7 8 8 8 8 8 8 8 8 8 9 8 8 9 8 8 8 7 8 9 9 8 9 9 9 9 9 9 9 9 8 9 9 9 9 9 9 10 9 10 9 10 9 10 10 9 10 10 10 10 10 9 10 10 10 10 10 10 10 10 10 11 10 10 11 11 10 11 11 11 11 11 12 10 11 11 11 12 12 12 11 12 12 12 12 12 13 12 12 12 13 13 12 12 13 12 13 12 13 13 14 14 14 13 13 14 13 13 13 14 15 15 14 14 14 14 15 15 14 15 15 16 15 16 16 17 16 17 16 17 18 17 19 17 18 19 21 24 23 23 25 23 26 24 25 27 28 29 29 31 33 32 31 28 27 30 30 26 30 28 30 30 30 31 31 34 34 31 30 30 30 29 29 30 30 29 29 29 29 30 30 31 33 31 33 35 36 37 38 42 44 42 42 42 43 43 46 44 44 42 41 42 43 45 46 48 50 52 53 57 57 60 62 61 59 62 61 52 50 46 43 44 47 50 54 52 50 48 47 49 50 49 53 50 50 50 50 52 46 50 50 51 51 47 44 43 41 41 43 42 41 41 40 39 39 38 39 40 37 36 38 38 35 37 36 34 35 35 34 33 34 32 30 30 32 30 31 30 30 31 32 31 33 34 34 37 36 35 33 33 35 35 36 36 35 36 37 34 33 34 34 33 33 32 33 33 32 31 31 30 30 29 28 30 29 31 31 31 30 30 28 28 30 28 25 25 27 27 25 26 25 26 28 28 28 26 26 24 26 26 27 27 30 29 30 28 27 26 27 26 25 24 25 26 27 28 26 25 27 26 27 28 29 27 25 24 25 23 24 26 25 26 26 28 29 28 28 26 30 32 37 45 34 34 33 33 30 29 29 28 27 24 24 22 23 23 23 25 25 24 23 22 22 22 21 22 22 22 22 20 20 20 20 20 20 20 19 19 18 17 17 18 18 16 17 17 16 16 15 15 16 14 14 15 14 13 14 12 13 13 12 13 12 12 11 12 12 10 11 11 10 10 10 10 10 10 10 11 10 10 10 9 9 10 10 9 9 9 9 9 9 9 9 9 9 8 9 9 9 9 8 8 8 8 8 8 8 8 8 8 8 9 8 8 8 8 8 7 8 9 7 8 7 8 8 8 7 8 7 8 7 8 7 7 7 0 
6 6 6 6 5 6 6 6 6 7 7 6 7 7 6 6 6 6 6 7 7 6 7 7 6 6 7 6 7 6 7 7 7 6 6 7 7 6 7 7 7 7 7 6 8 7 7 7 7 7 8 7 7 7 7 7 7 7 7 7 8 7 7 7 7 7 8 8 7 8 7 7 7 8 7 8 8 8 7 8 8 7 7 8 8 8 8 8 8 8 7 8 8 8 8 8 8 8 7 8 8 8 8 8 8 9 9 9 9 9 9 9 9 8 8 10 9 9 9 9 9 10 9 9 10 10 9 9 9 10 9 10 10 10 10 10 10 10 11 11 11 10 10 9 11 11 11 11 11 10 11 11 11 11 11 11 11 11 11 11 12 11 11 11 12 12 11 12 12 12 12 11 12 11 13 12 12 13 12 12 12 13 13 13 13 13 13 14 14 13 13 13 13 14 14 13 14 15 14 14 15 14 15 15 15 15 15 15 16 16 16 16 17 17 17 18 18 19 20 20 22 21 21 21 23 22 22 23 26 27 28 29 30 31 33 32 31 29 28 28 28 27 28 27 28 29 29 30 29 33 34 33 31 29 30 30 29 30 30 29 30 30 30 30 30 30 32 32 33 34 36 36 38 42 43 42 42 41 44 43 46 46 45 42 42 42 43 45 46 49 51 53 53 55 54 54 59 60 61 61 65 58 49 47 45 43 48 52 50 51 51 49 50 52 53 53 52 50 50 50 48 50 52 49 49 51 50 50 46 44 42 44 42 44 45 43 43 42 42 42 42 43 41 39 39 39 39 37 38 38 35 36 35 34 36 34 32 31 31 30 31 30 31 32 31 31 32 32 33 35 37 35 33 35 35 35 34 35 35 35 35 34 35 33 33 34 34 34 34 32 32 29 30 29 30 31 30 32 31 30 30 30 29 29 28 28 28 28 27 26 27 26 26 26 25 28 30 29 28 27 25 26 26 27 28 28 28 29 30 29 29 27 25 26 25 25 24 26 27 28 27 27 28 29 29 31 32 29 26 26 24 23 26 26 26 27 28 29 30 31 30 29 27 30 39 42 34 32 34 32 31 29 28 27 26 25 25 24 24 23 25 25 24 23 24 23 23 23 21 22 23 22 20 21 20 20 20 19 20 19 18 18 18 17 18 16 17 18 16 16 17 16 14 15 15 15 15 15 14 13 13 13 13 13 13 12 12 10 12 13 11 12 10 10 11 9 10 10 10 10 10 10 10 9 10 10 9 10 9 9 9 9 9 8 9 9 9 9 9 9 8 8 9 9 9 9 8 8 9 8 8 8 8 8 8 8 7 8 8 8 8 8 8 8 9 7 8 7 8 7 7 8 8 7 7 7 8 8 7 0 
7 6 6 6 6 7 6 6 7 6 7 6 6 6 6 6 6 7 7 6 6 6 7 7 6 6 6 7 6 6 7 7 7 7 7 7 7 7 6 7 7 7 7 7 6 7 7 7 7 7 7 7 7 8 7 7 7 8 7 7 7 7 7 7 8 7 8 8 8 7 7 8 8 7 7 7 8 8 8 8 8 8 8 8 8 8 8 8 8 8 8 8 8 8 8 8 9 8 8 9 8 8 8 9 8 8 8 9 9 9 9 9 9 9 9 9 9 8 9 8 9 10 9 9 9 9 9 10 10 10 10 9 9 9 10 10 10 10 11 9 10 11 10 10 11 10 10 11 11 11 11 10 11 10 11 11 10 11 11 11 11 11 11 11 11 12 12 12 11 12 12 11 11 12 13 13 13 13 12 13 13 13 13 13 13 13 13 13 14 13 13 14 14 13 14 13 14 14 15 14 14 14 15 14 15 15 15 15 15 16 16 16 16 16 17 17 18 19 20 20 23 22 22 21 22 22 24 23 24 26 27 29 30 30 31 30 27 27 27 28 28 27 27 26 27 28 28 29 28 30 31 33 32 29 30 29 30 28 28 29 29 29 30 29 29 31 31 31 32 32 35 35 38 41 40 42 43 44 45 44 45 45 45 45 44 43 46 47 48 50 53 53 52 52 52 57 58 58 58 61 65 63 55 54 51 48 51 54 49 52 52 51 52 54 55 52 52 50 49 49 49 47 51 47 45 46 50 51 47 43 42 44 44 46 48 49 47 47 46 45 49 45 42 43 41 44 40 41 39 39 38 36 37 37 37 34 33 31 30 31 30 31 33 32 31 31 33 31 34 33 33 35 35 34 36 34 36 34 36 35 37 35 37 35 35 34 34 34 34 31 30 29 31 29 30 29 31 30 30 31 29 30 31 30 28 28 26 27 28 28 29 28 27 25 28 28 28 28 28 27 26 26 26 26 27 28 29 29 29 28 29 28 27 26 27 27 28 28 30 27 28 28 31 31 33 33 34 28 28 24 26 25 27 28 29 31 32 35 35 37 33 32 28 29 39 38 32 32 33 34 31 30 29 29 27 25 24 24 25 23 25 24 24 24 23 22 22 22 23 24 23 21 21 21 19 21 21 19 20 19 19 18 19 18 17 19 18 18 16 17 16 17 16 15 14 14 14 14 14 13 13 12 13 12 12 12 12 12 11 11 11 11 11 11 11 10 9 10 9 10 10 9 10 10 10 10 9 10 9 8 8 9 9 9 9 9 9 9 8 8 9 8 9 8 8 8 8 8 8 8 8 8 8 8 8 8 8 7 8 8 8 8 8 7 8 8 7 8 8 7 8 8 7 7 7 7 7 7 7 0 
6 6 6 6 6 7 6 6 6 6 6 6 6 6 6 6 7 7 6 6 6 7 6 5 7 7 7 6 6 7 6 7 7 7 7 6 7 7 7 7 7 7 7 7 7 7 7 7 7 7 7 7 6 7 8 7 7 7 7 7 7 7 7 8 7 8 7 8 8 8 7 7 8 8 7 8 8 8 8 7 8 8 8 8 8 8 8 8 8 8 7 8 8 8 8 7 8 8 8 9 8 9 8 9 9 8 9 8 8 9 9 8 9 9 9 9 9 8 9 10 9 10 9 9 9 10 8 9 9 10 9 9 10 9 10 10 10 10 9 10 10 10 9 10 9 10 10 11 11 11 11 11 10 10 11 12 11 11 11 11 10 12 11 11 11 11 12 12 12 12 11 11 13 12 11 12 12 12 12 13 13 12 13 13 12 12 13 13 14 14 13 13 14 13 14 14 13 14 14 15 14 14 15 15 14 16 16 16 15 17 16 16 17 17 18 17 18 18 18 22 23 20 22 22 21 21 23 24 25 28 26 29 31 31 31 30 27 27 27 27 26 26 26 27 24 26 28 26 28 28 29 30 31 29 29 29 29 28 29 29 29 28 28 29 28 29 31 30 32 31 33 34 36 41 41 42 44 44 44 44 43 45 46 46 48 46 46 48 51 52 51 53 53 53 54 53 53 56 57 57 62 66 56 54 53 52 55 53 50 53 55 54 56 56 53 52 51 52 48 49 49 47 46 45 42 46 48 53 45 43 43 48 48 46 48 49 50 51 48 47 47 46 44 45 42 42 42 40 39 37 37 38 37 37 36 35 32 33 31 32 31 33 32 34 31 31 31 32 32 32 34 34 35 37 38 37 36 36 34 37 37 34 34 35 35 33 34 32 32 32 31 30 29 30 30 30 29 28 29 29 30 30 33 31 28 28 27 28 26 29 26 28 27 27 28 29 29 28 27 27 27 26 26 27 28 27 28 30 32 30 29 27 27 27 27 27 28 29 28 30 32 33 36 38 37 33 35 29 29 27 25 26 28 30 32 34 37 40 42 43 37 36 33 33 36 38 33 31 34 32 31 29 29 29 26 24 24 25 24 25 24 23 23 22 22 22 22 22 23 23 21 22 21 20 18 21 20 20 20 19 19 19 19 17 18 16 17 16 17 17 16 15 15 15 14 14 15 15 13 13 14 13 13 12 12 12 11 12 11 11 11 11 11 11 10 11 10 11 9 11 9 10 10 10 10 9 9 10 9 9 9 9 9 9 9 9 9 8 9 9 9 9 9 8 8 9 8 8 8 8 8 8 8 8 8 8 8 8 8 8 7 8 8 7 7 8 8 8 7 7 7 7 8 7 8 8 7 7 7 0 
6 6 6 6 6 6 6 6 6 6 6 7 7 6 6 6 6 6 6 6 7 6 6 6 7 6 6 7 7 6 7 7 6 7 7 7 7 7 7 7 7 7 6 7 7 7 7 8 7 7 8 7 7 7 8 7 7 7 7 7 7 7 7 8 8 7 7 7 7 7 8 8 8 8 8 7 7 7 7 8 7 8 8 7 8 8 8 8 8 8 8 8 7 8 8 8 9 8 8 8 8 8 8 8 8 9 8 8 8 8 9 9 8 9 9 9 9 9 9 9 10 9 9 9 9 9 10 10 9 9 9 10 10 9 9 10 10 9 10 10 10 11 10 10 10 10 11 10 10 11 11 10 10 10 10 10 10 12 11 11 11 10 11 11 12 11 12 12 12 11 12 12 12 11 11 12 12 12 12 12 12 12 13 12 13 13 12 12 13 13 13 13 13 13 13 13 14 13 14 14 15 14 15 15 15 15 15 16 15 16 16 16 16 17 17 17 17 19 19 22 20 21 21 21 21 21 22 23 25 26 27 31 34 32 29 28 29 28 28 26 27 26 26 24 25 26 25 26 27 26 27 29 30 28 30 28 27 27 27 28 29 29 28 28 28 30 30 30 29 31 32 36 36 37 42 41 42 43 43 44 42 47 46 46 49 47 48 49 52 57 55 57 55 54 52 51 51 53 58 54 56 64 62 57 56 53 51 52 52 53 54 56 59 55 55 55 53 51 53 50 47 47 48 46 45 46 48 53 50 45 47 51 49 47 48 48 48 49 49 46 47 43 42 43 42 40 40 38 38 36 37 37 38 35 35 36 34 33 34 34 31 33 32 33 33 31 33 33 33 32 33 34 35 37 38 38 35 36 33 35 35 35 34 34 34 35 35 34 32 31 31 29 29 29 29 29 30 30 30 30 30 32 31 30 30 29 27 27 28 27 28 28 27 27 28 28 30 28 28 30 29 27 27 26 27 29 29 30 32 30 28 28 28 29 29 29 29 29 32 34 35 38 41 39 35 33 34 31 31 29 27 25 29 30 32 37 41 50 51 45 38 37 39 35 42 35 34 31 31 30 30 30 29 28 26 26 27 26 25 25 25 23 22 21 21 21 23 25 23 24 22 22 21 20 21 20 19 19 18 17 19 19 19 18 18 17 17 17 17 16 16 15 16 16 13 14 14 14 14 14 14 13 13 12 12 13 12 11 11 11 11 11 11 11 11 10 10 9 10 10 9 10 10 10 10 9 10 9 9 9 9 9 9 9 9 8 8 8 9 8 8 9 8 9 8 8 7 8 8 8 8 8 8 8 8 8 8 8 7 8 8 8 8 7 8 8 7 8 8 7 8 7 8 7 7 7 7 8 7 0 
6 6 6 6 6 6 6 7 6 7 6 6 6 7 7 7 7 7 7 6 7 7 7 7 6 7 6 7 6 7 7 7 7 6 7 7 7 7 7 6 7 7 7 6 6 7 7 7 6 7 7 7 7 7 7 7 7 7 7 7 8 7 7 7 7 7 8 7 7 7 7 7 7 7 7 8 7 8 7 8 7 8 7 7 8 8 8 8 8 8 8 8 9 8 8 8 7 9 9 8 8 8 8 8 8 9 8 8 8 8 9 9 9 9 9 9 9 9 9 9 9 9 9 9 9 9 9 9 9 10 10 9 9 9 10 10 10 10 10 10 10 10 10 10 10 10 10 11 10 11 11 10 11 11 11 11 10 11 10 11 11 12 11 11 12 11 11 12 12 11 12 11 12 13 11 12 12 12 13 12 11 13 13 13 12 13 13 13 13 13 14 14 13 14 13 13 13 14 14 14 14 14 14 15 15 15 15 15 15 16 16 17 16 16 16 17 21 18 19 20 20 20 23 22 22 21 22 22 24 25 28 34 36 30 28 27 28 29 28 26 25 27 27 25 25 24 24 25 26 27 27 27 28 28 29 28 26 27 27 27 27 29 30 29 29 28 29 29 31 32 32 32 35 35 39 39 39 41 43 44 44 45 44 47 49 49 52 51 53 57 58 63 58 53 52 52 50 56 59 54 56 61 60 58 56 56 54 53 53 54 54 58 60 58 56 56 54 52 55 50 48 47 45 45 46 47 46 51 54 50 52 51 48 47 46 44 45 47 46 45 41 40 40 39 39 37 37 38 37 35 37 35 35 34 36 38 36 35 35 36 32 32 33 32 33 33 32 33 32 32 32 34 35 37 38 37 37 36 35 35 36 34 34 33 33 34 35 33 32 32 30 31 29 29 29 29 30 30 30 31 29 31 30 31 30 29 29 28 28 28 28 28 27 28 27 28 29 30 31 32 29 28 25 27 28 28 30 32 31 30 29 30 31 29 30 29 30 31 35 37 39 44 41 38 36 36 37 32 31 28 24 26 27 30 31 36 40 45 51 48 42 39 41 42 45 38 35 32 31 30 29 30 30 28 26 24 25 25 25 24 23 23 24 23 22 21 23 22 24 23 22 24 21 20 21 21 20 20 18 18 19 18 18 19 18 17 17 16 16 15 15 14 15 15 14 14 14 13 12 14 13 14 13 12 13 12 12 11 11 11 10 11 11 11 10 10 11 10 10 10 9 10 10 9 9 9 10 10 9 10 9 10 9 10 9 9 9 8 9 8 8 8 8 9 8 8 9 8 7 8 7 8 9 8 8 8 8 8 7 8 8 8 8 8 7 7 8 8 7 7 8 8 8 8 7 7 8 7 7 0 
6 6 6 6 6 6 7 6 6 6 6 7 7 6 7 7 6 7 7 7 7 7 7 6 6 6 7 6 6 7 6 7 6 7 6 7 7 7 6 7 6 6 6 6 6 7 7 6 7 7 7 8 7 7 7 7 7 7 7 7 7 7 7 8 7 8 8 7 8 7 7 8 7 8 8 8 7 8 7 7 8 8 8 7 8 8 8 9 8 8 8 8 8 8 9 8 8 7 8 8 9 8 8 8 9 8 9 8 8 9 9 9 9 9 9 8 8 9 8 8 9 9 9 10 9 9 9 9 10 10 9 10 10 10 10 10 10 10 10 10 10 10 10 10 10 9 10 10 10 10 11 10 10 11 11 10 11 11 12 11 11 11 11 11 11 11 12 12 12 12 12 12 12 12 11 12 13 12 12 12 12 13 12 13 13 13 13 13 12 13 13 13 12 13 13 14 14 13 13 14 15 13 15 15 15 15 15 15 16 16 15 16 16 16 17 18 21 20 19 20 21 22 23 21 21 21 21 22 24 27 28 31 36 32 29 27 28 28 29 28 27 26 25 25 25 25 25 25 26 26 26 29 28 28 28 29 27 27 28 29 29 28 29 28 28 29 30 28 30 31 31 32 34 36 38 38 38 40 42 42 44 46 45 46 52 53 55 56 58 60 60 69 60 52 52 53 54 58 58 58 58 64 59 57 57 60 62 58 58 58 58 62 62 58 57 56 55 52 52 51 50 47 46 46 45 47 47 47 53 53 54 50 48 46 46 42 42 43 43 41 39 39 38 38 37 36 38 38 35 37 37 36 35 34 36 36 37 34 35 35 34 34 34 34 33 33 33 33 32 34 33 32 36 35 37 38 38 35 34 35 36 35 34 35 34 33 35 34 33 32 31 31 30 28 31 30 30 30 31 30 31 30 29 30 32 29 28 29 28 28 29 30 27 29 28 30 31 32 34 31 28 29 27 27 27 29 31 34 31 31 29 29 31 32 32 30 34 36 39 42 46 44 40 35 37 37 37 35 29 28 27 26 26 28 33 33 36 38 40 44 48 45 46 45 44 39 37 34 31 30 31 30 30 27 26 23 23 24 25 24 23 23 23 22 23 23 23 22 23 23 23 23 23 21 22 21 19 19 18 18 19 20 19 19 17 18 16 16 16 15 16 15 15 16 15 14 14 14 14 13 13 13 12 13 13 13 11 11 12 12 11 11 11 10 10 10 10 11 10 10 10 9 10 10 10 10 9 9 9 9 9 9 9 9 9 9 8 8 9 9 9 9 8 8 8 8 8 9 8 8 8 8 8 8 8 8 8 8 8 8 8 8 8 8 8 8 8 8 7 8 7 8 7 8 7 7 8 7 7 0 
6 7 6 6 6 6 6 6 7 6 6 6 6 6 7 6 6 7 6 7 6 6 6 6 6 7 6 6 7 7 6 7 7 7 7 7 6 7 6 7 7 7 8 7 7 8 8 7 7 7 7 6 6 7 8 7 7 7 7 8 7 7 7 7 7 7 7 7 7 7 7 7 8 8 8 7 7 8 8 8 8 8 7 8 8 9 8 8 8 8 8 8 8 7 8 8 8 8 8 8 8 8 8 9 9 9 7 9 8 9 10 9 9 9 9 9 8 9 8 9 9 10 9 9 9 9 9 9 10 9 10 9 10 10 9 10 10 10 10 9 10 10 10 10 10 10 10 11 10 10 10 11 11 10 11 10 10 11 11 11 12 11 11 12 12 11 11 11 11 12 12 11 12 12 12 12 12 12 13 12 12 12 12 12 13 12 12 13 13 12 13 13 14 13 13 13 13 14 14 14 14 14 15 15 15 15 15 15 15 15 16 16 16 16 18 18 19 18 18 20 22 22 22 22 21 22 22 22 24 24 26 27 34 29 30 29 27 28 29 28 28 27 26 26 26 26 26 26 26 25 26 26 28 28 29 29 29 28 28 30 28 29 29 27 28 29 29 29 29 30 29 31 34 34 36 40 38 40 38 39 44 46 47 47 49 53 56 61 64 68 70 69 60 56 54 52 52 56 55 60 60 62 60 57 56 59 65 62 60 62 60 63 60 58 56 57 54 53 54 49 51 48 46 46 47 47 47 46 49 52 49 46 44 44 40 39 40 40 41 37 37 36 37 36 37 36 36 36 35 36 36 36 35 35 36 35 36 35 34 34 35 34 35 33 34 34 34 33 32 33 33 34 34 35 33 37 38 35 34 34 36 35 35 35 35 35 34 35 32 31 31 31 30 30 32 29 31 29 29 31 30 31 32 32 32 30 30 31 30 30 29 29 30 30 30 30 33 33 31 29 29 29 28 29 27 29 31 34 32 32 33 30 31 32 33 33 36 37 44 47 47 43 39 35 37 35 39 37 30 27 28 27 25 27 27 29 30 32 32 37 44 46 48 45 41 41 40 37 36 30 30 28 28 25 24 24 24 25 25 22 22 22 22 23 23 22 24 24 23 23 23 25 22 22 21 20 18 18 19 19 18 19 17 18 18 18 18 17 16 15 16 16 15 14 15 14 14 14 14 13 14 12 13 13 12 12 12 12 11 12 10 11 10 11 10 10 10 10 10 10 10 10 10 9 9 9 9 9 9 9 9 10 8 9 8 8 9 9 9 8 7 9 8 8 8 8 8 9 8 8 8 8 8 8 8 8 7 8 8 8 9 8 7 8 8 8 8 8 7 7 7 8 8 8 7 7 7 7 8 0 
6 6 6 6 6 6 7 7 6 6 6 6 6 6 6 7 7 6 7 7 7 7 6 6 6 6 6 7 6 7 7 7 7 7 6 6 7 6 7 7 7 7 7 7 7 7 7 7 7 7 7 7 7 7 7 7 7 8 7 7 6 8 7 7 7 7 8 7 8 8 7 8 7 7 7 8 7 7 8 8 8 7 8 8 8 8 7 8 8 8 8 8 8 8 7 8 8 8 8 8 8 8 8 9 8 8 8 8 9 9 9 9 8 9 9 8 9 9 9 8 9 10 9 9 9 9 9 9 9 9 10 9 9 9 10 10 10 9 9 9 10 10 10 10 9 10 10 10 10 10 10 11 11 10 10 11 10 11 11 10 11 11 11 11 12 12 11 12 11 11 11 11 12 10 13 11 12 13 11 12 12 12 12 12 13 12 12 12 13 13 13 13 14 13 13 13 13 13 13 14 14 14 15 14 15 15 14 16 15 15 16 16 16 17 16 17 19 18 19 21 22 21 20 21 21 21 20 22 23 24 25 26 27 31 29 29 29 29 27 25 28 28 26 28 25 26 27 26 27 26 27 26 29 29 27 28 27 29 30 28 30 30 29 28 29 28 29 29 29 29 30 32 34 34 33 36 37 38 38 39 39 43 44 47 47 50 53 63 74 82 75 69 58 55 56 52 54 53 58 62 60 66 65 59 57 57 61 62 65 64 61 57 59 59 57 58 56 51 53 49 50 49 47 48 46 47 46 45 45 46 45 45 41 39 38 38 36 36 35 38 36 37 36 37 37 36 35 36 34 35 36 33 34 34 35 34 36 36 36 33 35 34 36 36 35 34 34 34 33 33 32 32 33 32 34 38 37 34 32 35 36 35 35 35 35 35 37 33 32 32 32 31 31 30 30 30 30 31 32 31 31 32 33 32 31 31 31 32 32 30 28 29 31 31 34 32 34 34 30 28 30 28 31 31 31 34 35 37 33 32 31 30 33 34 34 36 41 42 45 49 46 39 35 34 36 35 36 38 35 30 29 29 26 27 25 26 28 28 33 35 37 42 49 45 39 46 48 41 35 32 29 28 27 25 24 23 25 24 24 23 23 22 21 21 22 23 24 23 23 23 24 24 22 21 21 19 19 18 19 19 18 19 20 18 17 17 18 17 17 16 16 16 16 16 16 15 16 14 15 14 13 13 13 12 13 12 12 12 12 11 11 10 11 10 10 10 10 10 10 10 10 9 9 9 9 10 9 9 9 10 10 9 9 9 9 9 9 9 9 9 9 8 8 9 8 8 8 9 8 8 8 8 8 8 7 8 8 8 8 7 7 7 8 7 7 8 7 8 8 7 8 7 7 7 7 7 7 7 7 0 
6 6 6 7 6 6 6 7 7 7 6 6 6 6 7 6 7 7 7 7 6 6 7 6 6 7 7 7 7 7 7 7 7 7 6 7 7 7 6 6 7 7 7 7 7 7 6 7 7 7 8 7 7 7 6 7 6 7 7 7 7 7 7 7 8 7 7 7 7 7 8 8 7 8 7 8 7 7 8 8 8 7 8 8 8 8 7 8 8 8 8 8 9 9 8 8 8 8 8 8 8 9 9 9 9 9 9 8 9 8 8 8 8 8 9 8 9 8 9 8 9 9 9 9 9 10 9 9 9 9 9 9 9 9 10 10 10 10 9 10 9 10 9 10 11 10 10 10 10 11 10 11 10 10 11 11 11 11 10 10 11 12 11 11 11 11 10 11 11 11 12 11 12 12 11 12 12 12 12 12 12 13 12 12 12 13 13 12 13 13 13 13 13 13 13 13 13 14 13 13 13 13 14 14 14 14 15 14 14 16 16 15 15 15 17 16 18 21 19 21 22 20 19 21 22 20 21 21 21 23 24 26 27 30 29 29 30 28 27 27 27 26 27 27 26 28 28 27 27 27 27 27 29 28 28 29 29 29 30 33 30 29 31 30 29 30 29 29 28 31 29 30 32 34 34 35 36 38 37 38 38 41 41 45 45 51 53 61 75 93 76 68 57 54 53 52 54 57 63 61 60 64 61 57 57 55 62 62 65 65 63 59 58 60 59 56 54 56 56 52 52 51 51 50 47 47 46 45 43 42 41 41 39 37 37 36 36 36 36 34 36 36 35 37 37 35 35 35 34 36 34 34 34 35 34 35 34 36 33 33 34 35 35 34 35 35 33 34 34 32 33 34 33 33 35 37 38 36 34 34 35 35 33 34 35 34 35 33 32 32 31 31 32 30 32 31 31 32 32 32 32 31 32 33 31 31 29 32 29 30 30 29 31 33 33 36 35 33 30 28 27 28 31 30 32 33 35 39 36 34 33 33 34 35 38 39 45 45 47 48 42 36 34 36 35 36 37 37 42 36 35 31 29 27 25 27 30 31 36 40 39 45 50 44 39 49 51 43 34 32 28 26 26 25 23 24 25 25 24 24 22 23 21 21 21 21 22 21 23 24 23 25 22 20 21 20 19 19 19 19 19 18 18 17 18 18 17 17 17 17 16 17 17 16 16 14 13 14 14 14 13 13 13 12 13 11 12 11 12 11 11 11 11 10 11 10 10 10 10 10 9 9 10 9 9 9 9 9 10 9 9 9 8 9 9 9 9 9 9 8 8 8 8 9 8 8 8 8 9 8 8 8 7 8 8 8 7 8 7 8 8 8 8 7 8 8 8 8 7 7 8 7 7 8 7 7 7 7 7 0 
6 6 6 6 6 6 6 6 5 6 6 6 6 6 6 7 6 7 7 6 6 7 7 6 6 7 6 7 7 6 6 6 6 7 7 7 7 7 7 7 7 6 7 7 6 7 7 7 6 7 7 7 7 7 6 7 7 7 8 7 8 7 7 7 7 7 7 7 7 8 8 7 8 7 7 7 7 7 7 7 8 7 8 7 8 8 8 8 8 8 7 7 8 8 8 8 9 8 8 8 8 8 8 8 8 8 8 8 8 8 8 8 9 8 9 9 8 9 8 9 9 9 9 8 9 9 9 9 9 9 9 9 10 9 9 9 9 10 10 10 9 10 10 10 10 9 11 10 10 10 11 10 10 11 11 10 11 10 11 10 10 11 11 11 11 11 11 11 11 11 11 12 11 12 11 12 13 12 12 12 12 11 12 12 12 12 12 12 13 14 13 13 13 13 13 13 13 14 13 14 13 14 14 14 14 14 15 15 15 15 15 15 15 16 15 18 17 18 19 19 22 20 19 20 20 19 20 22 22 22 26 27 30 30 31 30 30 27 27 25 27 26 25 27 27 26 26 26 26 27 28 27 27 28 29 29 29 29 28 30 30 30 31 29 29 29 29 28 28 29 31 31 32 33 34 34 35 36 38 38 39 41 42 44 46 48 51 56 68 84 84 66 59 56 54 54 54 61 63 60 59 58 58 61 56 56 61 61 65 68 62 64 63 61 57 58 56 54 54 52 53 52 51 49 48 46 46 44 41 40 40 40 39 38 36 37 36 34 38 35 35 36 35 36 37 35 36 35 33 36 34 33 33 34 34 34 33 35 35 34 33 33 35 33 34 36 36 35 33 34 32 33 33 34 34 38 37 35 35 34 34 35 34 35 34 34 35 34 33 31 32 31 30 31 31 31 33 31 32 32 31 31 33 32 31 32 33 31 31 29 28 30 31 32 34 32 31 30 27 26 28 28 28 29 30 31 32 34 37 34 34 34 36 37 41 44 43 42 48 45 40 35 33 33 33 34 37 37 47 40 42 35 32 29 28 30 35 40 48 53 56 57 53 50 53 48 54 38 32 28 27 28 26 24 24 25 23 23 22 23 23 24 23 21 22 21 21 22 23 22 26 25 24 21 21 21 19 19 18 18 18 18 18 18 19 19 18 17 18 17 17 17 17 17 16 15 14 14 14 14 13 13 13 12 13 12 12 12 11 11 11 11 11 10 11 10 10 11 10 10 10 10 10 9 9 9 9 9 9 9 9 9 9 8 8 8 9 8 8 8 9 8 8 9 8 8 8 8 8 8 9 8 8 8 8 8 7 8 8 8 7 7 8 7 8 7 7 7 7 7 7 7 8 7 7 7 7 7 7 0 
6 6 6 6 6 6 6 7 6 6 6 6 6 6 6 6 7 6 6 7 6 7 7 7 7 6 7 7 6 6 7 7 7 6 7 6 7 7 7 6 7 7 7 7 7 7 7 7 6 6 7 8 7 7 6 7 8 7 8 7 7 7 7 8 7 8 8 7 7 7 7 8 7 7 8 8 8 8 8 7 7 8 8 8 8 8 7 8 8 8 8 8 8 8 8 8 8 8 8 8 8 8 8 8 8 8 8 8 8 9 8 9 8 9 8 8 8 9 9 9 8 9 8 8 9 9 9 10 9 9 9 9 9 9 10 8 10 9 9 10 10 9 10 10 10 10 10 10 10 10 10 10 11 11 11 11 10 10 11 11 10 10 11 11 11 11 12 11 11 11 11 11 11 12 11 12 12 12 12 11 13 12 12 12 12 12 12 12 12 12 12 13 12 13 13 13 13 13 14 14 14 14 14 14 14 14 15 14 15 15 15 15 16 15 16 16 18 18 19 20 21 21 20 20 20 20 21 22 23 23 24 28 30 30 30 31 30 28 28 26 26 25 25 25 24 24 25 25 25 27 26 27 26 28 31 29 29 28 30 32 31 30 30 29 29 29 28 28 30 29 31 31 31 32 32 34 34 35 38 38 38 40 41 43 45 48 50 54 59 70 99 75 64 63 61 55 61 71 70 65 59 57 55 60 56 56 63 62 61 61 62 66 64 63 62 61 58 57 55 53 55 55 51 51 50 48 45 43 43 40 40 38 39 38 36 36 35 36 36 35 35 37 36 35 35 34 35 34 34 37 36 34 33 32 32 34 37 34 34 33 34 33 34 35 36 37 39 37 35 34 34 34 34 34 36 39 39 38 36 34 34 35 34 35 35 35 34 32 32 32 31 31 31 31 32 33 31 32 31 31 33 34 33 33 32 32 31 30 31 30 31 29 30 32 32 31 31 29 28 28 27 28 28 30 30 31 33 34 35 36 38 39 38 37 43 48 43 42 43 41 36 35 34 34 34 34 37 37 48 48 48 48 42 34 31 35 42 57 67 68 67 65 59 53 66 57 56 39 29 28 27 25 25 25 25 24 25 25 23 22 23 24 22 20 22 20 21 21 21 21 29 25 24 21 22 20 20 19 19 17 17 18 19 18 19 21 19 17 17 16 16 16 16 16 16 15 14 15 15 13 13 13 13 12 12 12 11 11 12 11 11 11 10 10 10 10 10 10 10 10 9 9 9 9 9 10 9 9 9 9 9 9 9 9 9 8 9 9 8 8 9 8 9 9 8 8 8 8 8 7 8 8 8 8 8 8 8 8 8 8 8 8 7 8 8 8 8 8 7 7 8 7 8 7 7 7 7 7 7 0 
6 6 6 6 6 6 7 6 7 7 6 7 6 7 6 7 7 6 7 7 6 7 6 6 7 7 7 7 7 6 7 7 6 6 6 6 7 6 7 7 7 7 7 6 7 7 7 7 7 7 7 7 7 7 7 7 7 7 7 7 7 7 7 7 7 8 7 8 7 7 7 8 8 8 8 7 7 8 7 8 7 7 8 8 7 8 8 8 8 8 8 8 8 8 8 8 7 8 8 8 8 8 8 9 9 8 9 9 8 8 9 8 8 8 9 8 9 8 9 9 9 9 9 9 9 8 8 9 9 9 9 9 10 9 10 10 10 10 9 9 9 10 10 10 10 10 10 10 10 10 10 10 10 10 10 11 11 10 10 11 10 10 10 11 10 12 11 11 11 11 11 11 12 12 11 11 11 11 11 12 13 12 12 11 13 13 13 12 13 13 12 13 13 13 13 14 12 14 14 13 13 14 13 15 13 14 14 14 15 15 15 15 15 15 16 16 17 17 17 19 19 20 21 20 21 22 23 24 24 24 25 26 30 31 33 30 28 28 27 25 25 23 22 24 23 24 24 25 26 26 28 26 27 27 30 29 28 29 29 30 30 32 29 29 32 30 28 30 30 31 30 30 31 32 32 34 34 36 36 37 39 39 40 42 45 48 48 51 58 69 95 81 68 73 68 60 69 78 67 68 62 58 57 58 57 57 64 62 60 61 60 65 66 68 67 65 64 58 54 57 58 56 55 51 49 47 47 45 43 41 40 39 38 39 37 36 34 34 35 35 35 34 35 36 36 36 36 36 38 37 37 36 35 34 34 35 35 34 32 33 33 32 34 37 38 38 38 33 35 35 35 35 35 35 36 38 39 36 36 35 35 36 34 37 35 34 32 33 32 32 31 32 33 32 32 31 32 35 31 32 33 34 33 32 32 33 33 31 33 32 31 28 31 33 31 29 31 28 28 27 27 27 29 29 31 31 32 35 35 38 41 43 44 42 49 49 45 45 45 39 35 34 32 35 34 34 40 39 44 47 48 51 53 46 39 50 60 68 72 69 61 55 60 67 64 56 47 35 31 28 28 26 24 25 25 24 26 26 23 24 26 23 24 23 22 20 22 22 22 23 25 24 22 21 20 21 20 19 18 18 18 18 19 18 19 19 18 18 17 16 15 16 16 16 16 15 15 13 14 14 15 12 13 12 11 13 11 12 12 11 10 11 10 10 10 10 10 10 10 9 10 10 10 9 9 9 9 9 9 9 9 9 8 9 8 8 8 8 9 8 8 9 9 9 8 8 9 9 8 8 8 8 7 8 7 8 8 8 8 7 8 8 8 8 8 8 7 7 8 7 7 8 7 7 7 7 7 7 7 0 
6 6 6 7 6 6 6 6 6 6 6 7 6 6 6 6 6 7 6 7 6 7 6 6 7 7 7 7 6 6 6 6 7 7 6 6 6 6 6 6 7 7 7 7 8 7 7 7 7 7 7 7 7 7 7 7 7 7 8 7 8 7 7 7 8 7 7 7 7 7 8 7 7 7 8 8 8 8 7 7 8 7 7 8 7 8 8 7 8 8 8 8 8 8 9 8 8 8 8 8 8 9 9 8 8 8 9 8 9 8 8 8 8 9 8 8 8 8 8 9 9 9 9 9 8 9 9 9 10 9 9 9 9 9 9 10 9 9 9 9 9 10 10 10 10 10 9 10 11 10 10 10 10 9 10 10 11 10 11 11 12 10 11 11 11 12 11 10 11 11 11 11 11 11 12 11 12 11 11 12 11 12 12 12 11 11 12 13 12 11 12 13 12 13 13 13 12 13 13 13 14 13 14 13 14 15 14 14 15 15 14 14 16 16 16 15 16 17 17 17 19 20 21 22 21 23 24 25 24 24 25 26 29 33 34 29 29 28 26 25 24 23 22 23 23 23 25 25 26 27 27 26 26 29 30 28 28 29 29 29 28 30 30 30 29 32 29 29 30 30 32 32 31 31 32 33 33 34 36 36 37 38 41 41 42 46 48 50 53 63 83 92 77 75 69 67 72 77 65 68 66 57 58 60 60 59 67 62 58 62 61 61 64 67 66 68 71 63 62 59 57 55 53 51 49 49 48 44 43 41 41 39 38 38 37 36 36 35 35 35 35 36 37 35 36 37 38 37 39 37 38 36 35 34 35 36 35 34 32 32 32 33 34 35 37 36 36 35 33 33 33 33 34 36 34 34 35 36 37 38 36 36 34 36 34 34 32 33 33 32 32 32 31 33 33 31 32 33 33 35 32 34 34 31 32 33 34 35 33 35 33 32 33 34 33 31 30 28 28 28 30 29 31 31 31 33 35 38 40 42 45 42 43 41 48 49 45 49 43 37 34 31 31 31 31 35 37 38 40 42 43 48 58 55 53 65 66 66 63 51 46 45 48 56 51 41 38 31 31 37 28 25 26 26 25 26 26 25 24 23 23 23 22 23 23 24 21 22 23 25 25 24 23 22 22 22 19 20 19 19 19 19 18 20 21 20 18 18 17 16 17 17 16 16 15 15 14 14 14 14 14 13 13 12 12 12 11 12 12 11 10 11 10 10 10 10 10 10 10 9 10 10 10 9 10 10 8 9 9 9 9 9 9 8 8 9 9 8 9 9 8 9 8 8 8 8 8 9 8 8 8 8 7 8 8 8 8 7 7 8 7 7 8 8 7 8 7 7 7 8 7 8 8 7 8 7 7 7 7 0 
6 6 6 6 6 7 6 7 6 7 6 6 7 6 6 6 7 7 6 7 7 7 6 7 7 6 6 7 7 7 6 6 6 6 6 7 7 7 7 6 7 7 7 7 7 6 7 7 7 7 7 7 6 7 7 7 7 7 7 7 7 7 7 7 7 7 7 7 7 7 7 7 8 7 7 8 8 8 7 7 8 7 8 8 7 7 8 8 8 8 8 7 7 8 8 8 8 8 8 8 8 9 8 8 8 8 8 9 8 9 8 8 8 9 9 8 9 9 10 9 9 9 9 9 10 10 9 9 9 9 9 9 8 9 9 9 10 9 9 9 10 9 10 9 11 10 9 11 10 10 10 10 10 10 10 10 10 10 11 11 10 11 10 11 11 11 11 11 10 11 12 12 11 11 11 11 12 10 11 12 12 11 12 12 12 12 12 12 12 12 12 12 12 13 12 13 14 14 14 14 13 14 14 14 14 14 15 15 14 15 14 15 15 16 15 15 15 17 17 18 18 19 20 22 22 24 23 22 23 23 24 27 28 31 32 31 31 29 26 25 23 23 23 23 23 24 23 25 27 27 26 29 27 29 28 28 29 29 29 28 28 28 30 30 31 32 31 30 30 30 31 31 32 30 31 33 32 34 35 35 37 38 38 40 44 45 47 51 56 61 74 96 92 80 70 70 72 70 61 62 65 56 56 58 59 64 67 64 61 61 62 61 61 62 62 66 74 62 61 63 63 60 56 53 53 53 49 48 43 44 42 41 40 40 39 37 37 36 36 36 37 36 38 36 38 40 38 38 41 40 40 38 37 38 37 37 35 34 33 34 34 32 34 38 36 37 36 34 33 33 34 35 34 34 34 35 34 38 39 37 37 36 36 34 33 33 33 34 33 33 33 32 33 33 33 32 33 32 33 35 33 33 33 31 33 34 36 37 33 32 34 34 35 35 34 32 30 29 29 28 28 29 29 30 32 34 37 41 44 46 45 40 42 41 47 44 46 48 43 37 32 31 31 31 30 31 36 36 38 38 39 43 51 64 63 57 52 49 43 39 37 36 38 38 35 32 31 30 30 33 29 27 26 26 25 26 25 24 25 25 26 24 23 23 24 23 23 24 26 24 27 26 24 22 23 21 21 20 21 20 19 19 19 20 20 20 19 18 18 16 16 17 17 17 16 16 14 15 14 14 14 13 12 12 12 13 12 12 11 10 10 11 10 10 11 10 11 10 10 10 10 10 9 10 9 10 9 8 9 9 8 9 8 9 9 9 9 8 8 9 9 8 8 8 8 9 8 8 8 8 8 8 7 8 9 8 8 8 8 8 8 8 8 8 8 8 8 7 7 7 7 7 7 7 7 7 8 7 7 0 
6 6 7 6 7 6 7 6 6 7 6 6 6 6 6 6 6 6 6 6 6 6 6 6 7 7 6 7 6 7 6 6 6 6 6 6 7 6 6 7 7 7 7 7 7 7 6 7 7 7 7 7 7 7 7 7 7 7 7 6 7 7 7 7 7 7 8 8 7 7 7 8 7 7 8 8 7 8 8 7 8 7 7 8 8 7 7 8 8 8 7 7 8 8 8 8 8 8 8 8 8 8 8 8 8 8 8 8 8 9 8 9 8 8 9 8 9 9 8 8 9 9 8 8 8 9 9 9 9 9 9 9 8 10 9 9 10 10 10 9 10 9 10 9 10 9 10 10 10 10 10 10 10 10 10 10 11 11 11 11 10 11 10 11 12 13 10 11 11 11 11 11 12 12 11 11 11 12 12 11 12 12 12 12 12 12 13 13 12 13 13 12 13 13 12 13 13 13 12 13 14 13 14 13 14 15 14 14 14 15 14 16 15 14 15 15 15 16 17 17 18 18 19 21 22 23 24 24 23 24 25 26 27 31 33 31 30 30 28 26 23 24 23 23 24 23 25 26 27 28 29 28 30 28 30 33 29 29 29 28 30 28 29 29 33 34 31 31 31 31 33 33 33 31 30 32 33 33 34 36 36 36 39 40 41 45 47 50 54 59 76 88 95 79 66 67 69 64 60 60 63 58 58 61 64 68 68 64 64 63 64 63 65 60 62 64 75 64 66 69 67 65 66 61 58 56 51 52 50 46 45 44 43 44 40 40 38 38 37 37 38 38 39 38 40 40 40 39 42 43 44 41 38 40 38 36 36 36 34 33 33 34 34 35 37 37 37 34 32 31 34 34 34 34 34 37 36 38 38 36 36 36 36 34 35 33 31 32 33 33 32 33 34 34 35 34 35 33 32 33 34 34 34 32 33 36 36 34 32 33 33 36 38 36 31 31 32 31 31 30 29 30 29 30 33 36 40 40 42 42 42 37 38 38 40 44 41 42 41 35 31 31 29 29 29 31 32 33 36 37 36 38 44 57 53 46 42 37 36 35 35 34 34 32 32 31 29 29 30 29 30 28 26 27 26 27 25 25 25 25 26 26 25 25 26 25 23 24 24 25 28 26 24 23 23 23 22 22 20 22 20 19 19 20 21 20 19 19 18 18 17 16 17 16 15 15 15 15 14 13 14 13 13 12 13 14 13 12 11 11 10 11 10 10 10 10 10 10 10 10 9 9 9 9 8 10 9 9 8 8 9 9 9 9 9 8 8 8 9 8 8 8 8 8 8 8 8 8 8 8 7 8 8 8 8 7 7 8 8 8 7 7 8 7 7 8 7 7 8 7 7 7 7 7 7 7 7 7 7 0 
6 6 6 6 6 7 7 6 6 7 6 6 6 7 6 6 6 6 6 6 6 6 6 7 7 6 7 6 6 7 6 7 6 7 7 7 6 7 7 7 7 6 7 7 6 7 7 7 7 7 7 7 7 7 8 7 7 7 7 7 7 7 7 7 7 7 7 7 7 7 7 7 8 8 8 7 8 7 7 8 8 7 8 7 8 7 7 8 7 8 8 8 8 8 8 8 8 8 8 8 8 8 8 8 8 8 8 8 8 8 9 8 9 8 8 9 9 9 8 8 9 9 9 8 8 8 8 9 9 9 9 10 9 9 10 10 9 10 9 10 9 9 9 9 10 9 10 10 10 9 10 10 10 11 10 10 10 10 10 11 11 10 11 10 11 11 11 11 11 11 11 10 11 11 11 11 11 11 11 11 11 12 11 11 12 13 12 12 13 12 13 14 12 12 13 13 13 13 13 12 12 14 13 13 13 14 14 15 14 14 14 15 14 14 16 16 16 17 16 17 17 17 19 19 21 21 21 22 24 23 24 25 28 29 32 33 33 28 29 25 24 25 25 23 23 25 25 27 28 29 31 30 32 32 31 35 31 29 29 29 29 31 30 32 32 31 33 32 32 31 31 34 33 31 32 32 33 33 33 35 35 36 37 40 41 44 45 50 53 59 76 87 86 77 68 69 71 71 65 64 60 62 66 68 70 70 67 67 66 67 66 65 60 61 63 64 72 70 72 68 67 71 70 70 68 60 54 54 52 49 48 46 46 45 44 42 40 39 39 39 39 39 41 40 40 42 41 41 41 42 44 43 41 39 37 38 38 37 34 35 34 33 33 35 35 38 38 33 31 31 33 33 34 33 34 41 38 37 35 34 37 35 33 32 33 33 33 33 34 34 34 35 34 38 33 33 35 32 33 36 37 37 36 34 35 36 35 31 31 31 32 32 36 33 33 32 31 33 31 32 31 30 30 31 35 37 38 39 40 39 38 36 35 37 39 42 43 42 37 34 28 29 28 28 28 28 29 30 31 33 36 35 38 40 39 38 36 34 33 33 31 32 32 32 30 29 29 29 30 31 30 28 28 27 27 25 25 25 24 24 26 25 26 27 28 27 26 25 25 25 28 27 24 24 24 25 22 21 21 21 20 21 20 20 20 21 20 19 19 18 17 16 15 15 15 15 14 14 14 14 13 12 14 12 12 12 11 11 11 11 10 11 11 10 11 10 10 10 10 10 9 10 9 9 9 9 9 9 9 10 9 8 9 9 9 9 9 9 9 8 9 8 8 8 8 8 8 8 9 8 8 8 7 8 7 7 7 7 7 8 8 8 8 8 7 8 7 7 7 7 8 8 7 7 8 7 7 7 7 0 
6 6 7 6 6 6 6 6 6 7 7 7 6 7 6 6 6 7 6 6 6 6 6 6 7 7 6 7 7 7 6 6 6 6 7 6 7 7 7 7 6 7 7 7 7 6 7 7 7 7 7 7 7 7 7 7 7 7 7 7 7 7 7 7 6 7 7 7 7 7 7 8 7 7 7 7 7 8 7 7 8 8 7 7 8 8 8 8 8 8 8 8 8 7 8 8 8 8 8 8 8 8 8 8 8 9 8 8 8 8 8 8 9 9 8 8 8 8 9 8 8 9 8 8 9 9 9 10 9 10 9 9 9 9 9 9 10 9 9 10 9 9 9 9 10 10 10 9 10 10 10 11 10 11 10 10 9 9 10 10 10 11 10 11 11 11 10 11 11 11 11 11 11 11 11 11 11 12 12 10 11 12 12 12 11 12 12 12 14 13 13 12 13 12 12 12 12 13 12 12 13 13 13 13 14 13 14 14 14 14 14 14 15 14 15 15 15 16 16 16 17 18 18 19 19 21 22 23 23 23 23 25 26 29 31 32 31 33 30 27 24 24 24 25 25 27 28 28 31 32 35 34 35 35 36 34 28 29 29 29 29 30 31 32 31 29 30 31 31 29 31 32 33 31 30 31 31 33 34 34 35 36 36 37 41 44 46 49 52 58 80 84 75 68 69 77 80 75 73 67 72 70 65 72 65 65 67 66 65 66 63 64 62 61 61 62 67 69 66 63 63 70 68 68 64 63 57 51 51 50 48 49 47 45 45 45 44 40 41 43 41 42 42 43 43 44 42 42 45 45 45 49 45 45 41 40 38 39 40 38 35 35 33 34 35 34 38 36 31 31 31 32 33 33 36 37 36 35 34 36 36 37 34 34 34 34 33 33 34 34 35 35 34 34 32 34 34 35 34 37 38 37 36 37 41 38 33 32 31 32 31 32 32 33 33 33 35 33 35 33 32 30 30 31 33 34 39 36 36 37 38 34 35 35 38 39 42 38 34 32 28 27 27 28 26 27 28 28 29 31 31 33 32 33 34 35 33 31 32 31 33 33 30 29 29 29 30 31 30 30 28 28 27 27 26 26 25 26 25 25 27 27 28 31 33 33 29 27 27 28 30 28 25 24 25 23 20 22 22 23 21 23 21 21 22 22 20 19 17 18 17 16 16 16 14 14 15 13 14 14 14 13 13 13 12 12 11 11 12 12 10 11 10 10 10 10 9 10 9 9 9 9 10 9 9 9 9 9 10 8 8 9 8 9 8 9 8 9 8 9 9 8 8 8 8 8 9 8 8 7 9 8 7 8 7 8 7 8 7 8 8 8 8 8 8 7 7 8 7 7 8 7 8 7 7 7 7 7 7 0 
6 6 7 7 6 6 6 6 6 6 6 7 6 6 6 6 6 6 7 6 6 7 6 6 7 6 6 6 6 7 7 7 6 7 6 6 7 6 7 7 6 7 7 7 7 7 7 7 8 7 7 7 7 7 7 7 7 6 7 7 7 7 7 8 7 7 7 7 8 7 7 7 7 7 7 7 7 8 7 8 8 7 7 8 8 8 8 8 8 8 8 8 8 8 8 8 8 8 8 8 8 8 7 8 8 9 9 8 8 9 8 8 9 8 9 8 9 9 8 9 9 9 9 9 9 9 9 8 9 9 8 8 9 10 9 9 9 9 9 9 10 9 10 10 10 10 10 10 10 10 10 10 9 9 9 10 10 10 10 10 10 11 10 10 11 11 10 10 11 10 11 11 11 11 11 11 10 12 11 10 12 12 12 11 12 12 12 13 13 13 13 12 13 13 13 12 13 13 13 13 13 13 13 13 13 13 13 15 14 14 14 15 15 15 15 16 16 17 16 16 18 18 18 19 19 20 20 22 22 26 26 27 28 28 31 35 32 33 32 28 27 26 25 26 28 28 33 34 37 37 40 39 40 40 41 34 29 30 32 32 30 30 30 28 28 30 32 30 30 29 31 33 32 31 31 30 30 32 33 34 35 35 36 38 41 44 49 50 51 54 81 83 72 65 70 80 81 77 74 73 75 75 71 72 66 64 68 65 64 66 64 64 64 63 60 61 64 62 63 59 61 60 61 62 62 62 55 56 50 50 50 47 49 47 44 47 46 43 45 45 43 43 46 44 44 47 47 46 49 47 49 50 47 47 42 42 40 39 40 41 40 38 34 35 36 35 35 37 34 32 31 34 35 35 36 37 38 35 36 35 34 35 34 32 33 33 34 33 35 32 33 34 34 34 34 36 36 36 36 36 36 36 34 37 40 36 34 31 31 33 31 34 35 35 37 35 36 37 40 37 36 31 33 34 35 36 37 37 36 37 37 34 35 35 36 37 38 37 32 31 28 27 26 26 26 26 26 27 26 27 29 28 29 29 30 31 31 31 31 30 32 32 30 28 28 30 30 31 30 30 28 27 27 25 26 26 24 25 29 25 26 28 27 30 32 32 29 28 28 28 28 29 26 27 26 24 22 22 23 23 24 23 21 20 22 22 19 19 19 18 18 16 15 14 15 15 17 15 14 13 12 12 13 12 12 11 11 11 11 11 11 9 10 10 10 9 10 10 10 10 9 10 10 9 9 10 9 8 9 9 9 8 9 9 9 9 9 9 9 8 8 8 8 8 9 8 7 8 9 8 8 8 7 8 8 7 8 8 8 7 8 7 8 8 7 8 8 8 7 7 7 8 7 7 7 7 7 7 7 0 
6 6 6 6 6 6 6 6 6 6 6 6 6 6 6 6 6 6 6 6 6 6 7 6 7 7 6 6 7 6 6 7 7 7 6 7 7 6 7 7 7 7 7 7 7 7 7 7 7 7 7 7 7 7 7 6 7 6 7 7 7 7 8 7 7 7 7 8 7 7 8 8 8 7 7 7 7 7 7 7 7 7 8 7 8 8 7 7 8 8 8 8 8 9 8 8 8 8 8 7 8 8 8 7 8 7 8 8 8 8 8 7 9 9 8 9 9 8 8 9 8 9 8 9 9 9 8 9 9 9 9 9 8 10 10 9 9 9 9 9 10 10 9 10 9 9 9 9 9 10 10 10 10 10 10 10 10 11 10 10 10 10 11 11 10 11 10 11 10 11 10 11 10 12 11 12 12 11 11 11 11 13 11 11 12 11 12 12 13 12 14 13 12 13 12 12 12 13 13 12 13 14 13 13 14 13 14 14 14 14 14 15 14 15 15 15 16 16 16 16 17 18 18 19 19 22 24 24 24 27 27 26 27 27 30 31 31 34 31 30 28 27 26 27 27 30 30 33 35 38 42 40 43 41 40 34 30 30 31 30 30 30 29 29 28 30 31 30 31 33 32 33 33 31 30 30 31 31 32 35 34 36 38 39 39 42 48 48 49 53 70 82 82 73 73 77 75 75 73 73 70 74 73 71 70 66 65 65 64 67 66 68 67 63 63 62 58 61 59 57 58 59 59 62 63 58 53 52 51 51 55 54 54 49 48 49 50 50 50 48 47 46 48 46 48 49 48 49 50 49 51 50 48 45 43 41 40 38 41 41 41 40 36 35 38 38 35 35 34 34 34 35 34 35 38 36 35 35 37 36 35 33 33 31 31 32 32 33 34 35 34 35 35 36 36 37 38 37 36 35 35 34 35 36 36 34 35 32 31 32 33 34 33 36 38 41 41 44 44 41 35 32 32 36 40 38 41 43 39 39 35 35 33 36 36 39 37 36 31 30 26 26 27 25 26 26 25 25 25 26 26 28 28 28 28 28 29 30 30 30 31 30 29 30 29 32 32 33 29 27 28 27 28 26 25 24 23 26 26 27 25 27 25 28 28 29 29 31 27 27 27 26 27 28 25 24 22 22 23 20 20 24 22 22 21 20 19 19 18 18 17 17 15 15 15 16 16 15 14 14 13 12 12 11 12 11 11 11 11 11 10 11 10 10 9 10 10 11 9 10 9 9 9 10 8 9 9 9 9 9 9 10 9 9 9 8 9 9 8 8 8 9 8 8 9 8 8 8 8 8 8 9 8 8 8 9 7 7 7 8 7 8 7 7 8 8 7 7 7 8 7 7 7 7 7 7 7 8 7 0 
7 6 6 6 6 6 7 6 6 6 6 7 6 7 6 6 6 6 6 6 6 6 6 6 6 7 7 7 6 6 7 7 7 7 7 7 6 7 7 7 7 7 7 7 7 7 7 7 7 7 7 7 7 7 7 7 7 7 7 7 7 6 7 7 7 7 7 8 7 6 7 7 7 8 8 7 8 7 7 8 7 7 7 7 8 7 8 8 8 8 8 8 8 8 8 8 8 8 8 8 8 8 8 8 8 8 8 9 9 8 8 8 8 8 8 8 8 9 8 9 8 8 9 9 9 9 9 9 9 9 9 9 10 9 10 9 9 9 10 9 10 9 9 10 9 9 10 10 9 10 10 9 10 10 10 10 11 10 10 10 10 10 10 10 10 10 11 11 11 10 10 11 11 11 11 11 11 11 11 11 12 12 12 12 11 12 12 12 12 12 12 12 12 12 13 13 12 13 13 13 13 13 13 13 14 13 14 13 14 14 14 15 15 14 16 16 15 16 16 16 17 18 19 19 21 22 24 26 29 26 25 24 28 26 28 29 30 30 30 30 27 26 26 25 27 29 31 30 32 33 35 35 33 34 31 31 31 28 29 29 29 29 27 28 29 30 29 32 32 32 32 32 32 30 29 29 31 31 32 35 35 35 35 40 38 40 44 46 48 51 59 76 72 69 69 70 66 68 69 72 67 70 71 69 67 69 68 67 64 66 61 64 67 63 61 62 60 62 58 56 59 61 61 65 66 55 53 52 52 51 56 58 61 59 57 54 54 56 53 51 51 49 50 48 49 51 51 52 54 52 54 52 50 49 48 45 41 40 40 42 44 41 38 37 36 36 35 34 36 35 37 35 35 36 35 36 34 36 35 34 33 32 33 35 33 34 34 33 33 34 37 36 36 35 38 38 36 36 35 36 36 36 34 34 35 36 36 34 33 32 34 35 37 42 40 46 45 45 42 42 39 30 31 34 37 42 38 42 41 38 35 34 35 34 35 39 37 35 32 29 26 26 25 24 25 26 24 26 26 26 25 27 27 27 27 28 28 30 30 29 31 31 30 29 31 33 32 29 27 26 27 27 26 28 24 24 26 25 26 27 26 27 27 28 32 33 31 30 31 27 26 25 27 30 27 24 22 21 21 22 22 23 23 22 20 19 17 18 17 17 16 17 15 15 15 15 15 16 14 13 13 15 12 11 11 11 11 11 11 10 10 10 10 10 9 9 10 10 9 10 10 9 10 9 9 9 9 9 8 9 9 9 8 9 9 9 9 9 9 9 8 8 8 8 8 8 8 8 8 7 7 7 7 8 8 8 8 8 7 7 8 7 8 7 7 7 7 7 8 8 8 7 6 8 7 7 7 7 7 0 
6 6 6 7 6 6 6 6 6 6 6 7 6 6 6 6 6 7 6 7 6 6 7 6 6 7 7 6 6 6 6 7 7 7 6 6 7 7 8 7 7 7 7 7 7 6 7 7 7 7 7 7 7 7 7 7 7 7 7 7 7 7 7 7 6 7 7 7 7 7 7 7 8 8 7 7 7 8 8 8 8 7 8 7 8 7 8 8 7 8 8 8 7 8 8 8 8 8 8 8 8 8 8 8 8 8 8 8 9 8 9 8 8 9 8 8 8 8 9 9 8 8 8 8 9 8 8 9 9 10 9 9 9 9 9 9 8 9 9 9 9 9 9 10 10 9 10 10 9 10 10 10 10 10 10 10 10 10 10 10 10 10 10 11 11 10 10 10 10 11 11 11 11 11 11 11 11 11 10 11 11 11 12 11 12 12 12 12 11 11 12 12 12 13 13 12 12 13 13 13 13 12 12 12 13 13 13 13 14 14 14 15 14 14 14 14 15 16 16 16 17 18 18 20 23 24 27 27 26 26 27 25 25 27 26 29 28 30 30 31 29 28 28 26 28 29 28 30 32 33 35 31 32 32 34 29 29 29 27 29 27 27 27 29 30 31 30 31 31 32 30 31 33 30 28 29 29 30 31 34 41 37 35 38 39 40 43 47 49 49 52 60 57 60 63 63 62 64 63 66 65 63 68 66 63 63 62 61 61 62 62 63 64 64 61 63 62 61 58 61 59 62 61 70 65 55 51 55 58 56 60 59 61 62 64 61 62 62 60 55 55 53 52 52 54 54 56 58 53 56 62 57 52 53 52 50 46 44 42 44 44 42 39 39 39 37 36 36 35 36 39 38 36 36 35 36 35 35 34 32 30 32 31 35 35 37 37 33 36 38 35 35 34 35 36 35 36 35 34 36 34 36 36 36 38 38 36 37 35 35 37 39 43 46 42 46 45 41 39 43 43 32 30 31 34 43 46 42 40 37 35 38 36 34 35 41 37 32 29 27 27 25 24 24 25 24 23 24 24 24 26 25 25 27 27 27 28 29 28 30 30 30 29 31 33 33 31 29 27 27 26 27 27 27 26 25 24 26 26 27 26 27 27 28 30 33 32 32 33 28 27 28 29 30 25 23 21 21 21 22 20 22 21 20 20 18 17 18 17 17 16 16 15 15 15 16 15 13 13 12 12 14 11 12 11 11 10 11 11 10 10 10 9 10 10 10 9 10 10 10 10 9 9 9 9 9 9 9 9 9 9 9 10 8 9 9 9 8 8 9 8 8 9 8 8 8 8 8 7 8 8 8 8 8 8 8 8 8 8 8 8 8 7 8 7 7 8 7 7 8 7 8 7 7 7 7 7 7 7 0 
6 6 6 6 6 6 6 6 6 6 7 6 6 6 6 6 7 6 7 6 7 7 7 6 7 7 7 6 7 6 7 7 6 7 7 7 6 6 6 7 7 7 7 7 6 6 7 7 7 7 6 7 7 7 7 7 7 7 7 7 7 7 7 7 7 7 7 7 7 7 7 7 7 7 7 7 8 8 7 7 7 7 8 8 8 8 8 8 7 7 8 8 8 7 8 8 8 7 8 8 8 8 8 8 8 8 8 8 8 8 9 8 8 8 8 8 9 8 8 8 8 9 8 8 9 9 8 8 9 8 9 9 9 9 9 9 10 10 10 9 9 9 9 9 10 10 10 10 9 10 9 9 9 10 10 11 10 10 9 11 10 10 10 11 11 11 10 10 11 10 10 11 11 10 11 10 11 11 11 11 11 11 11 12 11 11 12 12 11 11 12 12 13 13 12 12 12 12 12 13 13 12 13 13 13 13 13 13 14 13 15 14 14 15 15 16 16 16 17 16 17 17 18 24 25 27 27 25 26 26 24 24 24 25 25 27 26 28 31 30 30 25 28 27 29 30 31 33 31 34 31 31 34 35 34 30 28 28 27 27 27 27 28 29 30 32 32 33 33 31 31 30 30 29 29 29 29 30 31 33 36 38 36 35 38 39 40 43 50 56 52 55 52 52 58 59 59 59 60 61 59 60 62 58 60 58 57 55 60 59 60 63 62 61 60 65 63 65 63 60 61 59 63 69 76 62 57 59 64 62 64 61 64 65 69 68 69 69 68 64 59 58 58 61 59 59 58 57 56 58 62 62 57 55 55 57 51 47 46 45 47 45 44 42 40 37 36 37 38 38 39 38 36 36 35 35 34 33 36 35 33 34 34 34 33 33 33 36 36 35 34 34 34 33 34 34 35 37 36 37 36 37 37 39 38 41 42 41 37 36 38 43 43 42 45 46 43 39 38 41 48 41 38 37 41 46 52 43 38 40 39 36 35 35 37 37 34 33 29 27 27 24 25 23 24 23 23 24 24 24 25 25 26 26 27 27 28 30 29 29 29 32 31 35 32 31 29 26 26 26 26 26 27 28 27 25 25 25 28 29 28 28 29 26 29 30 34 36 37 30 28 30 31 30 26 22 22 20 20 20 20 20 22 20 18 18 18 19 17 18 17 16 15 14 14 14 14 14 13 12 11 12 12 12 11 11 11 10 10 10 11 11 10 10 10 9 9 9 10 9 10 10 9 9 9 9 9 9 9 9 9 9 9 9 9 9 8 9 9 8 9 9 9 8 9 8 7 8 8 8 8 8 7 8 8 8 7 7 8 8 8 8 8 7 8 7 7 7 7 7 8 8 7 7 7 7 8 6 8 0 
6 7 6 6 6 6 6 6 6 6 6 6 6 6 7 6 7 7 7 6 7 7 6 6 6 7 7 6 8 7 6 6 6 7 7 7 6 7 6 6 7 7 7 7 7 7 7 6 6 7 6 7 7 7 8 7 7 7 7 7 8 7 7 7 7 7 7 7 7 8 7 8 7 8 7 7 7 7 7 7 7 8 8 8 7 8 7 7 8 7 8 7 7 8 8 7 8 8 8 8 8 8 8 8 8 8 8 8 8 8 8 8 8 8 8 8 8 8 8 9 9 8 8 8 8 8 9 9 8 9 9 9 9 9 10 9 9 9 9 9 10 9 9 9 9 9 10 9 9 10 10 10 10 9 10 10 10 10 9 10 10 11 10 10 10 10 11 11 11 11 11 11 11 11 11 11 11 10 11 11 11 11 11 11 12 12 12 11 12 12 12 12 13 12 12 12 13 13 12 12 12 13 13 12 13 13 14 14 14 14 14 15 14 15 15 15 15 16 16 17 18 17 21 24 24 24 25 24 24 22 21 21 22 21 23 24 25 26 30 33 30 28 28 27 29 30 34 36 37 34 34 36 37 35 33 29 29 28 26 27 26 30 29 31 31 31 32 35 32 33 30 28 27 27 27 27 29 31 30 33 35 35 34 36 38 39 41 43 47 53 51 50 50 52 56 54 55 57 58 55 56 56 60 55 55 56 57 53 55 57 58 59 61 63 64 61 64 64 63 64 63 60 65 67 79 75 66 69 72 72 68 65 67 64 65 66 67 65 69 65 64 63 66 67 64 63 62 61 64 63 61 60 59 59 59 58 57 53 51 49 49 48 45 44 40 39 39 39 39 39 42 39 35 34 36 34 32 34 35 35 33 34 33 34 33 33 33 32 34 33 33 34 35 35 35 33 35 37 37 37 37 38 40 43 44 46 43 44 38 36 41 46 42 40 41 42 39 38 37 39 46 52 53 49 51 48 53 45 39 40 40 36 33 33 34 34 34 30 28 26 24 25 23 25 23 24 25 24 24 24 25 25 26 26 27 28 28 29 29 29 30 31 32 35 31 30 27 26 26 26 26 26 26 27 28 25 26 27 30 30 28 28 29 28 31 33 36 34 35 33 31 31 32 27 24 22 20 21 19 20 19 22 22 21 21 18 19 20 18 19 16 16 16 15 14 14 13 12 12 12 11 11 12 11 10 10 11 11 11 11 10 10 10 10 10 9 10 9 10 9 9 8 9 9 9 9 9 9 9 9 9 9 9 9 9 9 9 9 9 9 9 8 8 8 8 8 8 8 8 8 8 8 8 8 8 7 7 7 8 8 8 8 8 7 8 7 8 7 7 7 8 7 7 7 7 7 7 7 7 0 
6 6 6 6 6 6 7 6 6 7 6 6 6 6 6 6 6 6 6 6 7 6 7 6 6 7 6 7 7 6 7 6 7 7 7 7 7 7 8 7 7 7 7 7 7 6 6 7 7 7 6 7 7 6 7 8 6 7 7 7 7 7 7 7 7 6 7 7 7 7 7 7 7 7 7 8 7 7 7 7 8 7 7 8 8 7 8 8 7 8 8 7 7 8 8 8 8 7 8 8 8 8 8 7 8 8 8 9 8 8 8 8 8 9 8 8 9 9 9 8 9 8 8 9 9 9 8 9 8 8 8 8 9 8 9 9 9 9 9 9 9 9 9 9 9 9 9 9 10 10 10 9 10 10 10 10 10 9 11 10 10 10 10 10 10 10 10 9 10 10 10 11 10 11 11 11 11 11 11 12 11 12 11 11 11 11 12 12 11 12 11 11 12 12 12 12 13 12 12 12 13 12 12 13 13 13 13 13 13 14 13 14 15 15 15 15 15 16 16 17 18 19 24 28 28 24 24 20 20 20 20 21 21 20 22 22 24 24 25 29 29 31 29 28 27 29 34 34 33 35 38 39 38 32 33 30 28 27 28 30 29 28 29 29 30 29 35 32 30 31 31 29 29 27 26 29 29 30 31 31 33 34 34 36 36 41 39 43 45 48 49 49 50 53 53 54 53 51 52 53 56 56 55 54 52 54 52 53 54 55 55 57 59 60 59 61 63 66 63 63 64 64 68 67 77 94 80 81 76 69 70 69 68 64 63 63 63 68 74 69 66 69 72 76 76 71 70 68 67 66 64 61 60 61 56 58 61 60 57 56 53 51 51 48 44 40 41 39 38 42 40 38 37 35 35 33 32 32 32 32 33 32 34 33 35 34 32 34 35 32 34 34 33 35 34 36 36 38 40 40 40 39 43 47 46 47 43 43 38 37 43 45 39 41 41 38 37 37 36 40 41 46 48 48 50 50 52 42 38 39 40 35 33 32 33 35 33 31 29 26 25 24 25 24 23 25 24 23 24 24 25 26 26 26 28 28 29 30 30 31 30 32 34 35 30 28 26 24 25 25 27 25 26 26 28 27 28 28 31 34 31 29 35 35 36 37 33 32 30 30 28 30 27 24 22 21 21 21 21 20 22 21 20 20 19 19 19 18 17 17 15 15 14 13 14 13 12 13 12 12 11 11 11 11 11 11 10 10 10 11 11 10 10 9 10 9 9 9 10 10 9 9 9 9 9 9 9 10 9 9 9 9 9 10 9 9 9 10 9 8 8 9 8 8 7 8 8 8 8 8 8 8 8 8 7 7 8 7 7 8 8 7 8 7 8 7 8 8 8 8 8 7 7 8 7 8 7 7 7 0 
6 6 7 6 6 6 6 6 6 6 6 6 6 6 6 6 7 6 7 7 6 6 7 6 7 6 6 6 6 6 6 7 6 6 7 7 7 7 7 7 6 7 7 6 7 7 7 7 7 6 6 7 7 7 7 7 7 7 7 7 7 6 7 8 7 7 7 7 7 7 7 7 7 8 7 7 8 8 6 7 7 7 8 8 7 7 8 8 7 8 8 7 8 7 7 8 8 7 8 8 8 8 8 8 7 8 8 8 8 8 8 8 8 8 8 8 9 8 8 9 8 9 8 8 9 9 8 10 8 9 9 9 9 9 9 9 9 9 9 9 9 8 9 9 9 10 10 9 9 10 10 10 10 10 10 11 9 10 10 9 10 10 10 10 10 11 10 11 10 10 11 11 11 10 11 11 11 11 11 11 11 11 11 11 11 11 12 11 11 11 11 11 12 13 12 12 13 12 12 13 13 12 13 12 12 14 13 13 14 14 14 14 14 13 14 15 16 16 18 16 17 21 30 27 27 25 22 21 19 20 19 18 18 20 20 22 24 22 24 26 28 29 28 28 28 30 30 35 34 36 40 38 34 30 30 28 28 27 27 29 29 30 29 28 29 32 34 31 31 31 29 28 27 29 27 27 28 30 29 33 33 32 34 34 35 36 39 42 46 44 44 48 49 53 53 54 51 51 49 50 52 50 51 50 50 50 50 50 51 52 53 54 55 56 56 58 61 64 63 66 65 67 71 70 75 93 89 83 75 69 68 69 65 62 65 63 70 73 80 83 73 80 78 81 78 79 79 76 71 73 73 71 64 66 62 62 61 62 61 58 55 54 52 50 45 41 39 38 38 38 38 38 35 34 33 32 31 30 32 33 32 30 32 31 32 33 34 35 33 35 35 36 37 39 40 39 38 43 44 45 46 44 46 45 45 47 40 46 43 44 45 43 40 39 39 37 35 34 33 36 35 36 38 39 45 46 42 39 37 39 37 36 32 31 31 32 31 30 27 26 26 25 24 23 24 24 24 24 24 24 25 26 26 27 28 30 30 31 32 32 30 31 33 32 29 27 26 25 25 26 36 33 26 27 30 30 30 29 33 33 31 33 36 36 34 33 30 29 28 27 26 26 23 21 21 21 20 21 21 21 21 20 19 19 17 18 17 16 15 15 15 14 14 13 13 11 13 11 12 11 11 11 11 11 11 11 11 10 11 10 10 10 9 10 10 10 9 10 9 9 9 9 9 9 9 9 9 10 9 9 9 9 9 9 9 9 10 10 10 9 9 9 8 8 8 8 8 8 8 9 9 8 7 8 8 8 8 8 8 8 7 7 8 8 7 7 8 8 7 8 7 7 7 7 7 7 7 7 7 0 
6 6 6 6 6 6 7 6 6 6 7 6 6 6 6 6 6 6 6 7 7 6 6 6 6 7 7 6 6 6 7 7 6 6 6 7 6 6 6 6 7 6 6 7 7 7 7 7 6 6 7 7 7 7 6 7 7 7 7 7 7 7 7 7 7 7 7 7 7 7 7 7 7 7 7 7 7 7 8 7 8 7 8 7 8 7 8 8 7 7 7 7 8 7 7 8 8 8 7 8 7 8 8 8 8 8 8 8 9 8 8 8 8 7 8 8 8 8 9 8 9 9 9 8 8 8 9 9 9 8 9 9 9 9 9 9 9 9 8 9 9 9 9 10 9 9 9 9 9 9 10 10 10 10 9 10 10 10 10 9 10 10 10 10 10 11 11 10 10 11 10 10 11 10 10 11 11 11 11 11 11 11 12 11 11 11 11 12 11 11 12 12 12 12 12 12 12 12 13 12 12 12 13 13 12 13 13 13 13 13 14 15 14 14 15 15 15 15 16 18 18 23 33 26 24 24 22 22 19 19 18 17 18 19 21 20 22 23 24 22 26 27 27 28 28 27 30 34 37 43 36 34 30 29 30 31 30 28 28 30 29 29 28 30 31 33 33 31 30 29 29 28 26 27 26 28 27 27 28 31 33 33 33 33 35 37 36 40 43 49 46 45 48 52 50 50 51 49 48 49 49 49 48 48 47 47 48 50 50 51 50 49 54 56 54 57 63 64 66 69 69 78 70 75 77 84 82 78 68 71 65 71 68 64 66 68 69 70 77 87 89 83 80 73 74 76 77 76 74 74 73 73 71 72 67 63 63 65 59 56 55 56 55 51 45 42 40 38 38 37 38 38 38 35 33 31 33 31 32 32 31 32 30 30 32 32 33 37 37 39 39 39 39 39 45 45 45 45 46 45 50 51 45 43 43 44 40 43 44 49 45 40 40 39 37 36 32 33 33 31 33 34 33 34 35 36 36 38 36 36 36 32 32 30 31 33 32 28 26 27 25 25 25 24 24 24 24 25 24 25 27 26 26 28 28 30 30 32 34 33 32 30 34 33 28 26 25 24 23 26 36 30 26 27 27 32 32 32 33 33 33 34 32 28 28 28 27 27 26 25 24 24 24 22 21 21 20 20 20 19 18 19 18 17 18 16 15 16 17 14 14 13 13 12 13 13 13 11 12 12 11 12 10 11 12 11 10 10 11 10 10 10 10 10 10 10 9 10 9 9 9 9 9 9 9 9 9 9 8 9 8 9 9 10 10 9 9 10 11 10 9 9 8 8 8 9 8 8 8 8 8 9 8 8 7 7 7 8 8 7 7 7 8 7 7 8 7 7 7 7 7 7 7 7 7 7 7 8 7 0 
6 6 6 5 6 6 6 6 6 7 6 6 6 6 6 6 6 6 6 7 7 6 6 7 7 7 7 6 6 6 7 6 6 7 7 6 7 7 7 7 6 6 7 7 7 7 6 7 7 7 7 7 6 7 7 7 7 7 7 7 7 7 7 7 7 7 7 7 7 7 7 7 6 7 7 7 7 7 7 8 7 7 8 8 8 7 8 7 8 8 8 7 8 8 8 8 8 8 7 8 8 8 8 8 8 8 8 8 8 8 8 8 8 8 8 9 8 8 8 8 8 8 8 9 8 9 9 8 9 8 9 9 9 9 9 8 9 9 9 9 9 9 9 9 9 9 9 9 9 10 10 9 10 10 10 9 10 10 10 10 11 10 10 10 9 10 10 11 10 10 10 10 10 10 10 10 11 11 10 11 11 10 11 11 11 10 11 11 12 11 11 11 11 12 12 12 12 11 13 13 13 12 13 13 13 13 12 12 14 13 14 13 14 14 14 15 15 16 17 19 20 23 28 26 25 23 23 22 20 18 18 18 19 18 20 20 21 22 22 24 26 26 26 30 30 29 29 32 36 37 32 31 30 28 30 30 31 32 32 30 31 29 29 30 32 32 29 27 28 28 29 27 26 26 26 27 27 27 28 29 30 31 32 34 33 37 37 39 43 46 49 45 47 51 50 48 46 47 46 45 45 48 45 45 45 45 46 45 47 48 48 50 51 52 52 54 60 66 73 74 69 71 77 78 77 75 72 68 69 66 65 70 68 64 68 69 66 68 67 76 81 74 71 66 65 65 73 72 70 67 65 65 66 66 62 63 62 61 61 57 56 57 56 50 47 44 43 42 39 38 39 40 39 34 33 32 33 32 32 33 34 31 33 33 34 34 36 37 38 41 42 43 42 39 41 43 46 42 42 45 44 49 44 44 41 39 37 39 39 43 42 41 41 38 37 34 33 32 30 31 31 31 32 33 32 33 32 35 34 35 34 35 32 30 31 31 31 28 27 27 26 25 25 26 24 25 24 26 27 27 26 27 27 28 29 29 30 31 33 31 33 32 34 29 27 26 23 24 24 25 32 29 26 26 28 29 30 30 30 34 37 32 26 26 25 25 25 24 23 23 23 23 21 21 20 21 20 20 19 18 18 17 17 16 16 15 14 14 14 13 13 14 13 12 13 12 12 12 11 12 11 11 10 11 10 10 10 11 11 11 10 10 10 10 9 10 10 9 9 9 9 9 9 9 9 8 9 9 9 9 9 9 9 10 10 8 9 8 9 11 9 8 8 10 10 8 8 8 8 8 8 8 7 8 8 7 7 8 8 8 8 8 7 8 8 7 8 8 7 7 7 7 7 7 7 7 8 7 7 0 
7 6 6 6 6 6 6 6 6 6 6 6 6 6 6 6 6 6 6 6 6 7 6 6 6 6 6 6 7 7 7 6 7 7 7 7 6 7 6 7 6 6 7 6 6 7 7 7 7 7 7 7 7 7 7 7 7 7 7 7 7 6 7 7 7 7 8 7 7 7 7 6 7 8 8 7 8 7 7 8 7 7 8 7 8 8 7 7 7 8 8 7 7 8 8 7 7 7 8 8 8 8 8 7 8 8 8 8 8 8 8 8 7 8 8 9 8 8 8 8 9 8 9 8 9 8 9 8 8 9 8 8 9 9 9 9 9 9 9 9 9 9 9 9 10 10 9 10 9 10 9 10 9 10 9 10 10 10 10 11 10 10 10 10 10 9 10 10 10 10 11 10 11 10 11 11 10 11 11 11 11 10 12 11 10 11 11 12 11 11 12 12 12 11 13 12 12 12 12 13 13 13 12 13 13 14 13 13 13 13 14 13 14 14 16 15 15 16 16 18 22 22 27 26 23 24 24 21 20 20 17 17 18 18 19 20 21 23 22 23 25 27 27 29 31 30 31 34 33 32 30 29 29 27 29 30 30 31 31 31 31 29 28 32 33 31 28 26 27 27 28 27 28 26 25 26 25 27 29 31 31 32 32 34 32 33 39 39 42 45 47 48 48 50 47 45 45 44 44 43 43 43 43 43 44 44 43 44 45 44 47 47 47 50 53 54 59 66 73 72 70 74 77 79 75 71 68 68 68 68 65 65 67 69 64 61 62 61 62 62 66 61 60 58 58 60 61 62 61 59 59 57 58 59 57 59 59 58 56 58 55 55 56 54 48 46 49 44 42 39 39 43 39 35 33 33 32 32 33 33 33 35 37 35 36 35 35 35 35 36 39 41 41 39 39 40 40 41 40 39 40 42 41 42 40 38 36 38 38 38 39 37 37 37 35 33 32 31 30 30 30 30 32 33 33 32 34 32 33 34 34 34 31 31 31 30 30 30 29 27 26 25 25 25 25 25 25 26 28 28 26 27 27 28 26 31 32 32 32 31 30 31 29 27 26 24 23 23 23 23 25 25 27 26 26 28 29 30 30 29 30 25 26 24 23 23 23 23 23 21 21 20 21 19 20 20 20 18 18 17 17 16 17 15 15 15 14 14 14 13 13 13 13 11 13 12 12 12 11 11 11 12 11 10 11 11 10 10 10 10 10 9 10 9 10 9 10 10 10 9 9 10 9 9 9 9 9 9 9 9 9 9 9 11 10 9 9 9 9 10 8 9 9 12 14 8 9 8 8 7 8 8 8 7 8 8 8 7 7 7 7 8 7 8 7 7 7 8 7 8 8 7 7 7 7 7 7 7 6 0 
6 6 6 7 6 6 6 6 6 7 7 6 6 6 6 6 6 6 6 6 6 6 6 6 6 6 7 6 6 7 7 6 6 6 7 6 7 6 7 7 6 6 7 7 6 7 7 6 6 6 7 7 7 7 7 7 7 6 7 7 7 7 7 7 7 7 7 7 7 8 7 7 7 7 8 7 7 7 8 7 8 7 7 7 7 7 7 8 7 8 7 7 7 8 8 8 8 8 8 7 8 7 8 8 8 8 8 8 8 8 9 8 8 8 8 8 9 8 9 8 8 8 9 8 8 9 9 8 8 10 9 9 9 9 8 8 9 8 9 9 9 10 9 9 9 9 10 9 9 9 10 9 10 9 10 10 9 10 11 10 10 10 10 11 10 10 10 11 10 10 10 11 11 10 10 10 10 11 10 11 10 11 11 11 11 10 11 11 12 11 11 10 12 11 12 12 12 12 13 13 12 12 13 12 13 13 13 13 13 13 14 14 14 14 14 13 15 16 16 19 22 21 27 24 24 25 24 20 19 18 16 16 17 17 18 20 22 21 23 23 24 27 27 28 31 30 30 31 30 29 28 28 27 27 28 27 29 28 28 28 29 29 30 34 31 29 28 26 27 26 29 28 26 25 27 26 26 27 28 31 36 31 32 32 32 34 37 36 40 42 42 48 46 45 44 42 41 40 41 43 41 41 42 42 41 40 42 38 43 44 44 46 50 49 51 54 55 65 72 74 72 71 73 76 74 70 67 68 68 67 64 64 60 61 60 53 55 54 52 54 55 53 55 56 53 52 55 58 56 55 51 52 53 55 54 55 54 55 54 52 53 50 53 53 49 46 47 45 41 39 39 40 38 36 32 32 32 31 32 31 29 34 33 35 35 34 33 34 32 34 37 39 41 40 37 37 38 38 42 40 39 41 39 41 39 35 36 37 36 36 36 35 37 34 34 32 31 30 30 30 30 30 33 33 32 33 32 32 34 35 35 35 33 31 29 29 29 30 28 25 27 25 27 25 27 26 26 27 28 27 27 28 28 28 28 31 34 32 30 30 29 29 27 26 24 23 22 22 22 24 23 24 27 26 27 27 27 28 26 25 25 26 24 23 25 22 23 23 21 20 21 20 19 18 18 18 17 17 16 16 16 16 15 13 15 14 14 14 14 14 12 13 12 12 12 13 12 12 11 11 11 10 11 12 12 10 10 11 9 10 10 10 10 10 10 9 10 9 10 9 9 9 10 9 8 9 9 9 9 9 8 9 10 9 10 9 9 8 9 9 9 10 9 9 9 9 8 8 8 8 7 8 8 8 8 8 7 7 7 7 8 7 8 7 7 8 8 8 7 6 7 7 7 7 7 7 8 7 8 0 
6 6 7 6 6 6 6 6 5 6 6 6 7 6 6 6 6 6 7 6 6 6 6 6 7 7 6 6 6 6 7 7 7 7 6 6 7 7 6 7 7 7 6 7 7 6 7 7 6 7 7 7 6 7 7 7 7 6 7 6 7 7 7 7 6 6 7 7 7 8 7 7 8 7 7 7 7 8 8 7 7 7 8 8 7 7 7 7 8 8 8 8 8 8 8 8 8 7 8 8 8 7 8 7 8 7 8 8 7 8 9 8 8 8 8 8 8 8 8 8 8 8 8 9 9 9 9 9 9 9 8 8 8 9 9 9 8 9 9 9 10 9 9 9 9 10 9 9 9 9 9 10 9 9 10 10 10 9 9 10 10 10 10 11 10 10 10 10 10 10 10 10 11 11 10 10 10 11 11 11 11 10 10 10 11 11 12 11 11 11 11 11 12 12 12 12 11 11 12 12 13 12 13 13 12 13 13 13 13 13 13 14 14 14 14 15 15 15 16 17 20 23 28 27 21 21 23 21 19 17 17 17 17 18 18 18 19 21 21 23 24 26 28 30 29 30 30 28 27 28 28 26 25 25 27 26 27 28 27 27 27 28 31 30 28 27 27 25 24 26 28 27 26 26 25 25 26 26 35 31 32 30 32 31 31 33 36 36 38 40 43 46 46 49 45 40 40 39 39 39 40 40 38 40 39 40 39 40 40 40 43 46 49 49 50 55 56 61 64 64 69 68 64 71 73 71 72 70 66 62 60 58 56 52 52 51 49 48 49 50 47 49 50 49 49 49 50 50 52 53 51 49 52 51 52 51 52 52 52 48 48 48 51 53 52 47 46 49 42 40 39 36 36 34 32 32 31 31 32 30 30 31 29 33 33 34 34 35 33 34 35 36 36 37 40 37 36 36 38 38 38 38 39 38 38 35 36 35 35 34 35 35 34 34 32 31 29 29 29 29 27 30 31 32 31 30 33 32 34 34 36 34 32 32 31 30 30 29 28 26 27 26 28 27 25 27 27 28 28 26 28 27 28 27 30 31 30 32 30 29 29 27 26 26 23 24 22 22 23 24 23 26 26 27 27 26 26 26 25 26 24 25 24 23 23 23 20 21 20 20 20 19 18 17 17 16 18 15 15 15 15 15 14 14 14 13 14 14 14 12 12 12 12 12 12 12 12 11 11 11 11 11 11 11 11 10 10 10 9 11 10 10 10 9 9 9 10 9 9 9 8 9 9 9 9 9 9 9 9 10 9 10 11 10 10 10 10 10 10 9 9 9 8 9 9 9 8 7 8 8 8 8 9 7 8 8 8 7 8 8 7 7 8 8 7 7 7 7 7 7 7 7 6 7 7 7 7 7 7 0 
6 6 6 6 7 5 6 6 6 6 6 6 6 6 6 6 6 6 6 7 6 6 6 7 6 6 6 7 7 6 6 6 7 6 7 6 7 6 6 7 6 7 6 7 7 7 7 7 7 7 6 6 8 7 7 6 7 7 7 7 7 7 7 7 7 7 7 7 7 7 7 7 7 7 7 7 7 7 7 7 8 7 7 7 8 7 7 8 8 8 7 8 7 7 8 7 8 8 7 8 8 7 8 8 8 8 8 8 8 8 8 8 8 8 8 8 8 8 9 9 8 8 9 8 9 8 8 9 8 9 8 9 9 9 9 9 9 8 9 9 10 9 9 9 9 9 9 9 9 9 10 10 9 10 10 10 10 10 10 10 10 10 10 10 10 10 10 10 11 11 11 10 11 11 10 11 10 11 11 11 11 11 11 10 11 11 11 11 11 11 12 11 12 12 12 12 11 12 12 13 12 12 13 12 12 12 13 13 13 13 13 13 14 14 13 14 15 15 15 16 19 21 26 27 21 20 21 20 18 17 17 17 16 17 18 19 19 20 21 22 24 28 30 32 31 29 29 26 26 27 26 27 26 26 26 27 27 26 27 28 27 27 28 28 26 25 25 23 25 26 28 27 26 25 26 26 27 26 28 30 29 30 30 31 32 32 33 35 36 39 45 49 46 49 41 39 39 37 38 37 38 37 39 37 38 39 38 39 41 42 42 44 44 50 49 54 55 55 57 57 59 58 62 61 68 65 70 71 64 61 57 54 52 49 47 48 47 45 46 47 45 46 46 47 47 50 46 47 48 53 51 50 48 51 51 50 51 53 50 49 48 46 50 50 48 48 46 48 43 41 39 38 35 34 33 33 32 32 29 31 29 30 29 29 30 32 33 34 35 34 35 35 34 37 38 39 37 38 37 38 39 38 39 39 39 36 35 34 35 34 34 33 34 33 31 30 30 29 30 30 30 31 32 32 32 31 40 34 34 34 35 33 32 29 29 29 29 30 28 27 28 27 28 26 27 27 28 30 28 27 26 27 29 28 29 33 31 32 30 29 28 28 26 23 24 25 23 23 24 24 23 25 25 25 26 25 26 25 25 24 22 23 23 22 23 22 21 19 19 19 18 17 17 17 17 16 17 16 16 16 14 14 14 14 14 13 14 14 14 13 13 12 12 12 12 12 11 11 11 11 11 11 10 10 10 10 10 10 10 10 10 10 10 9 9 9 9 9 9 9 10 9 9 9 9 9 9 9 9 9 9 10 10 10 10 10 9 9 10 9 9 9 10 10 11 8 9 8 8 8 8 8 7 7 8 8 8 7 8 7 7 7 7 7 8 8 7 7 7 7 7 7 7 7 7 7 7 6 7 0 
6 6 6 6 7 6 7 7 6 6 6 6 6 6 6 6 6 6 7 7 6 6 6 6 7 7 6 6 6 7 7 6 7 6 6 7 6 7 6 6 7 6 6 7 7 7 6 7 7 7 7 6 6 7 7 7 7 7 7 7 7 7 7 7 7 7 8 7 7 7 7 7 8 7 7 7 7 8 7 8 8 8 8 7 8 7 8 7 7 7 8 7 7 8 8 8 7 8 8 8 8 8 8 7 8 7 7 7 8 8 9 9 8 8 8 8 8 8 9 8 8 8 8 8 9 8 8 8 9 8 9 9 9 8 9 9 9 9 9 9 9 10 9 9 9 9 9 10 9 9 10 9 10 10 10 10 10 11 10 10 10 10 10 10 10 10 10 10 11 10 11 10 11 10 10 10 11 11 11 10 11 11 11 11 11 11 12 11 12 12 11 12 11 12 12 11 12 11 12 12 12 12 12 12 13 13 12 12 14 13 13 12 14 14 14 15 15 15 16 16 18 20 24 27 21 22 23 25 20 19 18 17 17 19 19 20 20 21 20 24 26 27 32 32 31 30 29 27 26 27 26 25 25 24 26 26 26 25 26 25 25 26 27 27 26 26 25 25 26 27 28 27 26 25 25 25 26 27 27 26 28 29 31 29 31 30 33 33 38 41 44 41 42 47 40 40 36 37 36 37 38 38 37 38 37 37 38 38 39 40 41 41 43 44 46 49 52 49 53 53 53 55 55 59 65 63 64 63 63 62 58 53 52 47 47 45 42 42 43 42 43 43 43 44 45 48 46 47 48 49 50 51 49 50 48 49 48 47 48 48 48 48 45 43 42 43 44 46 41 42 39 37 34 35 35 34 32 32 32 30 30 30 30 28 30 30 31 34 36 34 35 34 36 36 38 37 35 36 36 37 38 37 37 36 37 36 36 35 35 34 35 34 34 32 32 32 29 29 30 31 32 32 33 32 33 33 33 32 33 34 34 33 31 30 29 30 29 29 29 29 28 29 27 27 27 28 30 29 31 28 28 27 28 28 29 32 32 31 31 28 28 27 25 25 24 23 23 25 25 24 24 25 24 25 26 26 25 25 25 23 23 22 21 22 20 20 19 20 19 18 18 17 15 16 16 16 16 16 15 19 15 14 13 13 13 12 13 13 13 12 12 12 12 12 12 10 12 10 11 11 11 11 11 11 10 11 10 10 10 10 10 10 10 9 9 10 9 9 9 10 9 9 9 9 8 9 9 9 9 9 9 9 9 10 9 11 10 10 8 9 9 9 9 12 8 8 9 8 8 8 8 8 7 8 8 7 8 7 7 7 7 8 7 7 8 7 8 7 7 7 7 7 7 7 7 7 7 7 7 0 
6 6 6 6 6 6 7 6 6 7 6 6 7 6 6 6 6 6 7 7 6 6 6 6 6 7 6 7 6 6 6 6 6 7 6 6 7 7 7 7 7 6 7 7 7 6 6 7 7 7 7 7 7 7 6 7 7 7 7 7 7 7 7 7 7 7 7 7 8 7 7 7 7 7 8 7 7 7 7 8 7 8 7 7 7 7 7 8 8 6 7 8 7 7 7 8 7 7 7 8 7 8 7 8 8 8 8 8 8 8 8 7 9 7 9 8 8 9 8 8 9 8 8 8 8 9 8 9 9 8 9 8 9 8 9 8 9 9 8 9 9 9 10 9 9 9 9 10 9 10 10 9 10 10 9 10 10 10 10 11 11 10 10 11 10 10 10 10 10 11 10 10 11 10 11 10 11 11 11 11 10 11 10 11 11 12 11 11 11 11 11 11 11 11 12 12 11 12 12 12 12 12 12 12 12 12 13 13 14 13 13 14 13 14 14 14 14 15 16 17 18 22 23 25 25 28 35 31 25 20 17 18 18 18 19 20 21 20 21 23 24 29 31 34 32 32 30 27 27 26 28 25 25 23 24 25 24 24 25 24 26 25 25 25 25 25 25 25 24 26 27 27 26 25 25 26 27 25 26 25 26 28 29 29 30 31 32 34 38 39 39 39 39 39 36 38 36 35 40 37 36 35 35 38 36 36 37 40 39 39 40 41 41 43 43 45 44 46 47 47 50 52 50 54 58 59 58 62 62 60 61 53 53 51 46 43 43 41 42 43 42 42 44 45 44 44 44 47 49 48 52 50 49 49 48 49 48 47 49 49 46 43 43 42 41 41 40 40 42 38 36 36 36 35 34 32 32 32 32 31 30 30 29 29 28 29 29 33 36 38 37 34 34 35 36 37 39 39 37 37 36 36 39 37 36 38 36 35 34 33 33 33 34 32 32 31 31 31 30 32 34 35 34 33 32 30 33 32 31 33 34 35 36 31 30 31 31 30 28 29 28 28 27 28 29 30 31 30 31 29 28 28 28 30 30 29 35 30 29 29 27 26 24 24 24 24 24 25 23 24 24 24 25 26 26 26 26 25 24 22 22 22 21 21 20 19 19 17 16 17 16 16 16 16 16 16 14 14 15 15 13 14 13 14 13 13 13 12 13 11 11 12 12 12 12 12 10 11 11 10 10 11 10 10 10 10 10 11 10 9 10 10 10 9 9 9 9 10 10 9 8 9 9 9 9 9 8 9 9 8 9 8 9 10 10 9 8 9 9 9 8 9 9 8 8 8 8 9 8 7 8 8 8 8 8 8 7 8 8 8 8 8 8 7 7 8 8 7 7 7 7 7 7 7 7 7 7 7 7 0 
6 6 6 6 6 6 6 6 6 6 6 6 6 7 6 7 6 6 6 6 6 6 6 7 6 7 6 6 6 6 6 6 6 7 7 7 7 6 6 7 6 6 7 7 7 7 7 7 7 6 7 7 7 6 7 7 7 7 7 7 7 7 7 7 7 7 7 7 7 7 6 7 7 7 7 7 7 7 7 8 8 7 7 8 7 7 7 7 7 8 8 7 8 7 7 7 7 8 8 8 7 8 7 8 7 8 7 8 9 8 8 8 8 8 8 8 8 8 8 9 8 8 8 8 8 8 8 8 8 9 8 8 9 9 9 9 9 9 8 9 8 9 9 8 9 9 9 10 9 10 9 9 9 10 10 10 11 10 11 11 10 11 10 10 10 10 10 10 11 10 10 10 10 11 10 11 10 11 10 11 11 10 11 10 11 11 11 11 11 11 12 10 11 11 11 12 12 12 12 12 13 12 12 12 12 12 13 13 13 14 13 14 13 13 14 14 15 14 16 16 23 20 20 22 23 29 41 35 29 20 19 19 21 21 20 19 20 19 23 24 26 28 28 30 32 33 32 31 28 26 26 26 24 24 24 25 23 25 22 26 26 25 25 25 25 25 25 26 26 25 28 27 25 24 25 26 24 27 26 26 27 26 29 30 30 31 33 33 36 35 35 34 36 36 37 37 38 38 39 35 36 36 35 37 36 35 37 37 38 38 40 40 43 40 41 40 42 42 44 44 47 45 48 51 52 54 55 60 58 57 56 56 52 53 49 46 44 44 42 41 42 42 41 47 45 44 45 47 48 49 50 51 48 48 48 46 46 47 51 49 44 42 41 43 43 40 40 39 41 38 36 37 35 33 34 32 32 31 31 30 30 31 30 28 29 30 29 31 34 39 37 35 36 34 35 36 40 42 38 37 37 35 37 39 37 36 38 36 34 32 35 34 34 33 31 31 30 31 31 32 33 33 31 32 31 33 32 34 34 33 35 34 34 32 30 32 30 30 29 29 28 28 28 29 30 32 32 32 30 29 27 27 27 30 32 33 33 29 29 28 27 26 26 24 24 24 24 25 25 24 24 26 25 27 25 25 25 23 21 21 21 19 22 20 20 18 17 17 18 17 16 16 16 16 16 15 14 14 14 14 14 13 14 13 13 12 12 13 12 12 12 12 11 12 11 11 12 11 11 11 11 11 10 10 10 10 10 11 10 9 10 10 10 9 9 9 9 8 9 9 9 9 9 9 9 8 8 9 8 8 9 8 9 9 9 9 8 9 9 9 9 9 9 8 8 8 8 8 8 8 8 7 8 8 8 8 7 7 7 7 7 7 7 7 8 8 7 7 7 7 7 7 7 7 7 7 7 7 7 0 
6 6 6 6 6 6 7 6 7 6 6 6 6 6 6 6 7 6 6 6 6 6 6 6 6 7 6 6 7 7 6 6 7 6 6 7 7 7 6 6 6 7 6 6 6 6 6 7 6 7 6 6 7 7 7 7 7 7 7 6 7 7 7 7 7 7 7 7 7 7 7 7 7 7 7 8 7 7 8 7 8 7 8 7 7 7 7 7 7 7 7 8 8 7 8 8 8 7 8 8 7 8 8 8 8 8 8 8 8 8 9 8 7 8 8 8 8 8 8 8 8 8 7 8 7 8 8 8 9 8 9 9 9 8 9 9 9 8 9 9 9 9 9 10 9 9 9 9 9 9 9 9 9 10 9 11 11 11 11 11 11 11 11 11 10 10 10 10 10 11 9 10 10 10 10 10 11 10 10 10 10 10 11 11 11 11 11 11 11 11 11 11 11 11 12 12 11 12 12 12 12 12 11 12 13 12 13 12 13 12 13 14 13 14 13 14 14 15 16 17 21 19 18 19 23 31 33 31 25 21 22 20 22 20 19 19 20 21 23 24 27 26 26 28 28 33 34 33 32 28 27 27 24 25 25 25 24 26 26 25 26 24 23 25 27 26 26 27 26 25 27 26 25 24 25 25 25 25 27 27 26 26 27 31 29 32 32 34 35 35 35 36 36 35 36 36 35 36 36 35 33 34 35 36 35 36 36 38 38 39 39 40 40 39 39 39 40 42 40 43 44 42 46 47 49 50 52 55 55 54 56 55 54 55 54 48 45 44 44 43 43 42 44 45 45 45 45 46 51 49 46 48 49 49 49 47 46 48 52 47 44 42 41 42 41 44 40 39 39 39 36 35 35 33 33 34 35 32 31 32 30 30 31 30 29 30 30 29 31 35 39 39 37 38 37 36 37 42 39 36 37 37 39 42 40 38 36 35 35 34 35 34 35 32 31 31 32 31 32 35 33 30 31 31 30 31 32 34 36 34 34 37 34 32 31 29 30 30 28 29 28 29 28 30 30 36 32 31 28 29 28 26 28 28 33 33 33 29 30 27 27 25 25 26 26 25 25 25 26 25 24 22 24 25 24 23 23 20 21 21 20 20 19 20 19 17 17 16 16 15 16 15 15 16 14 15 14 14 14 15 14 13 13 12 13 12 12 12 12 12 12 12 11 11 10 11 11 11 11 11 10 10 11 10 11 9 10 10 10 10 10 10 9 9 9 10 9 9 9 9 9 9 9 8 9 9 9 8 9 9 8 9 8 8 9 8 8 9 9 9 9 9 8 8 8 8 8 8 8 7 8 8 8 8 8 7 8 7 7 7 7 8 8 7 8 7 7 7 7 7 7 8 7 8 7 7 7 8 7 0 
6 6 6 6 6 6 6 6 6 6 6 6 6 6 6 6 6 6 7 6 6 6 7 6 6 6 6 6 6 7 7 6 7 7 6 6 7 6 6 6 6 7 6 7 7 6 6 7 6 7 6 7 7 7 7 7 8 7 7 7 7 7 7 6 7 7 7 7 7 7 7 8 7 7 7 7 7 7 7 7 7 7 7 7 7 7 7 8 7 8 7 8 7 8 8 8 7 7 7 8 8 8 8 8 7 8 7 8 8 8 8 8 9 8 7 7 8 8 8 8 8 8 8 8 7 9 9 8 9 8 8 8 9 8 8 9 8 9 9 9 8 10 9 9 9 9 10 9 9 10 9 10 10 10 11 11 15 17 13 16 14 12 11 11 10 11 10 10 10 10 10 10 10 10 10 10 11 11 10 10 10 11 11 10 11 11 11 10 10 11 10 10 11 11 12 11 11 12 12 12 12 12 12 12 12 12 12 13 13 12 14 14 14 13 13 14 14 15 16 17 25 23 19 18 22 31 31 26 23 22 24 21 21 21 20 20 20 25 27 25 26 27 26 25 28 32 31 32 33 31 29 29 26 26 26 24 25 26 27 28 24 25 24 26 26 27 26 26 24 25 25 26 25 25 25 25 25 26 26 26 27 28 30 29 30 30 32 32 33 32 33 34 36 35 36 37 35 35 35 34 34 35 32 35 35 36 37 38 38 39 38 37 36 37 39 37 37 40 40 41 40 44 43 42 47 47 50 54 52 53 53 57 55 59 56 53 51 48 44 44 44 44 44 45 44 44 45 48 49 47 48 48 50 48 48 48 50 51 48 45 42 42 42 42 42 42 41 40 40 38 37 37 35 34 34 33 33 33 31 31 32 30 29 29 30 30 29 30 32 34 38 41 41 37 35 37 37 38 39 36 37 37 38 40 40 38 38 37 35 35 34 33 32 31 31 31 31 33 33 32 32 29 30 30 31 36 33 34 35 35 34 35 33 31 30 31 29 30 30 28 29 31 32 34 34 35 30 29 29 30 30 29 30 32 33 34 32 30 28 27 26 24 26 27 26 25 25 26 25 25 24 24 25 26 24 22 21 22 20 19 20 20 18 17 18 17 17 16 17 16 16 14 15 14 15 14 14 13 14 14 13 13 13 13 12 13 12 12 12 12 11 12 11 12 10 11 12 11 10 11 11 10 10 10 11 9 9 10 9 10 10 9 9 9 9 9 9 10 9 9 9 9 9 10 9 10 8 9 9 8 9 8 9 9 8 8 9 9 9 9 9 8 8 8 8 8 8 8 8 8 7 8 8 8 7 8 8 7 8 8 8 8 7 7 7 7 7 8 7 7 8 7 7 7 7 7 7 7 6 0 
6 6 7 7 6 5 6 6 6 7 6 6 6 6 6 6 6 6 6 6 7 6 7 6 6 6 7 6 6 7 6 6 6 6 6 6 7 7 6 7 7 7 6 7 7 6 7 7 6 7 6 6 7 6 7 7 7 7 7 7 7 7 7 7 7 7 7 7 7 8 7 7 7 7 7 7 7 7 8 7 7 7 7 7 7 7 8 7 7 7 7 7 7 7 8 7 8 8 8 8 8 8 8 7 8 8 7 8 8 8 8 8 8 7 8 8 7 8 8 8 8 8 8 8 8 9 8 8 8 8 8 8 9 8 9 9 8 9 9 9 9 9 9 9 9 9 9 9 10 10 10 9 9 10 11 11 29 14 18 17 15 13 11 11 11 11 10 10 9 11 11 10 11 10 10 10 10 11 11 11 11 11 10 10 11 10 11 11 11 11 12 11 11 12 11 12 12 12 11 12 12 12 12 13 12 12 13 13 13 13 14 13 14 14 13 13 14 14 16 17 23 30 24 22 22 25 28 28 26 24 23 22 22 19 21 20 21 26 26 27 28 27 24 24 28 27 28 34 33 33 31 30 28 28 26 29 26 25 28 26 25 26 24 25 26 26 25 25 24 23 23 25 26 25 25 25 25 26 26 27 27 27 30 29 28 29 30 33 33 34 34 34 35 35 34 35 34 34 34 34 34 34 34 35 34 36 36 37 37 37 37 37 35 36 35 37 35 37 38 38 38 40 41 41 46 46 48 51 48 52 50 54 57 59 57 57 55 53 50 46 45 44 45 44 45 45 46 47 49 47 47 47 51 48 48 49 50 47 46 46 42 43 42 43 45 43 41 38 40 39 37 37 36 35 34 33 33 33 33 31 30 30 32 30 31 31 30 31 32 33 34 42 40 38 36 36 38 40 39 38 38 37 37 41 38 39 36 37 36 35 34 34 32 31 31 31 31 33 33 31 30 30 31 30 31 32 31 31 33 32 33 33 33 32 31 31 32 31 29 29 30 31 31 31 32 32 29 28 27 28 30 34 35 32 36 34 36 31 29 27 26 26 27 25 25 23 23 25 25 24 25 25 25 27 26 22 20 20 19 20 18 19 19 17 17 16 17 16 16 15 15 16 15 14 14 14 14 14 14 15 13 12 13 12 12 12 12 12 12 12 11 11 12 11 11 11 11 10 10 11 11 10 10 11 10 10 10 10 10 10 9 9 9 10 10 10 9 10 9 8 9 9 8 9 8 9 9 8 9 8 9 9 8 9 9 9 10 8 9 8 8 8 8 8 8 7 8 8 7 7 8 8 7 8 6 7 7 7 8 7 8 8 8 8 8 7 7 8 7 7 7 8 7 7 7 7 7 7 7 0 
6 6 6 5 6 6 7 6 6 6 6 6 5 6 6 6 7 6 6 6 6 6 6 6 6 6 7 6 6 6 7 6 7 6 6 7 7 6 7 7 6 7 6 6 6 6 7 6 6 7 7 7 7 6 7 7 6 7 7 6 7 7 7 7 7 6 7 7 7 7 7 7 7 7 7 7 8 7 7 7 6 7 8 8 7 7 8 7 7 7 7 7 7 8 7 8 7 7 8 8 8 7 8 8 7 8 8 7 8 8 9 8 8 8 8 8 9 8 8 9 8 9 8 8 8 9 9 9 9 8 8 8 9 9 9 9 9 9 9 8 8 9 9 9 8 9 8 9 9 9 10 8 9 10 10 10 14 14 18 21 17 12 12 11 11 10 11 10 10 10 10 10 10 11 10 10 11 10 11 10 11 10 10 10 11 12 12 10 12 11 11 10 11 10 12 11 11 12 11 12 12 12 12 12 13 12 12 13 12 12 13 13 14 13 13 13 14 15 16 17 18 20 20 20 19 22 27 29 27 25 23 21 22 21 22 21 25 28 28 25 25 24 24 23 25 25 28 30 33 35 33 33 31 30 27 27 28 27 26 26 27 25 24 23 24 24 26 25 24 23 24 24 26 24 24 25 26 25 27 27 28 31 30 28 29 31 34 33 32 32 33 32 34 34 34 35 34 34 34 33 32 33 32 32 34 34 35 34 35 35 33 34 34 34 34 33 36 35 36 35 37 39 40 40 43 43 46 50 48 50 53 54 57 59 56 57 55 56 55 52 47 47 47 47 46 46 47 49 49 49 47 46 50 51 46 48 52 50 45 42 43 41 44 44 44 42 41 42 44 42 43 37 39 38 36 35 33 33 33 32 32 30 32 31 30 31 32 32 32 32 33 39 41 40 37 36 37 38 41 37 38 39 38 38 38 39 36 36 35 33 33 32 33 33 31 30 30 33 32 30 30 30 30 31 31 31 31 31 31 31 33 34 34 32 32 31 31 31 30 30 29 31 31 31 31 30 27 27 26 28 27 30 31 31 30 32 31 29 26 26 27 27 24 25 24 23 22 23 24 24 25 24 25 25 22 20 20 20 19 19 19 18 18 17 18 17 16 16 15 16 14 14 13 13 13 14 14 14 17 17 14 13 12 12 12 12 12 12 12 11 11 11 12 13 12 11 11 11 10 11 10 10 11 10 10 10 9 10 9 9 9 9 9 9 9 9 9 8 9 9 9 9 9 8 9 8 9 8 9 8 9 8 8 8 9 9 8 8 8 8 8 9 8 8 7 8 8 8 8 8 8 8 8 7 8 8 8 8 8 7 7 7 8 7 7 7 8 7 7 7 7 7 7 7 7 7 7 7 7 0 
6 6 6 6 7 6 6 6 6 6 6 6 7 6 6 6 6 7 6 6 7 6 6 6 6 7 7 6 6 6 6 7 6 6 7 6 6 6 6 7 7 7 6 6 6 7 6 7 6 7 6 7 7 6 6 7 7 7 6 6 7 7 7 7 7 7 7 7 6 7 7 7 7 7 7 7 7 7 7 7 7 7 7 7 7 7 8 7 7 7 8 7 7 7 8 7 7 8 8 7 7 8 7 8 8 7 8 8 9 7 8 8 8 8 8 8 8 7 8 8 8 8 8 8 8 8 8 8 9 8 8 9 8 8 9 8 8 9 8 9 8 9 8 9 8 9 9 9 9 9 9 9 9 10 10 10 11 14 20 20 17 11 11 12 10 10 9 10 10 10 10 10 10 10 10 10 10 10 11 10 10 11 11 11 10 10 11 12 12 11 11 11 11 11 11 11 12 11 11 11 11 11 11 12 12 12 12 13 13 13 13 12 13 14 13 14 13 15 16 15 15 17 17 17 18 18 21 26 24 25 26 22 23 24 24 27 26 24 24 22 21 23 22 22 24 23 25 27 29 31 30 31 33 33 29 29 28 29 27 26 25 26 25 25 25 25 25 24 24 25 25 25 26 27 27 27 26 27 28 30 31 32 32 31 31 39 39 36 31 31 32 32 34 33 33 34 33 34 33 32 31 32 32 33 31 33 32 32 32 30 32 33 34 32 33 32 35 33 35 35 35 35 37 39 39 41 45 51 48 50 52 54 56 53 56 53 56 57 57 56 52 54 53 52 48 49 49 51 51 52 50 49 52 49 49 51 53 47 45 44 45 45 47 47 47 43 42 43 41 41 43 41 38 39 37 34 34 34 33 32 32 31 32 30 31 31 31 31 34 34 35 38 43 48 41 39 38 38 38 40 43 42 39 40 38 36 36 35 35 33 35 33 33 32 33 31 32 33 31 31 30 30 31 31 30 31 30 30 32 31 33 34 32 32 32 30 31 31 33 31 29 28 31 30 29 28 26 25 24 26 26 26 26 27 27 30 28 29 26 25 25 24 24 23 24 22 22 22 22 21 23 22 23 21 20 20 20 18 19 18 18 17 17 16 16 16 16 15 16 14 15 14 14 14 14 13 14 14 19 17 14 12 12 12 12 13 11 11 11 11 11 11 11 13 13 12 10 10 10 11 10 10 11 11 10 10 9 9 10 9 10 9 9 9 9 9 9 9 9 9 9 9 8 8 9 8 9 9 8 9 8 8 8 8 9 8 8 8 8 8 8 8 8 8 8 8 8 8 8 8 7 8 7 7 7 8 7 7 7 8 8 7 7 7 7 7 7 7 7 7 7 7 7 7 7 8 7 8 7 0 
6 6 6 6 6 7 6 6 6 6 7 6 6 6 6 6 6 6 6 6 6 6 7 6 6 6 6 7 7 6 6 7 6 7 6 6 6 6 7 7 6 7 7 6 7 7 7 6 7 7 7 6 7 6 7 7 7 7 6 7 7 7 7 7 6 7 7 7 7 7 7 7 7 7 7 7 7 7 7 7 7 7 7 8 7 7 7 7 8 7 7 7 8 7 7 7 7 7 8 7 7 8 8 7 7 8 7 7 8 8 8 8 8 8 8 8 8 9 8 8 8 8 8 8 8 8 8 9 8 8 9 8 9 9 9 8 9 8 9 8 8 9 9 9 9 9 9 9 9 9 9 9 9 9 10 10 11 14 15 19 14 12 11 11 9 10 10 10 10 10 10 9 10 10 10 10 10 10 10 11 10 10 11 12 11 11 10 10 11 11 11 11 11 11 11 11 11 11 11 11 12 12 12 13 12 11 12 12 12 12 13 14 13 13 13 13 13 14 14 15 15 16 17 16 16 17 19 22 21 21 27 25 23 22 23 24 24 21 21 20 19 20 22 22 24 24 22 24 25 27 27 31 34 33 31 30 31 32 29 28 27 28 27 27 27 25 26 24 24 25 26 26 25 26 26 28 29 26 30 31 32 31 30 32 35 38 36 35 33 34 32 33 33 33 32 33 33 34 32 32 32 32 31 32 31 31 31 31 29 30 30 30 30 31 31 32 34 33 34 33 34 35 34 36 37 40 43 48 50 49 48 50 51 52 51 52 52 54 55 57 58 56 57 55 51 53 52 51 50 54 53 53 52 50 57 51 52 45 45 43 44 43 45 44 44 45 46 45 41 42 43 41 41 39 37 37 33 33 33 32 32 31 31 31 31 32 32 33 33 34 36 36 43 55 45 41 40 39 40 41 47 43 40 41 37 38 37 35 36 34 34 33 33 33 32 30 32 33 30 30 31 30 31 29 29 31 31 32 31 32 33 31 32 31 31 32 33 32 31 31 30 32 33 29 28 27 27 25 26 26 26 26 26 25 26 26 27 27 26 24 26 24 24 24 23 22 22 21 22 21 21 20 21 20 19 19 18 18 18 19 17 17 16 16 15 15 15 15 15 14 14 14 14 13 13 13 13 14 13 14 13 12 12 12 13 12 12 11 11 11 11 11 11 12 11 11 11 10 10 11 10 10 10 10 11 10 10 10 9 10 10 9 9 8 9 9 8 9 9 9 8 9 8 9 9 8 9 8 8 9 9 9 8 8 9 8 8 7 8 8 8 8 8 8 8 8 8 8 8 8 8 8 8 7 7 7 8 8 7 7 7 8 7 8 7 7 7 7 7 7 7 7 7 7 7 8 7 7 7 0 
6 6 6 6 6 6 6 6 6 7 6 6 6 6 6 7 6 7 6 7 6 6 6 6 6 6 6 7 6 7 7 6 7 6 6 7 6 6 6 7 7 7 7 6 6 6 7 7 7 6 7 7 7 6 7 7 7 6 6 7 7 7 6 7 7 7 6 7 7 7 8 7 7 6 8 7 7 6 7 7 7 7 7 7 7 7 7 7 7 7 7 8 7 8 7 7 7 7 7 8 7 7 7 8 8 8 8 8 8 8 8 8 8 7 9 8 8 8 8 9 8 8 8 9 8 9 8 8 9 8 8 9 9 8 8 8 9 9 9 9 9 9 9 9 8 9 10 8 9 9 9 9 10 9 9 10 11 12 13 13 11 12 10 11 10 10 10 10 10 10 10 10 9 10 10 10 10 10 9 10 11 10 11 11 11 10 12 11 10 11 10 11 11 11 10 11 11 11 11 11 12 12 11 12 12 12 12 12 13 12 13 13 13 13 14 13 13 13 14 13 15 15 15 15 16 15 17 18 19 17 21 26 20 21 20 19 20 19 18 19 19 19 20 21 23 22 21 22 23 25 25 31 37 35 31 32 34 34 35 31 31 32 32 32 31 27 24 25 24 26 26 26 31 28 27 28 29 29 31 29 28 29 30 30 35 33 34 34 35 34 32 36 34 35 34 33 35 34 33 31 33 30 30 30 32 32 30 30 30 29 29 29 30 30 30 30 31 31 32 32 32 32 33 33 36 37 39 42 45 43 46 46 49 52 49 49 51 51 53 56 59 59 57 57 57 58 57 56 54 53 52 54 53 53 60 53 47 44 44 44 46 43 43 44 48 46 47 46 44 43 43 42 41 39 38 37 35 33 33 33 32 32 34 33 33 34 34 35 35 36 37 39 46 49 45 42 41 42 40 44 45 42 39 38 38 39 37 36 38 36 34 34 33 31 31 30 31 29 31 30 30 30 32 30 31 32 31 32 32 31 34 34 33 31 31 32 33 31 29 32 31 30 31 27 28 25 26 26 25 25 25 24 25 26 27 27 26 25 25 25 25 25 24 22 22 21 20 21 20 19 21 21 20 20 18 19 18 17 18 18 17 17 15 15 16 14 16 14 14 13 14 14 13 13 13 12 13 13 13 13 13 12 12 11 11 11 11 11 11 11 11 10 10 11 11 11 10 10 10 10 10 10 10 10 9 10 9 10 9 9 10 9 10 9 9 9 10 9 9 9 8 9 8 8 8 9 7 8 9 8 8 9 8 8 8 8 8 8 8 8 8 8 8 7 7 8 8 8 7 8 7 8 8 8 7 8 7 8 8 7 7 7 7 7 8 8 7 8 7 7 8 7 7 7 7 7 7 7 7 0 
6 6 6 6 6 6 6 6 6 6 6 6 6 6 6 6 7 6 6 6 6 6 7 6 6 6 7 7 6 6 6 6 7 6 6 6 7 7 6 7 6 7 6 6 6 7 7 6 6 7 6 7 7 7 7 7 7 6 7 7 6 7 7 7 7 6 6 7 7 7 7 7 7 7 8 7 7 7 7 7 7 7 7 8 7 7 8 7 7 7 7 8 7 7 7 7 7 7 6 8 8 8 7 8 8 8 7 8 8 7 7 7 8 9 8 8 7 8 8 8 8 8 8 8 8 8 8 8 8 8 8 8 8 8 9 9 8 8 8 8 9 9 9 9 8 8 10 9 9 9 9 9 9 9 9 10 10 10 11 11 11 10 10 10 10 10 10 10 10 11 9 10 10 10 9 10 11 10 11 10 10 10 10 10 10 11 10 10 10 10 11 11 11 11 11 11 11 11 11 11 10 11 11 12 13 13 12 12 13 14 13 13 12 14 13 14 13 14 13 15 14 14 14 15 16 15 15 16 17 18 18 18 17 17 18 18 18 18 18 17 17 19 19 20 23 22 22 22 23 24 24 26 32 38 30 34 33 34 36 37 36 37 34 34 32 29 27 24 23 25 26 28 28 29 29 28 27 28 29 28 29 29 28 29 28 33 32 33 34 35 34 35 37 35 35 36 34 33 33 31 31 30 30 29 28 29 28 29 28 28 29 29 32 30 28 30 31 30 30 30 30 31 33 32 34 36 38 38 39 40 40 42 44 47 46 48 47 48 51 52 54 57 60 57 60 61 61 61 57 55 57 54 55 52 58 55 46 45 44 46 45 44 45 45 47 47 49 46 46 44 45 46 43 42 41 38 35 34 35 35 34 34 34 33 34 35 34 38 35 37 39 37 41 46 43 44 41 42 38 47 44 39 38 39 38 37 40 37 38 37 34 34 32 31 31 30 31 31 31 30 30 29 30 31 29 31 31 31 30 31 31 33 32 35 31 32 31 29 29 28 30 30 30 27 26 26 26 27 25 24 25 25 26 26 29 27 26 24 25 23 24 23 23 23 21 22 20 21 20 19 20 20 20 18 20 18 17 18 17 16 17 16 15 15 15 16 14 15 14 14 14 13 13 13 13 13 13 12 11 13 12 12 12 12 11 12 11 12 11 10 10 11 11 11 10 10 10 10 10 9 10 11 9 10 9 10 9 9 8 10 9 9 9 9 9 9 9 9 9 8 9 9 8 9 9 8 8 7 8 8 9 8 8 8 8 8 7 8 8 8 8 8 7 8 7 8 8 8 8 8 8 7 8 8 7 8 7 7 7 7 7 8 7 8 7 7 7 7 8 7 7 7 7 7 7 7 7 6 7 0 
6 6 6 6 6 7 6 6 6 6 6 6 6 6 6 6 6 7 7 7 6 6 6 6 6 6 6 6 6 7 6 6 7 5 6 6 6 7 6 7 6 6 7 7 7 7 7 6 7 6 7 7 6 7 6 6 6 7 7 7 7 7 7 7 7 7 7 7 7 7 7 8 7 7 7 7 7 7 7 7 7 7 7 7 7 8 7 7 7 7 7 7 7 7 8 8 7 7 7 8 8 8 8 7 8 8 7 8 7 7 8 7 8 7 9 7 7 8 8 8 8 8 8 8 8 8 8 8 8 8 8 8 8 9 9 8 9 9 9 9 8 9 8 9 9 8 9 9 8 9 9 9 9 9 9 10 10 10 10 10 10 10 10 10 10 10 9 10 9 9 10 10 11 10 10 10 11 10 11 10 11 13 13 10 10 10 10 11 11 11 10 11 11 12 12 11 11 11 12 11 11 11 11 12 12 13 13 13 13 19 14 13 12 13 13 12 13 13 14 14 13 14 15 14 14 15 16 16 16 16 16 17 15 17 16 16 17 16 17 17 17 17 17 18 21 21 21 20 22 22 24 24 28 30 30 31 28 32 33 36 38 36 35 32 34 31 27 25 25 25 25 27 29 29 27 27 27 28 28 27 28 29 28 30 30 33 31 32 32 35 33 33 33 33 35 35 32 31 32 30 30 27 27 28 29 28 28 27 28 28 29 29 30 28 30 29 30 28 29 30 31 30 31 31 34 34 36 37 36 36 36 38 41 41 43 43 48 48 50 52 53 52 55 58 57 61 61 60 60 58 60 56 57 52 59 58 49 47 48 47 48 46 48 47 48 49 50 49 48 50 47 50 47 46 40 39 37 37 36 36 37 36 36 36 34 36 38 34 35 40 41 39 39 49 45 44 41 41 40 43 43 40 40 40 39 38 39 39 38 34 34 34 31 31 30 31 30 29 30 29 30 29 29 30 30 29 30 31 31 32 33 32 30 31 33 29 30 28 28 27 28 27 28 27 27 25 25 25 24 26 24 24 25 25 26 26 25 25 23 22 23 22 22 21 20 20 20 20 19 20 19 19 19 17 18 18 18 17 17 17 17 16 15 14 15 15 14 13 14 14 14 13 13 13 13 13 12 12 13 11 12 12 11 12 12 11 11 11 11 11 11 11 11 11 10 10 9 9 10 10 10 10 10 10 10 9 9 10 9 9 9 9 9 10 9 8 9 8 9 9 9 8 9 8 9 8 8 8 8 8 8 8 8 9 9 8 8 8 8 8 9 8 8 8 8 7 7 8 8 8 8 7 7 7 7 7 7 8 7 8 8 8 7 7 7 7 8 7 7 7 7 7 7 7 7 7 7 7 7 0 
6 6 6 6 6 5 7 6 7 6 6 6 6 6 6 6 6 6 6 6 6 6 6 6 6 6 6 7 6 7 6 6 6 6 6 6 6 7 7 6 6 6 6 6 6 6 6 7 7 6 6 7 7 7 7 6 7 6 7 7 7 7 6 7 7 7 7 6 7 7 7 7 7 7 7 7 8 7 7 7 8 7 7 7 7 7 7 7 7 7 7 7 7 7 8 8 7 8 7 8 7 8 8 7 7 8 8 8 8 8 8 8 8 7 8 8 8 8 8 8 8 8 8 8 8 8 8 8 8 9 8 8 9 8 8 8 9 9 9 9 9 9 9 8 9 9 8 9 9 9 9 9 9 9 9 9 10 10 10 10 10 10 10 10 10 9 9 10 9 10 11 9 10 10 10 10 10 10 10 10 11 14 17 11 11 10 10 10 10 10 10 11 11 11 11 11 12 11 11 11 11 11 12 12 12 12 12 12 15 15 14 13 13 13 13 12 14 13 13 13 13 13 14 14 14 15 15 14 15 16 16 16 16 16 16 16 17 16 17 17 17 17 18 18 19 22 19 20 23 23 23 24 27 27 27 26 27 28 28 29 30 31 32 34 31 26 28 28 26 25 27 28 29 30 28 26 26 28 27 28 29 29 28 30 30 32 31 32 32 31 31 31 31 29 29 31 28 28 28 28 28 26 27 27 28 29 27 27 26 27 28 28 27 28 27 27 27 27 29 29 29 31 30 30 33 34 35 34 34 36 36 35 37 38 40 42 44 45 45 48 52 51 53 55 56 57 62 61 63 61 61 60 61 57 60 58 52 49 49 48 49 45 50 51 50 53 52 53 51 53 53 51 50 48 45 43 41 40 39 38 39 39 36 38 37 39 38 37 38 39 37 41 43 47 48 48 43 42 41 44 43 41 41 39 38 41 40 41 39 34 33 32 32 30 31 31 31 31 30 31 30 30 30 32 31 30 31 31 32 31 32 31 30 30 29 29 29 27 28 27 26 27 26 25 26 25 26 25 24 25 25 25 24 24 25 24 24 22 23 23 22 21 21 21 21 19 19 18 19 19 19 18 19 16 17 17 17 16 16 15 16 16 15 15 15 14 14 14 13 13 13 14 13 13 12 12 13 12 12 11 12 12 12 11 10 11 11 12 11 10 11 10 10 10 10 10 11 10 10 10 10 9 9 9 9 9 9 10 10 10 9 9 9 9 8 9 9 9 9 9 9 8 8 9 8 9 8 8 8 8 8 8 8 8 8 8 7 8 8 8 8 7 8 8 8 8 7 7 8 9 7 7 7 8 7 8 7 7 7 7 7 7 7 7 7 7 7 7 7 8 7 7 7 7 7 7 6 8 6 0 
6 5 6 6 6 6 6 6 6 7 6 7 6 6 6 6 6 6 6 6 6 6 6 6 7 6 6 6 6 6 6 6 6 6 6 6 7 6 6 6 6 7 6 7 6 7 7 7 6 6 6 6 7 7 6 7 6 6 7 7 6 6 7 6 7 7 7 7 7 7 7 7 7 7 7 6 7 6 7 7 7 7 7 7 7 7 7 7 7 7 7 7 7 8 8 8 7 7 7 8 7 8 7 7 8 7 8 8 8 8 8 8 8 8 8 8 8 8 8 8 8 8 8 8 8 8 8 8 8 8 9 8 9 9 8 8 8 9 8 8 8 9 9 8 9 8 10 9 8 9 9 10 9 9 9 9 10 10 10 10 10 9 9 9 9 10 10 9 9 10 10 9 10 10 10 10 10 10 10 10 11 11 15 11 11 10 11 10 10 10 11 10 11 10 11 11 11 10 11 11 12 11 12 12 11 12 12 12 13 13 12 12 13 12 12 12 13 13 13 13 13 13 14 13 13 14 15 15 15 14 16 15 15 16 16 16 16 17 16 16 17 17 18 18 20 20 20 20 24 22 22 22 23 23 25 26 26 25 27 25 26 29 31 33 33 29 29 32 29 28 29 33 34 31 29 28 27 28 27 28 29 29 28 27 27 30 30 30 31 28 28 27 28 28 27 26 28 26 26 27 26 27 26 26 26 27 28 26 26 27 29 27 27 26 26 26 27 27 29 28 30 30 30 30 33 33 33 32 33 33 34 33 34 36 36 38 42 41 45 47 46 47 50 51 56 55 62 62 63 63 63 66 67 66 61 62 54 53 52 51 50 51 51 54 54 57 54 57 58 57 57 55 53 50 49 45 45 45 42 41 40 39 40 41 39 40 38 37 38 39 40 40 44 44 51 62 48 47 44 44 45 42 41 40 40 41 40 38 36 35 33 31 32 30 30 32 30 31 30 31 31 31 29 31 30 32 30 29 30 30 28 30 31 29 29 28 28 28 28 26 25 26 25 26 24 25 24 23 24 25 23 23 23 23 23 23 24 23 23 23 21 22 21 20 19 19 18 19 19 18 17 18 17 17 18 17 17 16 15 16 15 14 14 14 14 14 14 14 14 13 13 13 13 12 13 12 13 12 11 12 12 11 11 12 11 11 11 10 11 11 10 10 10 10 10 10 10 10 10 9 10 10 9 10 10 9 9 9 9 9 9 9 9 8 9 9 9 9 9 8 8 8 8 8 9 8 8 7 9 8 8 9 8 8 8 8 9 8 8 8 8 8 8 8 8 9 8 7 7 8 7 7 7 7 7 7 7 7 7 7 7 8 7 7 7 7 7 7 7 7 8 7 7 7 7 6 7 7 7 0 
6 5 6 6 6 7 6 5 6 6 6 6 5 6 6 6 6 6 7 7 6 6 6 6 6 6 6 6 6 6 6 6 7 6 7 7 6 7 6 6 6 7 6 6 7 7 6 7 6 6 6 7 7 6 7 6 7 6 6 7 7 7 7 7 7 7 6 7 6 8 7 7 7 7 7 7 7 7 7 7 7 7 7 7 7 7 7 8 8 7 7 7 7 8 8 7 8 8 6 8 8 7 7 8 7 7 8 7 7 8 7 8 8 8 8 8 8 8 8 8 9 8 8 8 8 8 8 9 8 8 9 8 9 8 8 8 9 9 9 8 8 8 8 8 9 8 9 9 8 9 9 9 9 9 9 10 9 9 9 9 10 9 9 10 9 9 10 10 10 9 10 9 10 10 10 10 10 9 11 10 11 11 10 11 10 11 11 10 11 11 10 11 11 10 11 11 11 10 11 11 11 11 12 11 11 11 13 12 13 12 12 12 13 12 13 12 13 13 12 13 14 13 14 14 14 13 14 15 14 14 15 15 15 15 15 15 15 15 16 15 16 16 17 17 20 19 20 22 22 21 22 22 22 21 24 25 23 23 24 25 25 26 26 31 36 31 31 34 31 31 32 32 34 35 29 27 28 26 26 27 25 27 27 26 26 27 29 29 29 27 26 27 25 25 25 25 26 26 24 25 26 26 26 26 25 26 25 25 26 26 26 26 25 25 26 27 26 27 26 27 27 29 29 29 30 31 31 31 31 33 32 33 33 34 35 36 38 42 43 43 44 46 47 49 54 56 59 60 64 66 69 69 71 68 65 63 52 54 54 52 56 55 57 59 58 59 60 60 60 65 63 62 56 53 51 49 49 47 47 46 45 44 41 43 43 43 44 43 42 42 40 42 42 46 59 57 48 47 45 46 46 43 44 42 43 42 44 38 34 32 32 32 33 32 31 31 31 31 31 31 31 31 29 30 29 28 29 28 29 29 28 29 29 28 29 29 28 27 27 27 26 26 26 24 24 25 22 24 23 23 21 22 22 22 22 23 23 22 21 21 21 21 19 18 19 18 19 18 18 17 18 18 17 17 17 16 17 16 15 15 15 15 14 14 14 13 13 13 13 13 12 13 12 13 13 12 13 13 12 12 13 11 11 12 11 10 11 10 11 10 10 10 10 11 10 10 10 10 10 10 10 9 10 9 9 10 9 9 9 9 8 10 9 9 9 9 9 8 9 8 8 9 8 8 8 8 9 8 8 9 8 7 8 8 8 8 8 8 8 8 8 8 8 7 8 8 8 7 7 8 8 8 8 8 8 8 8 7 8 8 7 7 7 7 7 7 7 7 7 7 7 7 7 7 6 7 7 7 7 0 
6 6 6 6 7 6 6 6 6 5 6 6 6 6 6 6 6 6 6 7 7 6 6 6 6 7 7 7 6 6 6 6 6 7 6 6 6 6 7 6 6 7 7 7 7 7 7 6 7 7 7 6 7 6 6 7 7 7 7 7 7 7 7 6 7 7 7 7 7 7 7 7 7 7 6 6 7 7 7 7 7 7 7 7 7 7 7 7 7 7 8 7 8 8 7 7 7 7 7 8 7 7 7 7 8 8 7 7 8 7 8 8 7 8 8 8 8 8 8 8 9 8 8 8 8 8 8 8 8 8 8 8 8 8 8 8 8 8 9 8 7 9 8 9 9 9 9 8 9 9 9 9 9 9 9 9 9 8 9 10 9 9 9 10 10 9 10 10 9 9 10 9 9 10 10 10 10 10 10 10 10 10 10 10 10 10 10 10 11 10 11 12 11 11 10 11 11 11 11 11 12 11 12 12 12 12 12 11 12 12 12 12 12 12 13 13 13 13 13 13 13 13 12 14 14 13 14 14 14 14 14 14 15 15 15 15 14 15 15 16 15 17 16 17 19 19 19 21 19 21 22 21 21 21 23 21 22 21 21 21 23 24 26 26 34 33 33 35 34 30 32 31 33 31 27 26 26 26 28 28 27 25 27 26 25 26 27 26 26 25 26 25 25 24 24 24 23 24 24 24 24 25 24 25 26 25 25 25 25 25 27 24 24 25 26 25 26 26 27 26 27 28 27 28 29 28 28 31 30 30 31 31 32 32 34 34 37 38 40 43 44 46 48 47 49 54 58 61 65 72 78 70 74 83 67 60 55 54 53 58 64 65 63 64 65 65 68 69 68 73 75 68 64 61 60 54 51 50 52 51 49 49 46 47 46 47 47 47 44 46 42 41 43 53 58 55 45 46 46 48 46 43 45 43 42 44 41 38 34 33 33 33 33 32 31 32 30 31 30 30 31 30 29 27 28 28 28 29 28 28 28 27 28 28 30 29 27 27 28 27 27 26 25 24 26 24 22 23 23 21 23 22 22 23 22 22 22 22 21 22 20 21 20 19 19 18 19 17 18 16 16 17 17 16 16 16 16 15 14 15 14 14 14 14 15 14 13 13 12 13 13 12 12 12 12 12 12 12 12 12 11 12 11 10 11 10 10 11 10 11 10 10 10 10 10 10 10 10 10 10 9 10 10 9 10 10 9 10 9 9 9 9 9 8 9 8 8 9 9 9 9 9 8 8 8 8 9 8 8 9 8 8 8 8 8 8 7 8 7 8 8 8 8 8 8 8 8 7 7 7 8 8 7 8 7 7 8 7 6 7 7 7 7 7 7 7 7 7 7 7 7 7 7 7 7 7 7 7 7 0 
6 6 6 6 6 6 6 6 6 6 6 6 6 7 6 6 6 6 6 6 6 6 6 6 6 6 6 6 7 6 6 7 6 6 7 6 6 6 7 6 6 6 6 6 6 6 7 7 6 7 7 7 7 7 7 7 6 7 6 6 6 7 6 7 7 6 7 7 7 7 7 6 7 7 6 7 7 7 7 7 7 7 7 7 7 6 7 7 7 7 7 7 8 8 7 8 7 7 7 7 8 7 8 7 7 7 7 8 7 8 6 7 8 7 7 8 8 7 8 8 8 8 8 8 8 8 8 8 8 8 8 8 8 8 8 8 9 8 8 9 8 9 9 9 9 9 9 9 9 8 9 9 9 9 8 9 10 9 9 9 9 9 9 9 10 10 10 9 9 9 9 9 9 11 10 9 10 10 11 11 9 10 10 10 10 10 10 10 11 11 10 10 11 10 11 11 11 11 11 11 12 11 13 13 12 11 11 12 12 12 12 11 12 12 12 12 12 12 13 12 13 13 13 13 13 13 13 13 14 14 14 14 14 14 14 15 14 14 15 15 16 15 16 17 17 17 17 18 18 19 19 21 19 20 19 19 21 19 21 20 22 21 23 24 30 33 32 34 34 29 30 30 29 27 25 25 24 26 25 27 28 26 25 25 25 28 29 28 26 25 24 23 23 23 23 23 22 23 23 24 24 25 24 25 26 25 25 25 26 24 24 24 23 24 26 24 25 25 25 25 27 26 27 28 28 27 28 28 29 29 29 30 31 31 33 34 35 37 37 39 41 44 44 46 46 51 55 57 64 71 81 77 81 85 67 65 61 57 57 61 67 67 68 70 69 70 70 77 82 85 88 80 73 69 65 62 61 60 58 56 55 53 52 54 51 51 50 50 47 49 48 46 48 52 56 53 49 46 47 46 46 48 48 48 47 42 41 37 36 33 34 34 33 31 31 31 29 30 30 30 29 29 28 28 29 28 27 26 26 26 28 28 28 27 29 27 25 27 28 27 25 25 24 24 22 23 22 21 22 22 22 21 22 22 22 22 20 21 21 20 19 18 18 18 18 18 17 19 17 18 17 17 16 16 15 16 15 15 16 15 15 14 14 14 13 13 13 13 14 13 12 12 13 12 12 11 11 12 11 12 11 11 12 11 11 11 11 11 11 11 10 10 10 10 10 10 9 9 10 9 9 10 10 10 9 9 10 9 9 9 9 8 9 9 9 9 9 9 9 8 8 8 9 8 8 8 8 8 8 9 8 8 8 8 8 8 7 8 7 8 8 8 8 8 8 7 8 8 8 7 7 8 7 8 7 8 7 8 7 6 7 7 8 7 7 7 7 7 7 7 7 7 7 7 7 7 7 7 7 0 
6 6 6 6 6 6 6 6 6 6 6 6 6 6 6 6 6 6 6 7 7 6 6 6 6 7 6 6 6 6 6 6 6 6 6 6 6 6 7 6 6 6 6 6 7 6 7 7 7 6 7 7 7 7 6 7 7 6 7 6 6 7 7 7 7 7 7 7 7 7 6 7 6 7 7 7 7 7 7 7 8 7 7 7 8 7 7 7 7 7 7 7 7 8 8 7 7 7 7 7 7 8 7 8 8 7 7 7 7 7 8 8 8 7 7 8 7 8 7 8 8 8 8 8 7 7 8 8 8 8 8 8 8 8 8 8 8 8 8 8 8 8 8 9 8 10 9 9 9 9 8 9 8 9 8 9 9 9 9 9 9 9 9 9 9 9 10 9 9 9 9 10 9 10 10 9 10 9 10 10 10 10 10 10 9 10 10 11 10 10 10 11 11 11 10 10 11 10 11 11 11 11 13 11 11 12 11 12 11 11 11 11 12 12 12 12 13 12 12 13 13 12 12 12 13 14 14 14 14 13 14 14 14 14 14 14 14 15 14 14 15 15 15 16 16 16 17 17 17 17 17 17 18 18 19 18 18 19 18 19 19 20 21 22 23 27 31 31 30 29 32 27 26 25 24 27 24 27 26 29 26 26 25 26 27 30 28 25 25 24 25 23 22 22 23 22 23 23 23 23 23 24 25 24 23 25 24 25 24 24 24 24 25 23 26 24 24 25 24 27 25 26 25 26 26 27 26 27 27 27 28 28 29 31 32 34 34 37 37 39 41 40 43 44 46 50 54 54 57 66 71 74 79 81 70 73 66 63 58 62 67 68 70 68 69 74 73 75 80 90 92 86 77 76 70 66 66 65 66 61 61 60 59 55 52 51 52 51 51 52 52 52 52 61 53 53 52 48 47 51 47 49 53 50 46 43 39 35 36 34 32 32 32 32 31 30 29 31 30 29 28 28 26 28 28 28 26 27 26 27 29 28 28 28 27 26 26 26 25 26 24 24 23 23 22 22 22 22 22 20 21 20 20 21 21 21 20 20 20 19 20 19 19 18 18 18 17 18 18 17 17 17 16 17 16 15 15 14 15 14 15 14 14 13 13 13 13 13 12 13 13 12 12 12 12 12 12 12 11 13 11 11 11 10 11 10 11 11 10 10 10 11 10 10 11 10 10 9 9 9 9 10 9 10 9 9 9 9 10 9 9 9 8 9 9 9 9 9 9 8 8 8 8 8 8 8 8 8 8 8 8 8 8 8 8 8 7 8 8 8 8 8 8 7 8 8 8 8 7 8 7 7 8 7 8 7 7 7 7 8 7 8 7 7 7 8 7 7 7 7 7 7 6 6 7 7 7 7 6 0 
6 6 6 6 6 6 6 6 6 5 5 6 6 6 6 6 7 6 6 6 6 6 6 6 6 6 6 7 6 6 7 6 6 6 6 6 6 6 6 7 7 7 6 7 7 6 6 6 6 6 6 6 7 6 7 6 6 7 6 7 7 7 7 7 7 7 7 6 7 7 7 7 7 6 7 7 7 7 7 7 7 7 7 7 8 7 7 7 7 7 7 8 8 8 7 7 7 7 8 7 8 8 7 7 8 8 8 7 8 7 7 8 8 8 8 7 8 8 8 8 8 8 8 8 8 8 8 8 8 8 8 8 8 9 8 8 8 9 8 8 9 8 8 8 8 8 9 9 8 9 9 9 9 8 9 9 9 9 9 9 9 9 9 10 9 9 10 9 9 9 10 10 10 9 10 9 10 9 10 10 10 10 10 10 10 10 10 10 11 10 10 11 10 10 10 11 11 11 11 10 11 11 11 10 10 11 11 12 12 12 11 12 12 12 11 12 11 12 12 12 12 12 12 13 13 12 14 14 14 13 14 13 14 14 14 14 14 14 15 14 15 15 15 15 16 16 16 16 16 18 17 17 18 16 18 18 18 18 18 19 19 19 20 20 22 22 22 25 29 25 24 23 23 23 24 25 24 27 28 28 26 25 24 25 27 28 24 24 23 23 23 21 21 22 21 21 22 23 22 23 23 24 24 24 24 25 24 23 24 24 23 24 22 24 23 23 24 25 25 25 24 26 25 25 26 26 27 26 25 27 28 28 29 29 31 35 33 34 36 37 39 40 42 45 49 48 51 52 56 62 65 73 79 76 71 82 75 66 60 62 70 71 70 68 67 72 71 69 75 87 95 92 84 78 74 71 69 69 65 64 67 63 62 60 56 55 54 53 49 55 55 56 55 61 54 55 51 52 49 48 47 53 60 51 43 40 37 35 35 35 33 32 30 30 30 30 30 30 29 30 28 27 27 27 25 27 26 27 27 27 27 28 29 27 27 26 27 26 24 24 24 23 23 22 21 22 22 21 22 20 20 20 21 19 21 20 20 21 20 19 19 18 18 18 18 18 17 17 17 16 16 17 16 16 15 16 15 14 14 14 14 14 14 13 13 13 12 13 12 13 12 12 11 12 12 12 12 12 11 11 11 11 11 11 10 11 11 10 10 10 10 11 10 10 11 10 10 10 10 9 9 10 10 10 10 9 9 9 8 9 9 9 9 8 9 8 8 9 9 8 9 9 8 9 9 8 8 8 8 8 8 8 8 8 7 8 8 8 8 8 8 7 8 8 7 7 8 8 7 8 7 8 7 8 8 7 7 8 7 7 7 7 7 7 7 7 7 8 7 7 7 7 7 7 7 7 7 6 6 0 
6 5 6 6 6 6 6 7 6 6 6 6 6 6 7 7 6 6 6 6 6 6 6 6 6 6 6 7 6 6 7 6 7 6 6 6 6 6 6 6 6 6 6 7 7 6 7 6 7 7 7 6 7 7 6 7 6 6 7 7 7 7 6 6 7 7 7 6 7 7 7 6 6 7 7 7 6 7 7 7 7 7 7 7 7 7 7 7 7 8 7 7 7 7 7 8 7 7 7 7 7 8 8 8 7 8 8 7 8 8 8 7 8 8 7 8 8 8 7 8 8 8 8 7 8 8 8 8 7 8 8 8 8 8 8 8 8 8 9 9 9 8 8 8 8 9 9 8 9 8 8 9 9 9 9 9 9 9 9 9 9 9 10 9 9 9 11 9 9 10 9 10 9 9 9 10 10 10 9 10 10 10 10 10 10 10 10 10 10 10 10 11 11 10 11 10 10 10 11 10 11 11 11 11 11 11 12 11 12 11 11 12 12 12 11 11 13 12 13 12 12 13 13 13 13 13 12 13 13 13 14 13 13 14 15 14 14 14 14 13 14 14 14 15 16 17 15 15 15 17 15 17 16 16 18 17 17 17 18 17 17 18 18 19 20 21 21 20 24 23 22 21 21 22 23 27 24 24 24 24 21 23 22 23 24 25 24 22 22 22 22 21 20 20 20 20 21 21 21 22 22 23 22 24 25 24 24 24 24 23 22 24 23 23 22 23 23 23 24 24 24 25 25 24 25 25 25 25 25 26 29 28 29 30 31 31 31 33 35 36 39 39 42 46 49 50 50 50 55 61 62 67 78 82 77 80 73 67 61 63 67 72 70 64 66 67 70 66 74 83 97 101 93 79 76 72 71 70 68 65 65 65 64 64 57 58 56 55 53 53 54 59 61 62 57 57 52 52 53 51 50 54 62 53 42 38 39 38 36 34 35 33 32 31 31 30 29 30 29 29 28 28 27 27 26 25 28 29 27 27 27 27 27 26 26 25 27 27 25 26 23 21 22 23 22 21 22 19 20 20 20 20 20 19 20 20 19 20 20 18 18 18 18 18 16 17 16 17 17 17 16 17 17 15 15 15 15 14 15 14 15 13 13 13 13 13 12 12 13 12 12 12 12 11 12 11 11 12 11 11 10 11 10 11 10 11 10 11 10 11 10 10 10 9 11 9 9 10 9 10 9 9 9 9 9 9 9 9 8 9 9 9 9 8 8 9 9 9 8 8 8 9 8 8 8 8 8 8 8 7 8 8 8 8 8 8 8 8 8 8 8 8 7 8 7 8 7 8 7 7 7 7 7 7 7 7 7 7 7 7 7 7 7 7 7 7 7 7 7 7 7 7 7 7 7 7 6 6 7 0 
6 6 6 7 6 6 6 6 6 6 6 6 6 6 6 6 6 6 6 6 6 6 6 6 6 6 6 6 7 6 6 6 6 6 6 7 7 6 6 6 7 7 7 6 6 6 7 6 6 7 7 6 6 7 6 6 7 7 7 7 6 7 7 6 6 7 7 7 6 7 7 7 6 7 6 7 7 7 7 8 7 7 7 7 7 7 7 7 7 7 7 7 7 7 7 7 7 7 7 7 7 7 7 7 7 7 8 7 8 7 8 8 7 7 8 8 8 8 8 8 8 7 8 8 8 8 8 8 8 8 8 8 8 8 8 8 8 8 8 8 8 9 8 8 9 9 8 8 8 8 9 8 9 8 9 9 9 9 9 8 8 9 9 9 9 10 9 9 9 9 9 9 9 10 10 10 10 10 9 10 10 10 10 10 10 10 10 10 10 10 11 10 10 11 10 11 11 11 11 10 10 11 10 10 12 11 11 11 11 11 11 12 11 11 12 11 12 11 12 12 12 12 13 13 13 13 12 13 14 13 13 13 14 15 14 14 14 14 14 14 14 15 15 14 14 15 15 15 15 15 16 16 16 17 16 17 17 17 17 18 17 18 17 18 19 18 19 20 20 19 21 20 20 20 19 21 22 22 20 22 19 21 20 22 23 24 21 23 21 23 22 22 21 21 20 20 20 20 21 21 20 22 22 23 24 24 24 24 24 23 22 22 21 22 23 23 22 23 23 24 23 25 25 25 25 25 24 24 26 27 27 26 28 28 30 30 31 31 34 35 36 36 40 44 46 47 56 51 54 59 61 67 79 81 79 80 82 73 63 64 70 74 70 69 64 62 69 71 73 80 93 94 94 88 77 74 71 70 67 70 66 68 68 71 66 65 58 53 55 55 55 61 64 61 58 56 54 55 57 54 53 57 61 49 42 38 38 38 35 34 34 33 32 32 32 30 29 29 30 29 28 26 27 26 26 27 26 26 26 27 25 25 26 26 26 26 26 27 25 23 23 22 21 21 20 20 20 20 19 19 20 21 20 20 19 19 20 19 19 19 19 18 17 17 16 16 17 17 17 16 16 17 16 15 14 14 15 15 14 14 12 13 13 12 13 13 13 13 11 12 12 12 12 11 11 11 11 11 11 11 11 10 10 10 11 10 10 10 10 10 10 10 10 10 10 10 9 10 10 10 9 9 9 9 9 9 9 9 9 9 9 9 9 8 9 8 9 9 8 8 8 8 8 8 8 8 8 7 8 8 8 8 8 7 7 8 8 8 8 7 8 8 8 7 7 8 7 7 8 7 7 7 7 7 7 7 7 7 6 7 7 7 7 7 7 8 7 7 6 7 7 7 7 7 7 6 7 7 7 0 
6 5 6 7 6 6 6 6 5 6 6 6 6 6 6 6 6 6 7 6 6 7 6 7 6 6 6 6 6 6 6 6 6 6 6 7 6 6 6 6 6 6 6 7 7 6 7 6 7 7 7 6 6 6 7 7 7 7 6 6 7 7 7 7 7 7 7 6 7 7 7 7 6 7 7 7 6 7 7 7 7 7 7 7 7 7 7 7 7 7 7 7 7 7 7 7 7 7 8 7 7 8 8 7 7 8 7 7 8 8 7 7 8 7 8 8 8 8 8 8 8 8 8 8 8 8 7 8 8 8 8 8 9 8 9 9 8 8 8 9 8 8 8 8 9 8 9 9 8 8 9 9 8 9 9 9 9 8 9 9 9 9 9 9 9 9 9 9 10 9 9 10 9 10 10 9 10 9 9 9 10 9 10 10 9 10 9 10 11 10 10 10 11 11 11 10 11 11 11 11 10 11 11 10 11 11 11 10 11 12 11 11 11 12 12 11 11 12 12 11 12 12 13 12 12 13 13 13 13 12 13 14 13 14 13 14 13 13 13 14 14 14 14 14 15 14 14 14 15 16 16 15 15 16 16 16 17 16 16 16 18 17 18 18 18 17 18 17 19 19 19 19 19 19 18 19 19 20 20 20 19 20 20 21 21 20 21 21 20 20 24 22 21 20 20 20 20 21 20 20 21 21 22 23 23 23 23 25 24 23 22 23 22 23 22 24 23 22 24 24 25 24 23 23 24 25 25 25 26 27 26 28 27 28 30 28 29 30 32 34 35 37 38 40 45 47 54 55 54 58 60 66 79 79 83 82 86 79 69 68 69 73 67 69 63 61 65 71 71 77 82 92 102 96 82 76 75 71 66 62 64 66 71 73 71 67 62 55 54 55 56 60 61 62 63 59 56 55 58 50 53 56 56 46 42 38 40 37 34 34 34 33 32 32 31 31 29 29 29 28 27 27 26 25 26 26 25 25 26 27 27 25 25 25 25 27 27 25 24 23 23 23 21 21 20 20 19 20 20 19 19 20 20 19 20 19 20 20 19 18 18 18 18 17 18 17 17 16 16 16 16 18 16 16 15 15 15 15 14 14 13 13 13 13 12 12 13 13 12 12 11 11 11 12 12 12 11 11 11 10 11 11 10 10 11 10 10 10 10 10 10 10 10 10 9 10 9 10 10 9 9 9 9 9 9 9 10 9 9 10 8 9 9 9 8 8 8 8 9 9 8 9 9 8 8 8 8 8 7 8 8 8 7 8 7 8 7 8 8 7 7 8 8 8 8 8 7 8 7 8 7 7 8 7 8 7 7 7 7 7 8 7 7 7 8 7 7 7 7 7 7 7 7 7 7 7 7 7 7 0 
6 6 6 7 6 7 6 6 6 6 5 6 6 6 6 6 6 6 6 6 6 6 6 6 6 6 6 6 6 7 6 6 6 7 7 6 6 7 7 7 6 6 6 6 6 6 6 7 6 6 6 7 7 7 7 7 6 7 6 7 7 7 6 6 7 7 7 7 7 7 7 7 7 7 7 7 7 8 7 7 7 7 7 7 7 7 7 7 8 7 7 8 7 7 7 8 7 7 7 7 7 7 7 7 7 8 7 8 8 7 8 8 7 7 8 8 8 7 7 8 8 8 8 8 8 9 8 8 8 8 8 8 9 8 8 8 9 8 8 8 9 8 9 9 8 8 8 8 9 9 9 8 8 8 8 8 9 8 9 9 9 9 9 9 9 9 8 9 9 10 9 10 9 10 9 10 9 10 10 9 10 10 10 10 10 10 10 10 10 10 11 10 11 11 10 11 10 10 11 11 10 10 11 11 11 11 10 11 11 12 11 11 12 12 11 12 11 12 11 12 11 11 12 13 12 13 13 13 13 12 13 13 13 13 13 13 13 14 14 13 15 13 13 14 14 14 15 15 14 14 15 15 15 15 15 16 16 16 16 16 17 17 17 17 18 18 19 19 18 18 18 18 19 19 18 17 18 19 18 19 18 19 19 19 21 20 21 21 20 19 23 21 21 19 20 21 18 20 20 20 20 22 21 21 22 22 22 22 23 24 24 23 23 23 22 22 24 23 23 24 23 23 23 25 25 24 24 26 25 26 26 26 25 27 27 29 30 30 32 32 33 36 36 39 42 47 48 53 55 58 63 71 77 82 81 87 91 88 77 72 71 73 64 62 60 58 63 65 69 71 76 88 104 110 91 78 71 67 61 59 63 59 61 63 64 63 64 59 54 53 54 57 59 61 61 63 57 57 60 50 52 48 48 44 39 40 36 35 33 33 33 32 32 32 32 29 28 28 27 27 28 27 25 25 25 24 26 24 26 27 27 26 26 25 24 28 26 26 24 23 23 22 22 21 21 20 20 19 20 19 19 19 20 20 19 19 20 19 19 19 18 18 16 17 16 16 17 17 16 16 16 17 15 15 14 14 14 15 14 14 13 13 13 13 13 12 12 12 12 12 12 11 11 11 10 10 11 11 11 11 10 10 10 10 10 10 10 10 9 10 10 9 10 10 10 10 9 10 10 9 10 9 9 9 9 9 8 9 8 9 8 9 9 8 9 8 9 8 8 8 9 8 8 8 8 8 8 8 8 8 8 8 8 8 8 8 8 8 8 8 7 8 8 7 8 8 8 8 7 7 7 8 7 7 8 7 7 7 7 7 8 6 7 7 7 7 7 7 7 7 7 6 7 7 6 6 7 7 7 0 
6 6 6 6 6 6 6 6 6 6 6 6 6 6 6 6 6 6 6 6 5 6 6 6 6 6 7 7 7 6 6 7 6 6 7 6 6 6 6 6 6 6 6 7 6 6 7 6 7 7 7 6 6 7 7 7 6 6 6 7 7 7 6 6 7 7 7 7 7 7 7 7 7 7 6 7 7 7 7 7 7 7 7 6 7 7 7 7 7 7 7 7 7 7 7 8 7 7 7 7 7 7 8 7 7 8 8 8 7 7 8 7 8 7 7 8 8 8 7 8 8 8 8 8 8 7 8 8 8 8 8 8 8 8 8 8 8 8 8 8 8 9 9 8 8 8 9 9 8 8 8 9 9 9 9 8 9 9 9 9 9 9 9 9 9 9 10 9 9 9 9 9 9 9 9 10 10 9 9 9 10 10 9 10 10 10 10 10 10 10 11 10 10 10 11 10 10 10 11 10 11 11 11 11 11 11 10 11 11 12 11 11 12 11 11 12 12 12 12 11 12 12 12 12 13 14 12 14 14 13 14 13 12 13 13 12 14 14 12 13 13 13 14 14 14 14 14 14 14 14 15 15 15 15 15 16 16 16 15 16 16 16 18 18 18 18 17 18 18 17 18 17 17 18 18 18 19 17 18 19 18 18 19 19 19 19 20 21 21 20 21 21 21 21 20 20 19 19 20 20 21 21 20 21 23 23 22 22 24 24 24 23 24 23 22 23 23 23 22 24 24 25 25 24 24 24 25 26 25 25 27 25 26 28 28 28 29 30 30 31 33 34 34 37 42 43 46 51 52 54 58 71 79 84 84 90 95 90 81 75 71 72 68 59 57 55 57 61 64 72 70 79 94 115 103 81 66 61 56 54 59 58 59 61 61 59 62 60 53 51 52 54 53 57 69 76 61 57 57 55 48 45 44 42 38 41 37 35 33 33 35 34 33 32 31 29 29 28 28 29 26 27 24 26 25 24 25 23 24 25 27 25 25 24 23 26 25 26 26 23 23 23 22 20 21 21 20 19 19 19 19 19 20 19 19 20 20 20 18 18 19 18 18 16 17 16 16 15 17 16 17 16 16 15 16 14 14 13 13 13 14 13 13 12 13 12 13 12 11 11 11 12 11 11 11 11 11 11 11 10 11 11 10 10 11 10 10 10 10 10 10 10 9 10 10 10 10 9 9 9 9 10 10 9 9 8 9 9 9 9 9 9 9 9 8 9 9 8 8 8 8 8 8 8 8 8 8 8 8 8 8 8 9 8 8 8 8 8 7 8 7 8 8 7 8 8 7 8 8 7 8 7 7 7 7 7 7 7 8 7 7 7 7 7 7 7 7 7 8 7 7 7 7 7 7 7 7 7 7 0 
6 6 6 5 6 6 5 6 6 6 6 6 6 6 6 6 5 6 6 6 6 6 6 7 7 6 6 6 6 6 6 5 6 6 6 6 6 6 6 6 6 6 7 6 6 6 6 7 7 6 7 6 7 7 7 7 6 7 7 7 6 6 7 7 7 7 7 7 7 7 7 6 7 7 6 7 7 7 6 7 7 7 7 7 6 7 7 7 8 7 7 7 7 7 7 7 7 7 7 8 7 7 7 8 7 8 7 7 8 8 7 8 7 7 7 7 8 7 7 8 8 8 8 8 8 8 8 8 7 8 8 8 8 8 8 8 8 8 8 8 8 8 8 8 8 8 9 8 8 9 9 8 8 9 9 9 9 9 9 8 9 10 8 10 9 8 9 9 9 9 9 9 9 9 9 9 10 9 10 9 10 9 9 10 9 9 10 10 10 10 10 10 11 10 10 10 10 11 11 10 10 11 10 11 11 10 11 10 10 11 11 11 10 11 11 11 12 12 12 12 11 12 12 12 12 13 13 13 14 13 12 13 12 13 13 12 13 13 13 13 14 14 14 14 13 13 14 12 14 14 15 14 15 15 15 15 15 15 17 15 17 16 17 17 16 17 17 18 17 17 17 17 17 17 18 16 18 18 18 17 18 17 18 17 19 19 19 20 21 20 24 21 21 21 19 20 19 19 19 20 20 21 21 21 21 20 20 21 23 23 23 22 23 23 23 24 23 24 23 24 25 25 25 23 24 25 24 24 25 25 26 25 26 26 28 27 28 28 29 29 30 31 33 35 37 38 42 48 50 52 54 66 80 89 87 93 91 90 84 77 75 74 71 59 55 52 56 57 64 64 72 70 82 99 104 89 66 59 53 53 55 56 57 59 59 64 59 58 57 58 61 60 58 72 68 71 60 57 54 52 46 42 42 40 41 39 36 34 33 32 32 32 31 32 30 29 28 27 27 27 25 26 25 25 26 26 23 23 24 24 26 26 25 25 25 26 26 27 25 24 24 21 21 21 20 19 20 20 20 18 19 18 18 20 19 20 19 19 19 19 18 18 18 17 17 15 17 16 16 16 16 15 15 16 14 14 14 14 14 14 14 12 13 13 12 11 11 11 11 11 11 11 11 11 10 10 10 11 10 11 11 11 10 11 10 10 10 10 10 10 9 10 10 10 10 9 8 9 9 8 9 9 9 9 9 9 9 9 9 9 9 9 9 9 8 9 8 8 8 8 8 8 8 7 8 8 8 8 8 8 7 8 8 8 8 8 8 8 7 8 7 7 7 7 8 7 7 7 7 8 7 8 7 8 7 7 7 7 7 7 7 7 7 7 7 7 7 7 7 7 7 7 6 7 7 7 6 6 7 0 
6 6 6 6 6 6 6 7 6 6 6 6 6 6 6 6 6 5 6 6 6 6 6 6 6 6 6 6 6 6 6 6 6 6 6 6 6 7 6 7 7 6 6 7 7 6 6 7 7 6 6 7 7 6 7 6 7 6 6 6 7 7 7 6 6 7 7 6 7 7 7 7 7 7 7 6 7 7 7 6 7 7 7 7 7 7 7 7 7 7 7 8 8 7 7 7 8 7 7 7 8 8 7 7 7 8 7 8 7 8 7 7 8 7 8 8 8 8 7 8 8 8 8 8 8 8 8 8 8 7 9 9 8 9 7 8 8 9 8 8 8 8 8 8 8 8 8 8 8 9 9 9 8 9 9 8 8 9 9 8 9 8 9 9 9 9 9 9 9 9 9 9 9 9 10 10 10 9 9 10 10 9 10 9 9 10 10 9 10 10 10 10 9 10 10 10 10 11 10 10 10 11 10 11 11 11 10 11 11 11 12 11 11 11 11 12 10 11 11 12 12 12 11 12 12 13 13 13 14 13 13 13 15 13 12 13 14 13 13 13 13 13 12 13 14 13 14 14 15 14 14 14 14 14 15 15 14 15 16 15 16 16 16 16 17 16 17 17 18 17 16 16 16 17 17 17 17 18 18 17 17 18 18 18 18 19 19 19 19 21 19 20 19 19 19 20 19 19 19 20 19 21 20 20 20 20 19 21 22 20 22 23 23 22 24 24 24 24 24 24 24 25 25 24 25 25 24 25 25 25 25 26 25 27 26 27 27 28 27 28 29 30 32 33 34 37 40 44 47 53 52 59 68 80 87 92 82 84 88 81 74 79 73 61 55 57 56 57 63 68 72 71 76 89 100 88 70 59 53 52 53 52 55 57 57 67 60 57 60 62 70 69 73 86 78 68 60 58 52 48 46 43 40 39 39 36 34 33 33 32 32 31 31 31 32 31 30 28 28 26 26 25 25 23 24 26 23 23 23 23 27 26 27 25 25 25 26 26 25 23 24 23 22 21 20 20 19 20 20 18 19 19 18 20 20 19 19 19 17 19 18 16 18 16 16 16 15 15 16 16 16 15 14 15 16 15 13 14 13 12 13 13 12 12 12 12 12 11 11 11 11 11 11 11 11 11 11 11 11 11 11 10 10 10 11 10 10 10 9 10 10 10 10 9 9 10 9 9 8 9 10 9 9 9 9 9 9 9 9 8 9 9 8 9 10 8 8 8 8 9 8 8 8 8 8 8 8 9 8 8 8 8 8 8 8 8 8 8 7 8 8 7 8 8 7 8 8 8 7 7 7 7 7 8 7 8 7 7 7 7 7 7 7 7 7 7 6 7 7 7 7 7 7 7 7 7 7 7 7 0 
6 7 6 6 6 6 6 6 6 6 6 6 6 6 6 5 6 6 6 6 6 6 6 6 7 6 6 6 6 6 6 6 6 6 7 6 6 7 7 6 6 6 7 6 7 7 7 6 6 7 6 6 6 6 7 7 7 6 7 7 7 6 6 6 7 7 6 7 7 7 6 7 7 7 8 6 7 7 7 6 7 7 7 7 7 7 7 7 7 7 7 7 8 7 8 7 7 7 7 7 7 7 7 7 8 7 8 7 8 8 7 7 8 7 8 8 7 8 8 7 8 7 8 7 7 7 8 8 8 8 8 8 8 7 8 8 8 8 8 8 8 8 8 8 8 9 8 8 9 8 8 9 8 8 9 9 8 9 9 9 9 9 9 9 8 9 9 9 10 9 9 9 9 9 10 9 9 10 10 10 10 9 10 10 10 10 9 10 10 10 11 11 10 10 9 10 10 10 10 10 11 10 10 10 11 10 11 10 11 11 11 11 11 10 11 12 11 11 11 11 12 12 11 12 12 14 13 14 13 12 13 15 13 13 12 14 13 13 13 13 12 13 13 13 13 14 14 14 14 14 14 13 15 13 14 15 15 15 15 15 15 16 15 16 16 16 16 16 15 16 15 17 16 16 17 17 17 19 17 16 16 17 18 17 18 18 18 18 18 22 19 19 19 20 19 19 19 19 19 20 20 19 20 19 21 19 20 20 19 20 21 20 21 23 23 22 23 23 24 23 26 24 24 25 24 25 25 27 26 26 25 25 25 26 26 27 26 25 25 28 28 30 30 31 33 32 36 38 41 46 46 54 60 63 77 84 81 82 89 88 84 84 76 67 62 58 56 59 65 70 76 74 79 80 79 76 69 58 50 51 53 55 54 58 59 63 56 59 65 67 67 67 73 75 67 59 57 58 52 47 45 41 40 38 36 36 34 32 33 31 32 31 32 32 31 29 28 28 27 26 26 25 25 25 24 24 23 23 22 23 24 25 27 27 26 26 28 27 25 26 25 23 23 20 21 20 20 20 19 19 19 19 19 19 20 19 19 19 19 18 18 18 17 16 17 16 16 16 16 15 14 14 14 15 15 14 14 14 13 14 14 11 12 12 12 12 12 11 12 11 11 11 11 10 11 10 11 10 11 10 11 10 10 9 11 10 10 10 10 9 10 9 9 9 9 9 8 9 9 10 9 9 9 8 9 9 9 9 9 8 9 8 9 8 8 8 8 9 9 9 9 8 8 9 9 8 8 8 8 8 8 8 8 7 8 8 8 8 8 7 7 8 8 8 7 7 7 8 7 8 7 7 7 7 7 7 8 7 7 7 7 8 7 7 8 7 7 7 7 7 7 7 7 6 7 7 7 7 6 0 
6 6 6 5 6 6 6 6 6 6 6 6 6 6 6 6 6 6 6 6 6 7 6 6 6 7 6 6 6 6 6 6 6 6 7 6 6 7 6 6 6 7 7 6 6 6 6 6 6 7 6 7 6 6 6 7 6 8 7 6 6 6 7 7 6 7 7 7 6 7 7 6 7 7 7 7 7 7 7 6 7 7 7 6 7 7 7 7 7 6 7 7 7 7 7 7 7 7 7 7 7 7 8 7 7 8 8 8 7 7 7 8 7 7 8 7 8 8 8 8 8 8 8 8 7 8 7 8 8 8 8 8 8 7 8 8 7 8 8 8 8 9 9 9 8 8 9 8 8 8 9 8 8 9 9 9 8 9 8 8 8 9 9 9 9 9 9 10 9 9 9 8 9 9 9 9 8 8 9 10 10 10 10 9 9 10 10 10 10 10 10 10 10 10 10 10 10 10 11 10 10 11 11 11 10 10 11 11 11 11 11 11 11 11 11 11 11 10 12 12 11 12 12 12 12 13 14 13 13 13 12 12 13 13 12 13 12 12 13 12 13 14 13 14 14 13 13 14 13 13 13 14 14 14 13 14 14 14 14 14 16 14 15 15 14 15 15 16 16 16 15 16 15 15 16 17 16 16 16 16 16 16 17 16 17 18 21 19 19 19 19 19 21 20 20 20 20 20 19 19 18 19 19 19 19 19 19 19 20 20 20 20 21 21 21 22 21 23 22 21 23 23 24 27 26 25 25 25 27 25 25 24 24 26 26 26 26 26 26 26 28 29 29 30 31 31 33 36 39 39 43 45 47 53 71 80 83 77 81 96 97 94 86 79 69 63 61 63 63 73 80 86 71 65 63 64 60 55 51 47 50 53 60 58 58 62 58 63 69 64 62 60 59 61 60 57 55 49 49 45 43 40 40 38 35 35 33 32 34 32 33 32 33 31 30 31 29 29 27 26 25 26 26 25 25 24 25 24 24 23 23 24 28 25 25 26 26 27 26 26 24 22 22 21 21 20 21 18 20 19 19 19 19 19 19 19 18 18 20 19 18 17 16 17 15 15 16 17 17 15 15 15 14 14 13 14 13 13 14 13 12 12 12 12 12 11 11 11 11 11 11 11 11 11 11 11 10 10 9 10 10 10 11 10 10 10 10 10 9 10 10 9 9 9 9 10 9 9 9 9 10 9 8 8 9 9 8 9 9 9 9 8 8 9 8 8 8 9 8 8 8 7 8 8 8 7 8 8 8 8 8 7 8 8 8 8 8 7 8 8 8 8 7 7 7 7 7 7 7 8 7 7 8 7 7 7 7 7 7 7 7 7 7 7 7 7 7 8 7 6 6 7 7 7 7 7 7 7 7 0 
6 5 5 6 6 6 5 6 6 6 6 6 6 6 6 6 6 6 5 6 6 6 6 6 7 6 6 6 6 7 6 6 6 6 6 7 7 6 6 6 7 6 6 7 6 7 6 7 6 7 7 6 6 7 7 7 7 7 6 7 6 7 7 7 7 7 7 7 7 6 7 7 7 7 7 7 7 7 7 7 8 7 6 7 7 7 7 7 7 7 7 7 7 7 7 7 6 6 7 7 7 7 7 7 7 7 7 7 7 7 8 8 8 7 8 8 8 8 7 8 8 8 8 8 8 7 7 9 7 8 8 8 8 8 8 8 8 8 8 8 8 8 8 8 9 9 9 9 8 8 8 9 8 8 9 8 9 9 8 8 8 9 9 8 9 8 9 8 8 9 9 10 9 9 10 9 9 10 9 9 9 10 10 10 10 9 9 10 10 10 10 10 10 11 10 10 10 11 10 11 10 10 10 11 11 11 11 11 11 11 11 11 11 11 11 11 11 11 11 11 11 11 12 12 12 12 12 12 13 12 12 12 12 12 12 12 13 12 12 12 13 13 12 13 13 13 13 12 13 13 13 13 13 13 14 14 14 14 15 14 15 15 14 15 15 15 15 15 15 15 15 15 16 16 15 16 16 16 16 17 17 17 17 17 17 17 19 18 19 18 18 19 20 20 20 20 18 18 18 18 18 19 18 19 18 19 18 18 19 19 19 19 20 20 20 20 21 22 21 22 23 23 22 25 25 25 25 25 26 24 25 23 25 24 24 25 26 27 26 26 26 28 28 29 29 30 32 33 35 36 38 40 43 46 57 68 78 72 73 88 96 108 96 92 84 80 67 62 63 68 78 90 68 59 57 59 60 56 52 48 49 55 62 62 58 62 62 67 66 63 61 58 59 59 55 51 48 46 48 41 40 41 38 36 35 34 32 33 32 33 34 32 31 30 30 29 29 26 28 27 25 26 26 25 27 25 24 23 22 24 23 25 27 27 24 26 27 26 27 23 23 22 21 21 20 21 20 19 19 19 18 18 18 18 19 18 19 18 19 19 17 16 17 17 16 16 16 16 15 15 15 14 15 13 14 13 13 13 13 13 12 13 12 12 12 12 11 11 11 11 10 11 11 10 10 10 10 11 10 10 10 10 9 9 10 9 10 10 10 9 9 10 9 9 9 9 9 9 9 9 9 9 9 9 8 8 9 9 9 9 9 8 9 8 8 9 8 8 8 9 9 8 8 8 8 8 9 8 8 8 8 8 8 8 7 8 7 8 8 7 7 7 7 7 7 8 8 8 8 8 7 7 7 8 7 7 7 7 7 7 7 7 7 7 7 7 8 7 6 7 7 6 7 6 7 7 7 7 6 0 
6 6 6 6 6 6 6 6 7 6 6 6 6 6 6 5 6 6 6 6 6 6 6 6 6 7 6 6 6 6 6 6 6 6 6 6 6 6 6 6 6 7 6 6 7 7 6 6 6 7 6 6 7 7 7 6 7 6 6 6 6 7 6 7 7 7 7 7 7 7 7 6 7 7 7 7 7 7 7 7 6 7 7 7 7 7 7 7 7 7 7 7 7 8 7 7 6 8 8 8 7 7 7 7 6 8 8 7 7 7 7 7 8 8 8 7 8 8 7 8 8 7 7 8 8 7 8 8 8 8 8 7 8 8 8 8 9 8 7 9 8 9 8 8 8 9 8 8 9 8 8 9 8 8 8 8 9 9 9 9 10 9 8 9 8 8 9 10 9 9 9 9 9 9 9 9 9 9 10 9 9 9 10 9 10 9 10 10 10 10 10 9 9 10 10 10 10 10 10 10 9 10 10 10 10 11 11 10 10 10 11 10 11 11 11 11 11 10 11 11 12 11 12 11 12 12 12 12 13 12 12 12 12 12 12 12 12 12 13 13 12 13 13 14 13 13 13 13 13 13 13 13 13 14 14 13 14 14 14 14 14 14 15 15 15 14 15 14 16 15 15 15 15 16 15 15 16 16 16 15 16 17 16 16 16 17 17 16 17 17 17 18 18 18 18 20 18 18 17 18 17 18 16 17 17 18 19 18 19 20 20 18 20 19 20 19 21 21 21 20 21 22 21 21 23 22 22 24 23 22 23 23 24 23 24 25 25 25 24 25 27 27 27 27 27 29 31 32 35 35 34 39 39 42 45 49 63 65 67 68 74 87 99 99 85 76 68 62 62 64 75 86 67 60 57 55 54 55 51 51 52 57 62 63 63 67 70 78 64 62 58 57 58 54 48 45 44 44 44 42 42 39 36 35 33 33 33 33 32 31 32 32 31 33 31 31 29 29 27 26 26 26 25 27 25 24 23 22 22 24 24 24 26 25 24 25 28 27 28 27 25 22 20 21 20 20 20 19 20 18 18 18 18 18 19 18 18 19 20 19 17 16 16 16 16 17 16 15 14 15 15 14 15 14 14 14 13 13 12 13 12 12 12 12 11 12 11 11 11 11 11 10 11 10 11 11 11 10 10 11 10 10 9 10 10 10 10 9 9 9 10 9 10 9 9 8 9 9 9 9 9 9 9 9 9 9 8 9 8 9 9 8 8 9 8 9 8 8 8 8 9 8 8 8 8 8 8 8 8 7 8 8 8 7 7 8 7 8 7 7 7 6 7 8 7 8 8 7 7 8 7 7 7 7 7 7 7 7 7 8 7 7 8 7 7 7 7 6 7 7 7 7 7 7 6 7 7 6 7 0 
6 6 6 6 6 6 7 7 6 6 6 6 6 6 7 6 6 6 6 6 6 6 7 6 6 6 6 6 6 7 6 6 7 6 6 6 6 7 6 6 6 7 6 7 6 7 6 6 6 6 6 7 7 7 6 6 7 7 6 7 6 6 7 7 6 6 7 7 6 6 7 6 7 7 7 6 7 6 7 7 7 7 8 7 6 7 7 8 7 7 7 7 7 8 7 8 7 7 8 7 7 8 8 7 7 7 8 7 7 7 7 8 8 7 7 8 7 8 7 7 8 7 7 8 8 8 8 8 8 8 7 8 8 8 8 8 7 7 8 8 8 8 9 8 8 8 8 8 8 8 8 9 8 9 9 9 9 8 9 9 9 8 8 8 9 9 8 9 8 9 9 9 8 9 9 9 10 9 9 10 9 9 9 9 9 9 10 10 10 10 10 10 10 10 10 9 11 15 10 10 10 10 11 10 11 11 10 10 11 11 10 10 10 11 11 11 11 11 11 11 11 12 12 10 11 11 12 12 11 12 12 11 12 11 12 12 12 12 11 12 13 13 12 14 13 12 12 12 13 13 13 13 13 14 13 13 14 14 14 14 14 14 14 14 15 14 15 15 14 15 15 15 15 15 15 16 15 15 15 16 15 15 15 16 16 16 16 17 16 16 16 16 16 16 17 18 17 17 17 17 18 17 17 17 18 18 17 19 19 19 19 19 19 19 18 18 20 18 19 19 18 21 20 20 20 20 21 22 21 22 22 22 22 23 22 23 24 24 24 26 24 25 26 29 27 28 30 30 32 32 34 37 38 37 38 40 43 48 48 49 53 63 80 97 97 83 70 67 61 59 67 79 67 61 55 56 53 55 54 53 55 59 59 63 67 66 68 66 62 58 55 53 54 49 47 43 44 44 42 42 40 38 35 33 31 32 31 33 31 31 32 33 31 32 31 29 32 28 27 26 27 26 25 25 24 24 23 21 24 24 23 24 26 25 25 25 27 27 28 25 24 22 21 19 21 21 20 19 18 19 18 17 17 19 18 19 19 19 18 18 17 16 15 16 16 16 15 15 14 14 14 13 13 13 14 14 14 13 12 12 12 12 12 12 11 11 11 11 11 11 11 10 11 11 10 10 10 11 10 10 10 10 10 10 10 10 9 10 10 9 9 10 9 9 10 9 9 9 9 9 9 8 9 9 8 8 9 9 8 9 8 9 8 9 8 8 8 8 8 8 8 9 8 8 8 8 7 8 7 8 7 7 7 8 8 8 8 7 7 7 7 7 8 7 8 7 7 8 8 8 8 7 7 8 8 8 7 7 7 6 7 7 7 7 7 7 6 6 7 7 7 7 7 7 7 7 6 7 7 0 
6 5 7 6 6 6 6 6 6 6 6 6 6 6 6 5 6 6 6 6 6 6 6 6 6 6 6 6 6 6 6 6 6 7 6 7 6 6 7 6 6 6 7 6 6 6 6 6 6 6 6 7 6 7 6 6 7 7 7 6 7 7 6 6 7 6 6 7 7 7 7 7 7 7 7 7 7 7 7 7 7 7 7 6 7 7 7 7 7 7 7 7 7 8 7 6 7 8 7 7 7 7 7 7 7 7 8 7 8 8 7 7 7 7 7 8 7 8 8 7 7 7 8 7 7 7 8 8 8 8 8 8 8 8 8 8 8 8 8 8 8 9 8 8 7 8 8 9 8 8 8 8 8 8 8 9 8 9 9 8 8 8 9 9 8 8 9 10 9 9 8 9 8 9 9 9 9 9 9 9 9 9 10 10 10 10 10 10 9 10 9 10 10 10 10 10 10 12 10 10 10 10 9 10 10 11 10 11 10 11 10 10 11 10 11 11 10 10 11 11 11 11 11 11 11 11 11 11 12 12 11 12 11 11 12 11 11 13 12 12 12 12 13 12 12 12 12 12 13 13 13 13 13 13 14 13 13 14 13 14 14 14 14 14 15 14 15 14 15 15 15 15 15 15 14 14 14 15 17 15 16 15 15 15 16 16 16 16 17 15 16 15 17 16 16 16 16 16 17 18 17 16 17 17 17 17 18 17 18 18 18 19 18 18 19 18 19 19 18 18 19 19 18 20 19 19 20 20 20 21 21 21 21 22 22 22 23 23 23 24 24 25 25 26 26 27 28 29 30 32 32 33 36 34 35 36 38 41 42 42 45 51 57 90 104 94 90 82 73 65 71 77 73 64 59 56 53 51 54 58 59 61 61 65 65 63 59 59 58 51 50 48 45 47 46 42 43 40 41 41 38 35 33 33 32 32 31 31 31 31 32 32 32 32 31 32 30 29 27 27 27 26 26 26 25 25 22 24 23 23 25 25 26 26 25 27 27 27 28 25 23 22 20 20 21 20 20 20 18 19 18 19 18 20 19 19 20 20 18 18 17 16 16 16 16 16 16 14 13 13 14 14 14 13 12 12 13 13 12 12 12 12 12 11 11 11 11 11 11 11 11 11 11 10 11 11 10 10 10 10 9 10 9 9 9 9 10 10 10 9 9 9 8 9 9 9 9 9 8 9 9 8 9 9 8 9 9 8 9 8 8 7 8 8 8 8 8 8 8 8 8 8 9 7 8 8 8 9 8 8 8 8 7 7 8 8 7 8 7 8 7 8 7 7 7 8 7 7 8 7 8 7 7 7 7 7 7 7 7 7 7 7 7 7 7 7 6 8 7 7 7 7 7 7 7 7 7 7 7 0 
6 6 6 6 6 7 5 5 6 6 5 6 6 6 6 6 6 6 6 6 6 6 6 6 5 7 6 6 6 6 6 7 6 6 6 6 6 6 6 6 6 7 7 6 6 6 7 6 7 7 6 6 7 6 6 6 7 7 6 6 6 6 6 7 6 6 6 6 7 7 6 6 6 7 7 7 7 7 7 7 7 6 6 7 7 7 7 7 7 7 6 7 7 7 7 7 7 6 7 7 7 7 7 7 7 7 7 7 7 7 7 7 7 8 7 8 8 7 7 8 8 7 7 8 7 7 8 7 8 7 7 8 8 7 8 7 8 8 8 8 8 8 8 8 8 8 8 8 9 8 8 8 8 8 9 8 9 8 8 8 9 8 8 9 8 8 9 9 8 9 9 9 9 9 8 9 9 9 9 9 10 9 9 10 9 9 9 9 10 10 10 10 10 10 10 10 10 11 10 10 10 10 11 11 10 10 10 11 11 10 10 10 10 11 11 11 11 11 11 11 11 11 11 12 11 10 11 12 11 11 12 11 12 11 12 12 11 11 12 12 13 12 12 12 12 12 13 12 13 14 13 13 13 14 13 13 13 14 13 15 14 14 14 14 14 14 14 14 16 14 15 14 14 15 15 15 15 15 15 15 16 15 16 15 16 15 16 15 16 16 16 16 16 16 17 16 17 16 16 15 16 16 16 17 17 16 17 18 18 17 17 17 18 18 18 18 19 17 18 18 19 19 19 19 18 19 19 20 20 20 20 20 20 21 22 21 21 22 21 23 24 24 25 25 27 27 27 27 28 29 31 31 32 31 35 34 36 35 36 39 40 43 49 67 95 92 93 99 91 92 87 89 83 73 58 56 51 49 56 65 72 69 65 60 61 56 58 54 52 47 47 45 46 45 48 43 41 43 41 38 35 33 32 33 32 33 32 31 30 32 32 31 30 32 32 29 29 30 30 28 28 26 26 25 26 25 23 23 23 22 23 29 29 30 28 28 28 27 25 24 24 22 22 20 21 19 19 19 18 17 17 18 17 19 19 20 22 18 18 17 17 16 16 16 16 15 15 14 13 14 14 12 13 13 13 12 12 12 12 12 12 11 12 11 11 11 11 11 11 11 10 10 10 11 10 11 10 10 10 10 10 10 10 9 10 9 9 9 10 9 10 8 9 9 9 9 9 9 9 9 9 9 9 9 9 9 8 8 9 8 8 8 8 8 8 9 8 8 8 8 8 8 8 8 8 8 8 8 8 7 8 8 8 7 8 8 7 7 7 7 7 7 6 7 7 8 7 7 7 7 7 8 7 7 7 8 7 7 7 6 7 7 7 7 7 7 7 7 7 7 6 7 7 7 7 7 7 7 6 0 
6 6 6 6 6 6 6 6 5 6 6 7 6 6 6 6 6 6 6 6 6 6 6 6 6 6 7 6 6 6 6 7 6 6 6 6 6 6 6 6 6 6 6 6 6 6 6 6 7 6 6 6 6 6 6 6 6 6 6 7 7 7 7 6 7 7 6 7 7 7 6 6 7 7 7 6 7 7 7 6 7 7 7 7 7 8 7 7 7 7 6 7 6 7 8 7 7 7 7 7 7 7 7 8 8 7 7 7 7 8 7 8 7 7 7 7 7 8 7 7 8 8 7 8 8 8 8 8 8 7 8 8 8 7 8 8 7 8 7 9 8 8 8 9 7 8 9 7 8 8 8 8 8 8 8 8 9 8 9 8 8 9 9 9 8 9 8 9 8 8 8 8 9 9 9 9 9 10 9 9 8 9 10 9 10 9 9 9 10 10 10 10 10 9 10 10 10 10 10 9 10 10 10 11 10 10 10 10 10 10 10 10 10 11 11 10 10 11 11 10 10 11 11 11 11 12 11 12 11 11 11 11 11 12 12 12 11 11 12 11 12 12 12 12 13 12 12 12 12 13 14 12 13 13 14 14 13 14 14 14 14 13 13 14 14 14 14 14 14 14 14 14 15 14 14 14 14 15 15 14 16 16 15 15 15 15 15 16 15 16 16 16 16 17 15 17 16 16 16 16 16 17 16 16 17 17 17 16 17 16 17 17 18 17 18 17 17 18 17 18 19 18 18 19 19 18 19 20 20 19 20 20 20 20 21 20 21 22 21 22 23 23 24 25 26 30 27 27 28 28 28 29 30 31 32 30 32 34 35 35 36 39 42 49 60 63 69 84 88 95 92 93 87 71 57 57 54 48 56 63 66 66 65 59 56 55 54 48 46 45 46 42 43 43 45 47 44 41 41 39 35 33 31 29 30 32 31 31 30 31 30 31 31 30 32 30 29 30 30 28 28 26 25 27 26 25 26 25 22 24 23 25 29 28 30 30 27 28 26 24 22 21 21 19 20 20 19 19 18 18 18 19 19 19 20 20 20 18 18 17 16 17 17 15 16 15 15 13 14 14 13 13 13 13 13 12 12 12 12 11 12 10 11 11 11 11 11 10 11 10 11 11 10 10 10 11 10 10 10 10 10 10 9 10 10 10 10 9 9 9 9 9 9 9 9 9 8 9 9 9 8 9 8 9 8 9 8 9 8 8 8 9 9 9 9 8 8 8 8 8 8 8 8 8 8 8 8 8 8 8 7 7 7 7 8 8 7 8 8 7 7 8 7 8 7 8 8 7 7 7 7 8 8 7 7 7 8 7 7 6 7 7 7 7 7 6 7 7 7 7 7 7 7 7 7 7 7 6 7 0 
6 6 6 6 6 6 6 6 6 6 6 7 6 6 6 6 6 6 6 5 6 6 6 6 6 6 6 6 6 6 6 6 6 6 6 6 7 7 6 7 6 6 6 7 6 7 7 7 7 6 6 6 7 6 7 6 6 6 6 6 7 7 7 7 7 7 6 7 7 7 6 7 6 7 6 7 7 7 7 7 8 7 7 8 8 7 7 7 7 7 7 6 7 7 7 7 7 8 7 7 8 7 7 7 7 7 7 7 7 7 8 7 7 7 8 7 7 7 8 7 7 8 8 8 8 7 8 8 7 8 8 8 8 8 8 8 8 8 8 8 8 8 8 8 8 8 8 7 8 8 8 8 8 9 8 8 9 8 8 9 9 9 9 8 8 8 9 8 9 8 9 9 9 9 9 8 8 9 9 9 9 8 9 9 9 9 10 10 10 10 10 9 10 9 10 10 9 9 9 10 10 10 10 10 10 10 10 10 10 10 10 10 10 10 10 10 10 10 10 11 10 10 11 11 11 11 11 11 12 11 12 12 11 12 11 12 12 11 12 11 12 11 12 13 13 13 12 13 13 12 13 13 12 12 12 13 14 13 13 13 14 13 14 13 15 15 14 14 14 15 13 15 14 14 14 15 15 16 15 15 15 14 14 15 14 14 15 15 15 15 14 15 15 15 15 16 15 15 16 15 16 17 16 15 16 17 16 17 16 17 17 17 17 17 17 17 17 17 17 17 18 19 17 18 18 19 19 19 20 18 20 19 21 19 20 21 20 21 22 22 23 22 23 25 26 28 26 27 25 28 27 28 28 29 31 29 30 31 32 34 34 36 38 42 45 45 54 64 65 70 71 81 71 62 52 50 55 50 52 55 68 71 67 57 54 48 45 46 43 41 43 42 41 44 44 43 39 39 37 35 34 30 29 28 29 29 29 29 29 30 30 30 29 30 27 29 29 28 33 30 29 26 28 27 26 25 24 24 25 24 24 25 26 31 32 31 28 27 25 23 21 21 21 20 21 19 19 19 18 18 18 18 19 20 19 19 19 18 18 17 16 16 16 16 14 14 14 14 13 13 13 14 12 12 12 12 12 12 11 12 11 11 11 11 11 11 10 11 10 10 11 11 11 11 10 10 9 10 10 9 9 10 9 9 9 10 9 9 8 9 9 9 9 9 9 9 8 9 8 9 9 9 8 8 9 8 9 8 8 8 8 8 8 8 8 8 8 8 8 8 8 8 8 8 8 8 7 8 8 8 7 8 7 7 7 8 7 7 8 8 8 7 7 7 7 7 7 7 8 7 7 7 8 7 7 7 7 7 7 7 7 7 7 7 6 7 7 7 7 7 7 7 7 7 7 7 6 7 7 0 
5 6 6 6 6 6 6 6 6 6 6 6 6 6 6 6 6 6 6 6 6 6 6 6 6 6 6 6 5 6 7 6 6 6 6 6 6 6 7 6 6 6 6 7 7 6 6 6 6 6 7 6 6 7 6 7 6 6 7 7 6 6 6 7 6 7 6 7 6 6 7 7 7 7 7 7 7 6 6 7 6 7 7 7 7 7 7 7 7 7 7 7 7 7 7 7 7 7 7 7 7 7 8 7 8 7 8 7 7 7 7 7 8 7 7 8 7 8 7 7 7 7 7 7 8 8 7 7 7 8 7 8 8 8 8 7 8 8 8 8 9 8 9 8 8 8 8 8 8 8 8 8 8 8 8 9 8 8 8 8 8 8 8 9 8 9 8 9 8 8 9 9 9 9 9 8 9 9 9 9 9 9 9 9 9 10 9 10 9 10 9 10 9 10 10 10 10 10 10 10 10 10 11 10 10 9 10 10 10 10 10 11 10 11 10 11 10 11 11 11 10 11 11 10 11 11 11 11 11 11 11 12 12 12 12 11 12 11 11 12 13 13 13 13 11 12 12 12 13 13 13 13 13 12 13 13 12 14 13 13 14 13 12 13 13 13 14 14 14 14 14 15 14 14 14 14 16 18 16 14 14 15 15 15 15 15 15 15 15 14 16 15 15 16 15 15 15 16 16 15 15 15 16 15 15 15 15 16 16 16 17 17 16 16 17 17 17 17 17 17 18 18 17 17 18 17 18 18 18 19 18 19 19 20 20 20 21 20 20 23 24 23 23 24 24 24 24 26 24 26 27 27 27 27 27 27 28 29 30 31 31 33 34 36 38 39 42 47 52 54 62 67 60 51 48 44 50 47 47 47 56 63 65 52 46 45 45 42 38 38 40 41 41 44 47 42 41 39 34 32 30 30 33 27 26 28 28 29 29 30 29 30 30 30 28 30 28 28 30 29 27 27 27 26 25 25 24 24 23 24 24 25 26 32 33 33 28 24 23 23 23 22 21 20 21 19 19 19 18 18 19 18 19 18 19 18 18 17 17 17 16 16 16 15 14 14 14 14 13 13 14 13 13 12 12 12 12 12 11 12 12 11 11 11 11 10 10 11 10 10 10 10 10 10 10 11 10 10 10 10 10 9 9 10 9 10 9 9 10 9 9 9 9 9 9 9 9 8 9 9 9 9 9 8 9 9 8 8 8 8 8 8 8 8 8 8 7 8 9 8 8 8 8 8 8 8 8 7 8 8 8 8 8 8 8 7 7 7 8 7 8 7 8 7 7 7 7 7 7 7 7 7 7 8 7 7 6 6 7 7 7 7 7 7 7 6 7 7 7 7 7 6 7 7 7 7 6 7 7 0 
6 7 6 6 6 6 6 6 6 6 6 6 6 6 6 6 6 7 6 6 6 6 6 6 6 6 6 6 6 6 7 6 6 6 6 6 6 6 6 7 7 6 6 6 6 7 6 6 7 7 7 6 6 6 6 6 7 6 7 6 6 7 7 6 7 7 6 6 6 7 6 7 7 7 6 7 7 6 7 7 6 7 7 7 7 7 7 7 7 7 7 7 7 7 6 7 7 6 8 7 7 7 7 7 7 7 8 7 7 7 7 7 7 7 8 7 7 7 7 7 7 7 8 7 7 7 7 8 8 8 8 7 8 8 8 8 7 8 7 9 7 8 8 8 8 8 8 8 8 8 9 8 9 8 8 9 8 8 7 9 8 9 9 8 8 9 9 9 9 9 9 9 9 9 10 9 9 9 9 9 10 9 8 9 9 9 10 10 10 9 10 9 10 9 9 10 10 10 10 11 10 10 10 10 10 10 10 10 11 10 10 10 10 10 11 10 10 10 11 10 11 11 11 10 10 10 11 10 11 11 11 11 12 11 12 11 12 12 12 11 11 11 12 12 11 12 12 13 12 13 12 12 13 13 14 13 13 14 13 13 13 14 13 13 13 13 13 14 13 14 14 14 14 15 14 14 15 15 14 14 14 14 15 15 15 15 15 15 15 15 15 15 16 15 15 15 15 15 15 16 15 15 15 16 15 16 16 15 17 16 16 16 16 16 17 16 17 17 17 17 17 17 17 17 17 17 18 18 18 19 18 19 18 20 19 20 19 19 20 21 23 21 21 21 22 23 24 24 24 25 26 25 26 26 26 27 27 27 27 28 29 30 32 33 33 35 37 39 42 41 53 65 54 47 48 46 44 41 42 44 49 58 63 51 43 46 43 41 36 37 40 42 45 40 43 39 40 36 33 32 31 29 28 26 26 26 27 27 30 30 29 28 28 28 30 29 28 28 30 29 28 28 27 25 25 24 24 25 23 23 25 27 27 32 34 33 26 26 24 23 23 22 22 24 23 20 20 18 19 18 19 17 18 19 17 18 17 16 16 16 15 16 15 14 15 13 13 14 14 13 13 13 12 12 12 12 12 12 11 10 12 10 11 11 10 11 10 11 10 10 10 11 10 10 10 10 9 10 10 10 9 9 9 10 9 10 9 10 9 9 9 9 9 10 9 9 8 9 9 9 8 9 8 9 9 9 8 8 9 8 8 8 8 7 8 8 8 8 8 8 8 8 8 8 8 8 8 8 8 8 7 8 8 7 8 7 7 7 7 8 7 8 7 7 7 7 8 7 7 7 7 7 7 7 8 7 7 7 7 7 7 7 7 7 6 7 7 7 7 6 7 6 7 6 6 7 7 7 7 0 
6 5 6 6 6 6 6 6 6 6 6 6 6 5 6 6 6 6 6 6 6 6 6 6 6 7 6 6 7 6 6 6 6 6 6 7 6 6 6 7 7 6 7 6 5 7 6 6 7 7 6 6 6 6 6 6 6 7 6 6 7 6 6 6 7 7 7 6 7 6 6 6 7 7 7 7 7 7 7 7 6 7 6 7 7 6 7 7 7 7 7 7 7 7 7 7 8 7 7 7 6 7 7 7 7 7 7 8 8 7 7 8 7 7 7 7 7 7 7 8 7 7 7 8 7 8 8 8 8 7 8 7 8 7 8 8 8 7 8 8 8 8 8 8 8 9 8 9 8 9 8 8 8 8 8 8 9 8 9 9 8 9 8 9 8 9 9 9 9 8 9 8 9 9 9 9 8 9 9 9 9 9 9 9 9 9 9 9 10 9 9 9 9 9 10 10 11 10 9 10 9 10 10 11 9 11 10 10 10 10 10 10 10 10 10 10 11 11 10 10 10 10 10 10 11 11 11 10 11 10 11 11 11 11 10 11 12 11 12 12 11 11 12 11 12 12 13 11 12 12 12 12 12 12 12 12 12 13 13 14 13 13 13 13 13 14 13 14 14 13 14 14 14 14 14 14 14 14 14 14 14 14 13 15 15 15 14 14 15 14 14 15 15 14 15 14 15 15 15 16 15 15 15 15 16 16 15 16 16 16 15 16 16 16 17 16 17 17 16 18 17 17 16 16 17 17 16 18 19 18 18 18 18 18 19 19 20 19 20 21 20 20 22 22 22 22 23 23 23 24 24 24 24 26 25 26 25 26 26 27 28 29 30 29 30 31 33 34 37 40 48 70 55 48 50 43 37 36 38 41 42 52 55 44 42 40 39 38 38 35 37 39 43 39 43 36 35 35 34 33 29 28 27 27 26 26 29 28 28 29 27 29 31 28 28 27 28 28 31 29 27 27 25 24 23 24 22 26 25 25 27 29 27 30 31 26 26 24 23 22 22 22 20 22 22 21 19 18 17 18 19 18 17 19 19 18 18 16 15 15 14 14 14 15 14 14 14 13 13 12 13 13 12 12 12 11 12 11 11 11 11 10 11 11 11 11 10 11 10 10 10 10 10 10 10 10 10 10 10 10 10 9 10 10 10 10 9 9 9 9 9 9 8 9 8 9 9 8 8 8 9 8 9 8 8 8 8 8 8 8 7 8 8 8 8 8 8 8 8 8 8 8 8 8 8 8 7 8 7 8 8 8 7 7 7 8 7 8 7 7 7 7 7 7 7 8 7 7 7 7 7 7 7 7 7 7 7 7 7 7 7 7 7 7 7 7 7 7 7 7 7 7 7 7 7 7 7 6 7 0 
5 6 5 6 6 6 6 6 6 6 6 6 6 6 6 6 6 5 6 6 6 6 6 6 6 6 7 6 6 6 6 6 6 6 6 7 6 6 6 6 7 6 6 6 6 6 6 7 6 6 6 6 7 7 6 6 6 6 7 6 6 6 7 7 6 6 7 6 7 7 7 6 7 7 7 7 6 7 6 7 7 7 7 7 6 7 7 6 8 7 7 7 7 7 7 7 6 7 7 7 7 7 7 8 7 8 7 7 7 7 8 7 7 7 8 7 7 7 7 7 8 7 8 7 7 7 8 7 8 8 8 7 7 8 8 7 7 8 8 8 8 8 8 8 8 8 8 8 9 8 8 8 9 8 8 8 8 8 8 8 8 8 8 8 8 8 9 9 9 8 9 9 9 8 8 9 9 9 9 10 9 9 9 9 9 9 9 9 9 9 9 9 10 10 9 9 10 9 10 9 10 10 10 9 10 10 9 10 10 9 10 11 10 10 10 10 10 10 11 9 10 10 10 11 10 11 11 11 11 11 10 12 11 11 12 11 12 12 11 12 12 11 12 12 11 12 12 13 11 13 12 12 12 12 12 13 12 13 13 13 13 13 13 13 14 14 13 13 13 14 13 14 13 13 14 14 15 13 14 15 14 13 15 14 13 13 14 14 14 15 13 14 14 14 15 15 14 14 14 15 14 14 14 14 16 15 15 15 16 16 15 16 16 15 17 17 16 16 17 16 16 16 16 17 16 17 17 17 17 17 18 18 18 18 18 19 18 19 19 20 19 20 20 20 20 20 21 22 23 23 23 25 26 24 24 24 25 24 26 24 26 26 28 27 30 30 31 32 34 37 43 72 59 55 58 45 38 37 38 40 43 51 54 41 35 37 36 35 37 35 35 38 39 36 37 34 33 32 34 33 29 27 26 27 28 29 30 27 30 28 30 29 28 28 27 28 29 31 31 29 28 26 26 25 23 24 24 25 25 26 29 29 29 29 26 25 24 24 23 22 22 21 20 20 19 19 20 19 19 18 19 18 20 20 19 18 17 16 15 14 14 14 14 14 15 14 15 13 12 13 13 13 13 12 11 12 11 11 11 11 11 12 11 11 11 11 10 10 11 11 10 10 10 10 10 9 10 9 9 10 10 10 9 9 8 9 9 9 10 10 9 9 9 9 8 9 9 9 9 8 8 9 9 8 9 9 8 8 9 8 8 7 8 8 8 9 8 8 8 8 8 8 8 8 9 7 7 8 7 7 7 7 7 8 8 8 8 8 7 7 8 8 7 8 7 7 8 7 7 7 7 7 7 7 7 7 7 7 7 7 7 7 7 7 7 7 7 7 7 7 7 7 7 6 7 7 7 7 7 0 
6 6 6 6 6 6 6 5 6 6 6 6 6 6 6 6 7 6 6 6 6 6 6 6 6 5 6 6 6 5 6 6 6 7 6 6 6 6 6 6 6 6 6 7 6 6 6 7 7 6 6 6 7 7 6 6 7 7 7 6 7 6 6 6 6 7 6 7 7 6 7 6 6 6 7 7 7 7 7 7 7 7 7 7 7 7 7 7 7 7 7 7 7 7 8 7 8 7 7 7 7 8 7 7 7 7 8 7 7 7 7 7 7 7 7 8 7 7 7 7 8 7 8 8 7 7 7 7 7 8 8 7 7 8 8 7 7 8 8 7 8 8 8 8 8 8 8 8 8 8 8 8 8 8 8 8 7 7 8 8 8 9 8 8 8 9 9 8 8 8 9 9 9 8 8 9 9 9 9 9 9 9 9 9 9 9 9 9 9 9 9 10 10 10 9 9 9 10 9 9 10 10 10 10 10 10 10 10 10 10 10 11 10 11 10 10 11 10 10 11 10 11 10 11 10 11 11 11 10 11 11 11 11 11 12 11 11 11 11 10 12 11 12 12 11 11 11 11 12 12 12 11 12 12 13 13 12 12 13 13 13 12 13 12 14 13 13 13 13 13 13 14 13 14 14 14 13 14 13 13 13 14 13 14 13 14 13 14 15 14 14 15 14 13 14 15 14 14 15 15 15 14 14 15 14 15 16 14 14 15 15 15 15 15 16 15 16 15 15 16 16 16 16 16 16 16 17 17 17 17 17 17 17 17 19 18 19 19 19 17 20 19 19 20 20 21 21 20 21 22 23 25 23 22 22 22 23 22 24 25 24 26 25 26 28 27 29 30 31 34 40 63 76 59 59 61 51 41 46 49 47 55 45 37 33 32 31 32 33 34 34 34 35 36 34 32 31 31 29 33 30 29 27 26 27 27 29 26 26 26 26 29 28 27 25 28 30 34 35 30 26 26 26 26 23 26 28 26 26 26 29 28 27 26 24 23 23 21 22 21 22 21 22 21 20 20 19 19 20 18 19 19 20 19 17 16 16 15 15 14 14 14 14 13 15 13 13 13 13 13 12 13 13 11 12 11 12 11 11 11 11 10 10 10 10 11 11 10 10 10 11 10 10 9 9 10 10 10 10 9 9 10 8 10 10 9 9 9 9 9 9 9 9 9 9 8 9 9 8 8 9 9 8 8 9 9 8 8 8 8 8 8 8 9 8 8 7 8 8 8 8 8 8 8 7 8 8 7 8 8 8 7 7 7 7 7 8 8 7 7 7 8 7 7 8 7 8 7 7 7 7 7 7 7 7 7 7 6 7 7 7 7 7 7 7 7 7 6 7 7 6 7 7 6 6 6 6 7 7 0 
6 6 6 6 6 6 6 6 6 6 6 6 6 6 6 5 6 6 6 6 6 6 6 6 6 6 6 7 6 6 5 7 6 6 6 6 6 6 6 6 6 7 6 6 6 6 6 7 6 6 7 7 7 6 6 7 7 6 6 6 6 7 6 7 6 7 7 7 7 6 7 7 7 6 7 7 7 6 7 6 6 6 7 7 6 7 6 7 7 7 7 7 7 7 7 6 8 7 7 7 7 7 7 7 7 8 7 7 7 7 7 7 7 8 7 7 8 7 8 8 7 7 8 7 8 8 8 8 7 7 7 7 8 8 7 8 7 7 8 8 7 8 8 8 7 7 7 8 9 8 8 8 8 8 9 9 8 8 8 9 8 8 8 8 9 8 9 8 8 9 8 9 9 8 9 9 8 8 9 8 9 9 9 9 10 9 9 9 9 9 9 9 9 9 10 9 9 10 10 10 10 10 10 10 9 10 10 10 10 10 10 10 10 10 10 11 10 10 10 11 11 10 10 10 10 10 11 10 10 11 10 10 11 11 11 12 11 11 11 11 12 11 11 11 11 13 12 11 12 11 12 12 12 12 12 13 13 12 14 12 12 12 12 13 13 13 12 13 13 13 13 13 14 14 13 13 13 14 14 13 14 13 14 13 13 14 13 14 13 14 14 14 13 13 13 15 15 14 14 14 14 14 14 15 14 13 16 15 15 15 15 15 15 16 16 15 15 16 15 16 16 16 16 16 16 16 16 16 18 17 17 18 17 18 17 17 19 19 19 19 18 19 19 19 20 19 21 20 21 21 21 23 21 22 22 21 22 23 23 23 24 26 25 24 26 26 28 29 30 31 37 49 79 79 65 78 76 51 53 59 50 56 39 32 31 30 29 27 29 28 29 29 30 31 30 29 30 30 31 29 30 30 28 27 27 26 27 26 25 26 27 26 28 29 27 30 31 30 35 32 27 25 22 25 24 23 27 27 28 25 29 26 24 25 22 21 22 21 20 21 22 21 20 19 20 21 18 21 20 19 19 17 19 17 15 16 15 15 15 14 13 13 14 12 13 13 13 13 13 12 12 11 12 12 11 12 11 11 11 10 12 10 10 11 11 11 10 10 10 10 10 10 10 10 10 10 9 10 9 10 10 9 10 9 9 9 9 9 10 9 9 8 9 9 8 8 9 8 8 9 8 9 8 8 9 8 9 9 8 9 8 8 8 8 8 8 8 8 8 8 7 7 8 8 8 7 7 8 8 8 7 8 8 7 7 7 7 7 7 7 7 7 8 7 7 7 7 7 7 7 7 7 7 7 7 7 7 7 7 7 7 7 7 7 7 7 7 7 7 7 7 7 7 6 7 6 6 7 7 0 
6 6 6 6 6 6 6 6 6 6 6 5 6 6 6 7 6 6 6 6 7 6 7 6 6 6 6 6 6 6 6 7 5 6 6 6 6 6 6 6 7 7 7 6 7 7 6 7 6 6 6 6 6 6 6 6 7 6 6 6 6 6 6 6 6 7 7 7 6 7 6 7 7 7 7 6 7 7 6 7 7 6 7 6 7 7 6 7 7 7 7 7 7 7 7 7 7 7 7 7 7 7 7 7 7 7 7 7 6 8 7 7 7 8 7 7 7 7 7 7 8 8 7 7 8 7 8 7 8 8 8 9 8 8 8 8 8 8 8 7 7 8 8 8 7 8 8 7 8 8 8 8 8 8 8 8 8 8 8 8 8 9 8 9 8 8 8 9 8 9 9 8 9 8 9 8 9 9 8 9 9 9 9 10 8 9 9 9 9 9 9 9 9 10 10 9 9 9 9 10 10 10 9 9 9 11 10 10 10 11 10 9 9 10 10 10 10 10 11 10 10 10 9 10 11 11 11 11 11 11 11 11 11 11 11 11 10 11 11 11 11 11 11 11 11 12 12 11 11 12 12 12 11 13 12 12 12 13 13 13 12 12 12 13 12 13 13 13 12 13 13 13 13 13 12 12 13 13 14 13 13 13 12 14 13 13 14 13 14 14 13 13 14 14 14 14 14 14 14 14 14 14 14 15 15 15 15 14 15 15 15 15 15 15 15 15 15 15 15 16 16 15 16 15 16 16 16 16 16 16 17 17 17 16 17 17 17 18 18 19 18 18 19 19 19 20 19 19 20 21 20 21 21 21 21 20 21 21 23 22 22 23 24 24 24 25 25 26 28 29 32 37 51 68 77 81 74 59 66 59 45 43 36 30 28 28 27 27 27 27 28 28 27 29 27 29 29 30 29 28 29 31 29 27 27 26 26 25 25 24 24 26 27 26 26 32 31 28 32 32 29 26 24 24 24 25 26 27 27 27 28 25 25 24 24 21 21 19 19 20 19 19 19 19 19 20 19 21 18 18 18 17 17 16 16 16 16 14 14 14 14 13 13 13 13 14 12 12 12 12 11 12 11 12 11 11 11 11 11 11 11 10 11 10 10 11 10 10 10 10 9 10 10 9 9 10 10 10 9 10 9 9 10 9 9 9 9 9 9 9 8 9 9 9 8 9 9 8 8 8 8 8 9 9 8 9 8 8 8 9 8 8 9 8 8 8 8 7 8 8 7 8 7 8 8 8 7 8 8 7 7 7 7 8 8 7 7 7 8 7 7 8 8 8 7 7 8 7 7 7 7 7 7 7 7 7 7 6 7 7 7 6 7 7 7 6 6 6 6 6 6 7 6 6 6 6 7 7 7 0 
6 6 6 6 6 7 5 6 6 6 6 6 6 7 6 6 6 6 6 6 6 6 6 6 6 6 6 6 6 6 6 6 6 6 6 6 6 6 7 6 6 6 6 6 6 6 6 7 7 6 6 6 6 6 7 7 6 7 7 7 6 6 7 7 7 6 6 7 7 6 7 6 7 6 7 7 7 6 6 7 7 7 7 7 7 7 6 7 7 7 7 7 7 7 6 7 8 7 7 7 7 7 7 7 7 7 7 7 7 7 7 7 7 8 7 7 7 7 8 7 7 7 7 7 7 8 7 7 8 8 8 7 7 7 8 8 7 8 8 7 8 8 8 7 8 8 8 8 9 8 8 8 8 8 8 8 7 7 8 8 8 8 8 8 8 8 8 9 8 8 9 9 9 9 9 8 9 9 9 10 9 8 9 9 9 9 9 9 9 8 10 9 10 9 10 10 10 10 10 10 10 10 10 9 9 10 9 10 10 10 10 10 10 10 10 10 10 9 10 10 10 10 12 10 10 10 11 11 11 11 10 11 11 11 10 11 11 11 12 12 11 11 11 11 11 12 11 11 12 11 11 11 11 12 11 12 12 12 12 12 12 12 12 12 12 13 12 13 13 12 13 12 13 12 13 13 13 13 13 13 14 12 13 13 13 13 14 13 14 13 14 14 13 14 15 13 14 14 14 13 13 14 14 14 14 14 14 15 14 14 14 15 15 15 14 15 15 16 15 16 15 15 15 15 17 16 16 17 16 17 16 17 18 16 17 17 18 17 17 18 18 19 18 18 18 19 19 20 19 20 20 21 22 21 20 21 22 22 22 22 23 23 23 23 24 24 24 26 27 26 29 34 35 44 54 58 59 52 61 45 39 39 31 27 27 26 26 25 26 25 26 27 25 26 28 29 29 29 29 30 30 30 27 25 26 26 26 25 23 25 24 25 26 27 27 29 32 29 30 28 28 26 24 23 25 28 30 30 28 30 29 26 24 24 23 21 20 21 19 20 21 20 20 19 19 19 18 18 18 18 16 17 16 15 15 15 16 14 14 14 13 14 13 13 13 13 12 11 12 11 12 12 11 11 12 12 11 11 11 11 10 10 10 10 10 10 10 10 10 10 10 10 9 11 10 9 9 10 9 10 10 9 9 10 10 9 10 10 9 9 8 8 9 9 9 9 9 9 9 9 9 8 8 9 8 8 8 8 8 8 8 8 8 8 8 8 8 8 8 7 8 8 8 8 7 7 7 8 7 8 8 7 8 7 7 7 7 7 7 7 7 7 8 8 7 7 7 7 7 7 7 8 6 7 7 7 7 7 7 7 7 7 6 7 6 7 6 7 7 6 7 7 7 7 6 7 7 6 6 0 
6 6 6 6 6 6 6 6 6 6 6 6 6 6 5 6 6 5 6 6 6 6 6 6 7 7 6 6 6 7 6 6 6 6 6 6 6 6 6 6 7 6 6 7 7 6 6 7 7 6 6 6 6 7 6 6 6 6 6 6 6 6 7 7 7 6 6 7 6 7 6 7 7 7 7 6 8 6 6 7 6 7 7 7 7 7 7 7 7 7 7 7 7 6 7 7 7 7 7 6 8 7 7 7 7 7 7 7 7 7 7 7 7 8 7 7 7 7 7 7 7 8 7 8 7 7 7 8 6 8 8 7 7 8 8 8 7 7 8 8 8 8 8 8 8 7 8 8 8 8 8 8 9 8 8 8 8 8 8 8 9 8 9 8 9 8 8 8 8 9 9 9 9 8 8 8 10 9 9 8 8 9 9 8 8 9 9 8 10 9 9 10 9 9 10 9 10 10 9 10 10 10 9 9 10 9 10 9 10 10 10 10 10 10 9 10 10 10 10 10 10 11 11 10 10 10 10 10 10 11 10 10 10 11 10 11 11 11 11 11 11 10 11 11 12 11 11 11 11 12 12 12 11 12 11 12 12 12 12 13 11 12 12 12 12 13 13 11 13 12 13 12 13 13 12 13 13 13 13 13 12 13 13 13 12 14 14 13 13 13 14 13 14 14 13 13 14 15 14 13 14 13 13 14 14 14 14 15 14 14 14 15 14 15 14 15 15 15 15 15 16 15 16 16 16 16 15 16 16 16 16 16 17 17 16 17 17 17 17 17 17 17 18 18 18 19 18 18 18 19 19 20 20 20 20 21 21 21 20 20 21 21 21 24 23 23 23 24 26 26 28 28 29 34 36 39 53 54 47 34 31 30 28 27 25 26 25 24 24 24 25 24 25 24 27 28 28 28 30 31 30 28 27 26 26 26 25 25 25 24 24 26 27 26 27 29 31 29 31 28 26 26 25 25 28 33 32 31 28 28 28 24 23 24 23 21 21 20 19 19 19 20 20 18 18 17 17 18 16 17 17 17 16 16 15 15 16 14 14 13 14 14 13 13 14 12 12 11 12 12 12 11 11 11 11 12 12 11 10 11 11 10 10 10 10 10 10 10 10 10 9 10 10 10 10 9 10 9 9 10 9 9 9 9 9 9 9 10 9 9 9 8 9 9 8 9 8 8 9 9 9 8 9 9 8 8 8 8 8 8 8 7 9 8 8 8 8 8 8 7 8 8 8 8 8 7 7 8 7 7 6 8 7 7 8 8 7 7 7 7 7 8 8 8 7 7 7 7 7 7 7 7 7 7 7 7 7 7 7 7 7 6 6 7 7 7 6 7 7 6 6 7 6 7 6 7 6 6 7 0 
5 6 6 6 6 6 6 6 5 6 6 6 6 6 6 6 6 6 6 6 6 6 6 6 6 6 6 6 6 6 6 6 6 6 6 6 6 6 6 6 6 6 7 6 6 7 6 6 6 6 6 7 6 6 6 6 7 6 7 7 6 6 6 6 6 6 7 6 6 6 7 7 6 6 7 6 6 7 7 6 6 7 7 7 7 7 7 7 6 7 7 7 7 7 7 6 7 7 8 7 7 7 7 7 7 7 7 7 7 7 7 6 8 7 8 7 8 7 7 7 7 7 7 7 8 7 8 7 7 7 8 7 7 7 7 8 7 7 8 8 8 8 8 8 8 8 8 8 8 8 8 8 8 8 8 7 8 8 8 8 8 8 8 8 8 8 9 8 8 8 9 8 9 9 8 8 8 9 8 9 9 9 8 8 9 9 9 9 9 9 9 9 9 9 10 11 11 17 10 10 11 10 10 10 9 9 10 10 10 9 9 9 10 10 10 10 10 10 10 10 10 10 11 9 10 11 10 10 10 10 11 11 10 11 10 10 10 10 11 12 11 11 11 11 11 11 11 11 11 12 11 11 12 11 13 12 11 11 12 12 12 12 12 12 12 12 12 12 12 12 12 12 12 13 13 12 12 12 12 13 13 13 13 13 13 13 13 13 13 13 12 13 14 14 12 13 13 13 13 13 14 14 14 14 14 14 14 14 13 14 14 14 15 15 14 15 14 15 14 15 15 16 15 16 15 15 17 15 16 15 17 16 15 17 16 16 17 17 17 16 17 17 18 17 17 18 17 18 19 18 18 18 19 20 19 20 19 20 20 20 20 21 21 22 22 22 22 23 24 26 24 26 27 28 31 32 42 51 36 29 27 28 26 24 24 25 25 24 23 23 23 23 23 23 25 28 28 27 28 32 30 29 28 27 28 29 25 25 25 24 24 25 25 25 25 30 31 30 31 29 27 26 27 29 29 32 31 33 28 25 26 23 25 23 23 21 23 20 20 20 19 21 20 19 17 16 17 16 15 15 16 16 16 15 14 14 14 14 13 14 13 14 14 13 12 13 12 12 11 10 11 11 11 12 11 11 11 11 11 10 11 10 11 10 10 10 10 10 11 9 10 9 10 9 9 10 9 10 10 9 10 9 9 9 9 8 9 10 8 8 8 9 9 9 8 8 8 8 9 9 8 9 8 8 9 8 9 8 8 8 9 8 8 8 8 7 8 8 8 8 7 8 8 8 8 7 8 8 8 8 7 7 8 7 8 8 8 7 7 7 7 8 8 7 7 8 7 7 7 7 7 7 7 7 7 7 7 6 7 7 7 7 7 7 7 6 6 7 7 7 6 7 6 7 7 6 7 7 7 0 
6 6 6 6 6 6 5 6 5 6 6 5 6 6 6 6 6 6 6 6 6 6 7 6 6 6 6 6 6 6 6 6 7 6 6 6 6 6 6 6 7 7 6 6 6 6 6 6 6 6 6 6 6 6 6 6 7 6 6 7 7 7 6 6 6 7 6 7 6 6 6 6 7 6 7 7 6 7 7 7 6 6 6 7 7 7 6 7 7 7 7 7 7 6 6 6 7 6 7 7 7 7 6 7 7 7 7 7 8 7 7 7 7 8 7 7 7 7 7 8 7 7 7 7 7 7 7 8 7 7 7 7 7 7 8 8 8 8 7 7 8 7 8 8 7 7 8 8 8 7 8 8 8 8 8 8 8 7 8 8 8 8 8 8 8 9 8 8 8 8 8 9 8 8 8 9 9 9 10 8 9 9 9 8 9 9 9 8 9 9 8 9 9 9 10 12 17 22 11 10 9 9 9 10 9 10 9 10 9 9 10 10 10 10 10 10 10 10 10 10 10 10 11 10 10 10 10 11 10 10 11 10 10 10 10 11 10 11 11 11 11 11 11 10 10 11 11 11 11 11 11 11 11 12 12 11 12 12 11 12 12 12 12 12 12 12 12 12 12 12 12 12 13 13 13 12 13 12 13 13 14 13 13 13 13 13 12 12 13 13 12 13 13 13 13 12 13 13 13 13 13 14 14 14 14 14 15 14 14 15 14 14 14 14 14 14 14 14 15 15 15 15 15 15 15 15 15 15 16 16 16 15 15 16 16 16 16 16 17 17 17 17 16 16 16 17 17 18 18 19 18 19 18 19 19 18 20 19 20 19 20 21 22 21 22 22 22 23 24 24 24 24 25 26 25 28 30 34 28 26 26 25 24 24 22 22 23 22 22 22 22 23 24 23 23 24 25 25 27 31 32 34 32 32 31 32 27 25 27 25 23 25 25 23 25 26 29 28 27 26 25 25 28 27 29 29 27 29 26 21 24 22 24 24 24 22 22 21 20 20 19 19 18 17 16 15 16 15 15 14 15 16 15 15 14 14 13 13 14 14 13 13 13 12 12 11 12 12 11 11 11 11 12 11 11 11 10 10 10 11 11 10 10 10 10 10 10 10 10 9 9 9 10 9 10 9 9 9 9 9 9 10 9 9 10 9 8 9 8 9 9 8 8 9 9 8 9 8 9 8 8 8 8 7 8 8 8 8 8 8 8 8 8 8 8 8 8 8 7 8 8 7 8 7 8 8 8 7 8 7 7 8 7 7 7 7 7 7 7 7 7 7 7 7 7 8 7 7 7 7 8 7 7 7 6 7 7 7 7 7 6 8 7 7 7 7 7 6 7 7 7 7 6 7 6 6 7 7 7 0 
6 6 6 6 5 6 6 6 6 6 6 6 6 6 6 6 5 6 6 6 6 6 6 6 6 6 6 6 6 6 6 6 6 5 6 6 6 6 6 6 6 6 7 6 6 6 6 6 6 6 6 6 7 6 6 6 6 7 6 6 7 6 6 7 7 7 7 7 6 6 7 7 7 6 6 6 7 6 6 7 6 7 7 7 7 7 7 6 7 7 7 7 7 6 7 7 7 7 6 7 7 7 7 7 8 7 7 7 7 7 8 7 7 7 7 8 7 7 7 8 7 7 7 7 7 7 7 7 8 7 7 8 8 8 8 8 8 8 7 8 8 7 8 7 8 7 8 8 8 7 7 8 8 8 8 8 8 8 8 8 8 8 8 8 8 8 8 8 7 8 9 8 8 8 9 8 8 8 9 8 8 9 9 9 9 9 9 9 9 8 9 9 9 9 9 11 14 15 11 10 9 10 9 9 9 10 9 10 9 9 9 10 9 10 10 9 9 10 10 10 10 10 10 10 10 10 10 10 9 11 10 10 10 10 11 11 10 11 10 11 10 11 11 11 11 11 11 12 11 11 11 11 11 12 12 11 11 12 11 11 12 12 12 12 12 12 12 12 12 11 13 13 12 12 12 12 12 12 12 13 12 12 12 12 13 13 13 13 12 12 13 13 13 13 13 14 13 13 14 13 13 13 14 14 12 13 14 13 14 14 14 14 14 13 15 14 14 15 14 14 14 14 15 13 15 14 15 15 15 16 14 15 16 15 15 15 16 16 16 16 16 17 16 17 17 17 17 17 18 17 17 18 19 18 18 17 18 19 19 20 20 20 19 20 20 21 22 21 22 23 22 23 23 24 24 24 25 26 26 25 24 23 23 23 22 21 21 22 21 21 21 21 22 21 22 23 24 25 25 28 32 35 36 33 31 35 30 29 30 28 27 25 26 24 26 26 28 26 26 26 26 25 27 28 27 26 25 23 23 22 21 22 22 22 23 20 19 19 18 19 18 19 18 16 16 15 14 15 15 15 15 16 15 13 13 14 14 14 13 13 13 14 12 13 12 12 11 12 11 11 11 11 10 10 10 10 10 11 11 10 10 10 11 10 10 10 9 10 10 10 10 9 10 9 9 10 9 9 9 9 9 9 9 9 9 9 8 9 9 9 9 8 9 9 8 8 8 8 8 9 9 8 8 8 8 7 8 8 8 8 9 8 8 8 8 8 8 8 8 8 8 7 8 8 8 8 8 7 7 7 7 7 8 7 8 8 7 7 7 7 8 7 7 8 7 7 7 7 7 7 7 7 7 6 7 7 7 7 6 6 6 7 6 7 6 7 6 6 7 7 7 7 7 7 6 6 7 6 7 0 
6 6 6 6 5 6 6 6 6 6 6 6 6 6 6 6 6 6 6 6 6 6 6 6 6 6 6 6 6 6 6 6 6 7 6 6 6 6 6 6 6 6 6 6 6 6 6 6 7 5 6 7 7 6 7 6 6 6 7 6 6 6 6 6 7 6 6 6 6 7 6 7 6 7 7 7 6 7 7 7 7 7 7 8 7 7 7 7 7 6 7 6 7 7 7 7 6 7 7 7 7 7 7 7 7 7 7 7 7 7 7 8 7 7 7 8 7 8 7 7 7 7 7 7 7 8 8 7 7 7 7 8 8 7 7 8 7 8 8 8 8 7 7 8 8 8 8 8 8 8 8 8 8 8 8 8 7 8 8 9 8 8 8 8 8 8 8 8 9 9 8 9 9 9 9 8 9 8 8 8 8 9 9 9 8 9 8 9 9 10 9 9 9 9 9 10 11 11 10 10 9 10 10 9 9 9 10 10 9 9 9 10 9 10 9 9 9 10 10 10 10 10 10 10 10 10 10 10 10 10 10 10 11 10 10 11 10 10 10 11 10 10 10 10 10 11 11 11 11 11 12 11 11 11 11 11 11 11 11 12 12 12 12 12 12 13 12 12 12 12 12 12 12 12 12 12 12 11 13 13 12 12 12 13 12 12 12 12 12 12 13 13 13 12 13 13 13 13 14 13 13 13 13 13 13 14 13 14 13 13 13 14 15 14 14 14 13 14 14 15 14 14 14 14 15 15 14 15 15 14 16 15 15 15 15 16 16 15 16 16 15 16 16 16 16 18 17 17 18 17 17 18 17 17 17 18 18 18 18 19 19 19 20 20 20 22 19 22 22 22 22 21 23 23 23 23 23 25 24 24 23 23 22 21 22 21 20 21 20 20 20 20 21 21 22 22 22 22 23 25 27 28 28 30 29 29 32 31 30 30 29 31 27 26 27 27 27 27 24 23 23 22 24 23 25 24 23 23 22 23 21 21 21 20 21 19 18 17 16 18 18 18 16 16 16 15 14 15 15 16 16 16 14 13 13 12 13 13 13 13 13 12 12 12 12 12 11 11 11 11 11 11 11 11 10 11 10 11 10 11 10 10 10 9 10 10 10 10 10 10 9 9 11 10 10 9 10 9 9 8 9 10 9 9 9 9 9 9 9 9 9 8 8 8 8 9 8 8 8 8 8 9 8 8 9 7 8 8 8 7 8 8 7 8 8 7 8 8 8 8 8 8 7 7 8 7 7 7 8 8 7 8 8 7 7 7 7 7 7 7 8 7 7 7 7 7 7 6 7 7 7 7 7 7 7 7 7 7 7 7 7 7 7 7 7 6 7 7 7 6 7 7 6 7 6 7 7 6 7 0 
6 6 6 5 6 6 5 6 6 5 6 6 6 6 6 6 6 6 6 6 6 6 6 6 6 6 6 6 6 6 6 6 6 6 6 6 6 6 6 6 7 6 6 6 6 6 7 7 6 6 6 6 6 6 6 6 7 7 6 7 6 6 7 6 7 7 7 6 6 6 6 7 6 7 6 6 7 6 7 6 6 7 6 7 7 6 6 7 6 7 7 7 7 7 7 7 7 7 6 7 7 7 6 7 7 7 7 7 7 7 7 7 7 7 7 7 7 7 7 7 6 7 7 7 8 7 7 7 7 7 8 7 7 8 8 7 8 7 8 8 8 7 8 8 8 7 7 7 7 8 8 8 8 8 8 8 7 8 8 8 8 8 8 8 9 8 8 8 9 8 8 9 9 8 8 9 9 9 8 9 9 8 9 9 8 9 9 8 9 9 9 8 8 9 9 9 10 10 10 9 10 9 10 10 9 9 9 9 9 9 10 9 10 10 9 10 10 10 10 10 10 10 10 10 9 10 10 10 10 10 10 10 10 10 11 10 10 10 10 11 10 11 10 11 11 11 10 10 11 11 11 12 11 11 11 12 11 12 11 11 12 11 11 11 11 12 12 11 12 12 12 12 12 12 13 12 12 13 12 12 12 13 13 12 13 12 13 12 13 12 12 12 13 12 14 12 13 13 14 12 13 13 13 13 13 13 14 13 13 12 14 13 15 13 14 14 14 14 15 15 14 15 14 14 14 15 14 15 15 15 15 14 15 15 16 15 15 15 16 15 15 16 16 16 16 17 16 16 16 17 16 17 16 16 17 18 18 18 18 17 17 18 20 19 19 19 19 20 20 21 20 21 22 22 21 21 22 23 23 22 22 21 21 20 21 20 20 19 20 19 20 19 19 20 20 21 20 21 21 23 21 23 24 26 25 27 28 30 32 32 27 30 32 31 32 29 28 28 24 22 21 20 20 21 22 23 22 22 22 21 20 19 18 19 18 17 18 17 17 16 16 17 18 16 15 14 15 17 16 15 17 14 14 13 13 13 13 12 12 12 13 13 12 12 12 11 11 11 11 11 11 11 11 11 11 10 10 11 11 11 10 9 10 10 10 9 10 9 9 10 10 10 9 10 9 9 9 9 9 9 8 9 10 9 8 9 8 9 9 9 9 8 9 8 9 9 9 9 8 9 8 8 8 9 9 8 8 8 8 8 8 8 8 8 8 7 8 8 8 8 8 8 7 7 7 8 8 8 7 8 7 7 7 8 7 7 7 7 7 7 7 7 7 7 7 7 7 7 7 7 7 7 7 7 7 7 7 7 8 6 7 7 7 7 7 7 7 7 7 7 6 7 6 6 7 6 7 7 7 0 
6 6 6 6 6 6 6 6 5 6 6 5 6 6 6 6 6 6 5 6 6 6 6 7 6 6 6 6 6 6 6 6 6 6 5 6 6 6 6 6 6 6 6 7 6 6 6 6 6 6 6 6 7 7 6 7 6 7 6 7 6 7 6 6 6 7 7 7 7 6 7 7 6 7 7 6 6 6 7 6 7 7 7 7 6 7 7 6 6 7 6 7 7 7 7 7 7 7 7 7 7 7 6 6 7 7 7 7 8 7 7 7 7 8 7 7 7 7 7 7 7 7 7 7 7 7 7 7 8 7 8 8 8 7 8 8 7 8 8 8 8 7 7 8 7 8 7 8 7 8 8 8 7 8 8 8 8 8 8 8 8 8 8 8 8 8 8 8 8 8 8 9 8 9 8 9 8 8 8 9 8 9 9 8 8 9 9 9 9 9 9 9 9 9 9 10 9 10 8 9 9 9 9 10 9 9 10 9 9 9 10 9 10 9 10 10 9 9 9 9 10 10 10 10 10 10 9 11 10 10 10 10 10 10 10 10 10 10 10 10 10 10 10 11 10 11 11 11 11 11 10 12 11 11 11 11 11 11 11 11 11 12 11 11 11 11 11 11 12 11 12 12 13 12 12 12 12 13 12 12 12 12 12 12 12 13 13 12 12 13 12 12 12 12 13 13 13 13 13 13 13 13 13 13 13 13 13 13 14 14 13 13 14 12 14 14 14 14 14 14 14 15 14 14 14 14 14 15 15 14 14 14 16 15 15 15 15 15 15 15 15 15 16 15 15 16 15 17 16 16 16 17 18 17 17 17 18 18 18 18 19 18 19 18 18 18 19 20 19 19 19 20 21 21 20 21 21 23 24 22 21 21 19 20 20 20 20 20 20 19 19 19 19 19 20 18 20 20 22 20 20 21 21 22 22 23 23 27 29 29 26 27 27 27 29 28 27 23 22 21 20 18 18 20 19 21 23 21 20 19 19 19 17 17 18 17 18 17 18 17 18 17 16 16 15 15 15 17 17 16 16 14 13 13 13 13 12 12 13 12 12 12 11 12 12 11 11 11 11 12 10 10 10 11 10 11 11 11 10 11 10 10 10 10 10 10 9 10 11 10 9 9 10 9 9 9 9 9 9 9 9 9 8 8 9 8 9 9 9 9 9 9 8 9 9 8 8 9 8 9 8 8 9 8 8 9 8 8 8 8 8 8 8 7 7 7 7 7 8 7 8 8 8 7 8 7 7 8 8 8 8 7 8 8 7 7 8 7 7 7 7 7 8 7 6 7 7 7 7 7 7 7 6 7 7 7 7 7 7 7 7 8 7 7 7 7 7 7 6 7 7 7 6 7 6 7 6 6 7 0 
6 6 5 6 6 6 6 6 6 6 5 6 6 6 6 6 6 6 6 6 6 5 6 6 6 6 6 6 6 6 6 6 6 5 6 6 6 6 6 6 6 7 6 6 6 6 6 6 7 7 6 6 7 6 6 7 6 6 6 6 6 6 6 7 6 7 6 7 6 7 7 7 6 7 7 6 7 7 6 7 7 7 7 7 7 6 6 7 6 7 6 7 7 6 6 7 7 6 7 7 7 7 7 7 7 6 7 7 7 7 8 7 7 7 7 7 7 7 7 7 7 7 8 7 7 8 7 7 7 7 7 8 7 7 7 7 8 8 8 8 7 8 8 8 8 7 7 7 8 9 8 8 8 8 8 8 8 8 8 9 8 9 9 8 8 8 8 8 8 9 9 8 8 8 8 8 9 8 8 8 9 8 8 8 9 9 9 9 9 9 8 9 9 9 9 10 10 9 9 9 10 9 8 9 9 9 9 9 9 9 9 10 9 9 9 9 9 10 9 9 10 10 10 10 10 10 10 11 10 10 11 10 9 10 10 9 11 10 10 10 10 10 10 11 11 11 10 10 11 11 10 11 10 11 11 11 11 11 11 10 11 11 11 11 12 12 11 12 11 12 11 12 11 12 12 12 11 12 12 12 12 12 12 13 12 12 12 13 13 12 12 13 12 13 12 13 12 13 13 12 12 13 13 13 13 13 13 12 13 12 14 14 13 13 13 13 14 14 13 13 14 13 14 14 15 14 14 14 14 14 15 14 15 15 15 15 15 15 15 14 15 16 15 15 16 16 16 16 16 15 16 16 17 17 17 17 17 17 17 17 18 18 18 18 18 18 18 18 19 19 20 19 20 21 20 19 21 24 31 21 21 20 20 18 19 19 19 19 20 19 19 19 18 19 19 19 19 20 21 20 20 20 20 21 21 20 23 25 25 23 23 23 25 24 27 25 28 26 21 20 19 18 18 18 19 21 23 22 19 18 17 17 16 17 17 17 17 16 16 15 15 15 16 16 16 16 15 16 16 16 15 14 13 13 13 13 12 12 12 12 12 11 12 11 11 11 11 12 11 11 11 11 10 11 11 11 10 11 11 10 9 10 10 10 10 10 10 9 10 10 9 9 10 9 10 9 9 9 9 9 9 9 9 8 9 9 8 8 9 8 9 8 9 9 9 9 8 8 9 8 9 8 9 8 8 8 9 8 8 8 9 8 8 8 8 7 8 7 8 8 8 8 8 7 8 7 8 7 8 7 8 8 7 7 7 7 7 7 8 7 7 7 6 7 6 8 7 7 6 7 7 7 7 7 7 7 6 6 7 6 6 6 7 7 7 6 7 7 6 7 7 6 7 6 6 7 7 7 7 0 
6 6 6 6 5 6 6 6 6 6 5 6 6 6 6 6 6 7 6 6 6 6 6 7 6 6 6 6 5 6 6 6 6 6 7 6 6 6 6 6 6 6 7 6 6 6 6 7 7 6 6 6 6 7 6 7 6 7 6 6 6 7 6 7 6 7 6 6 7 6 7 7 6 7 6 6 7 7 6 6 6 7 7 7 7 6 8 7 6 6 7 7 6 7 6 6 7 7 7 8 6 6 7 7 7 7 6 7 7 7 7 7 7 7 7 7 7 8 7 7 7 7 7 7 7 7 7 7 7 8 7 7 8 8 7 7 8 7 7 8 8 8 8 8 8 8 8 7 7 9 8 8 8 8 8 7 8 8 8 8 8 9 8 8 9 7 8 8 8 9 8 8 8 8 8 8 8 9 8 8 8 9 9 8 9 9 9 8 9 8 8 8 9 9 9 9 9 9 9 10 9 9 9 9 9 10 9 9 10 9 9 9 9 10 10 9 10 10 9 10 9 9 9 10 9 10 10 10 10 10 10 10 10 10 10 10 10 10 11 10 11 10 10 10 10 10 11 11 10 11 10 10 11 11 11 10 11 11 10 11 11 11 11 11 11 12 12 11 12 11 11 12 12 12 11 12 11 12 12 12 12 12 12 12 12 12 12 12 12 12 12 13 13 12 12 12 12 13 13 13 12 14 13 13 13 13 13 13 13 13 13 13 13 13 13 14 13 13 13 14 14 14 14 14 14 14 14 13 14 14 14 15 14 14 15 15 15 15 15 15 15 15 15 15 15 15 16 15 16 16 16 16 16 16 16 17 17 16 17 17 17 17 17 17 17 18 18 18 18 19 18 19 19 18 20 20 20 23 26 21 20 20 19 18 18 18 19 19 19 17 21 19 17 19 18 19 18 19 18 19 18 18 19 20 19 20 20 21 22 20 22 22 21 24 23 24 27 24 20 20 19 18 18 18 19 20 23 20 18 16 17 16 17 15 16 18 16 16 15 15 15 15 16 15 17 16 15 16 15 15 14 12 13 12 12 12 12 12 12 11 12 12 11 12 12 11 11 11 11 11 10 11 10 11 10 10 11 10 11 10 10 10 10 9 9 10 10 10 9 9 9 9 10 9 9 9 9 9 9 8 9 9 9 8 9 9 9 8 8 8 9 8 8 8 8 9 8 8 8 8 8 8 8 8 8 8 8 8 8 7 8 7 8 8 8 8 8 8 7 8 7 8 8 7 8 7 7 7 7 7 7 7 8 7 7 7 7 8 7 7 7 7 7 7 7 7 7 7 7 6 7 7 7 6 7 7 7 7 7 7 7 7 7 7 6 7 7 7 6 7 7 7 6 6 7 7 7 7 7 0 
5 5 6 6 6 5 6 6 6 6 6 6 6 6 6 6 6 6 6 6 6 6 6 6 6 6 5 6 6 6 7 6 6 6 6 6 6 6 6 6 6 6 6 6 6 6 5 6 7 5 6 6 6 6 6 7 7 6 7 7 6 7 6 6 7 6 7 7 6 6 7 6 6 7 6 6 7 6 6 6 6 7 6 7 7 7 7 6 6 6 6 7 8 7 7 7 8 7 7 7 7 7 7 7 7 7 8 7 7 7 7 7 7 7 7 7 7 7 7 8 7 7 7 8 7 7 7 7 7 7 8 7 8 7 7 7 8 7 7 7 7 8 8 7 7 7 7 8 7 8 8 8 8 8 7 8 8 8 8 8 8 8 8 8 8 7 7 8 8 8 8 8 8 8 8 8 8 8 8 9 9 9 9 8 8 9 9 9 9 9 9 9 8 9 8 9 9 8 9 9 9 9 10 9 9 9 9 9 10 9 10 10 9 9 10 9 10 9 9 10 10 10 10 9 9 10 11 10 10 11 9 10 10 10 11 10 10 10 10 10 10 11 11 11 10 10 10 11 10 10 11 10 10 11 11 10 11 11 11 11 11 11 11 11 11 11 11 11 11 11 12 11 11 11 12 11 12 12 11 11 12 12 12 12 12 12 11 12 12 12 12 12 12 13 13 12 12 12 13 12 13 12 13 13 13 12 12 12 14 13 13 13 13 13 14 13 13 13 14 14 13 14 14 14 14 13 15 13 14 14 15 13 14 14 14 14 13 15 14 15 15 15 15 15 16 15 15 15 16 15 16 16 16 15 16 15 16 16 17 17 17 16 17 17 17 17 17 18 18 17 19 17 18 19 18 18 19 20 20 20 19 19 18 19 19 18 17 18 18 17 20 18 18 18 18 18 17 18 18 18 17 18 18 18 18 18 19 20 21 21 22 22 20 21 21 23 27 23 21 21 21 20 19 21 22 21 23 20 17 16 16 16 17 15 16 15 15 14 14 15 14 14 13 14 14 14 16 14 15 16 14 13 12 13 12 12 12 12 11 12 11 11 11 12 10 10 11 11 10 11 10 11 11 11 10 10 10 10 10 10 10 10 10 9 10 9 9 10 10 9 9 9 9 9 9 8 9 9 9 9 9 9 9 9 8 9 8 8 8 8 8 8 8 9 8 8 8 7 8 8 8 8 8 8 8 8 7 8 8 8 8 8 8 8 7 8 8 8 8 8 8 8 7 8 7 8 7 7 8 8 7 7 7 8 7 7 7 7 7 7 7 7 7 7 7 7 7 7 7 7 7 7 7 7 7 7 7 7 7 7 6 8 7 6 7 7 6 6 7 6 6 7 6 6 7 7 6 6 7 0 
6 6 6 5 6 5 6 6 7 5 6 6 6 6 6 6 6 6 6 5 6 6 6 6 6 6 6 6 6 7 7 6 6 6 6 6 6 6 5 6 6 6 7 6 6 6 6 6 7 6 6 6 7 6 6 6 6 6 6 6 6 7 6 6 7 7 7 6 6 7 7 6 6 6 7 7 7 7 6 7 6 6 6 7 6 6 7 7 7 7 7 7 6 7 6 7 7 7 7 7 7 7 7 7 7 7 7 7 7 7 7 7 8 7 7 7 7 7 7 7 7 7 7 7 8 7 8 7 7 7 7 7 8 8 8 7 7 7 8 7 7 8 8 8 8 8 8 7 8 8 8 8 8 8 8 7 8 8 8 8 8 7 8 8 8 7 9 7 8 8 8 8 8 8 9 8 8 8 8 8 9 8 8 9 9 8 8 8 9 9 9 9 9 8 8 9 9 10 8 9 10 9 9 8 9 9 9 9 9 9 8 9 10 9 10 10 9 10 8 8 10 10 10 10 9 9 10 10 10 10 10 10 10 10 10 9 10 9 10 10 11 10 10 11 10 10 11 11 11 11 10 11 11 11 11 11 10 11 11 11 11 11 11 11 11 11 10 11 12 11 12 11 11 11 12 11 11 12 12 11 11 11 11 12 12 12 12 12 11 12 12 12 13 12 13 12 12 12 12 12 13 12 13 13 12 12 13 13 13 12 13 13 13 13 13 13 14 13 13 13 14 13 14 13 14 14 14 14 14 14 15 15 14 14 13 14 14 14 14 15 14 15 15 15 15 15 16 15 15 15 14 16 15 15 16 16 17 16 16 17 16 17 17 17 17 17 17 18 17 18 17 18 17 17 19 19 18 19 19 18 19 19 18 17 17 17 17 18 18 18 17 18 17 18 18 18 17 18 17 17 17 17 17 17 17 18 18 19 19 19 20 19 19 19 19 21 23 25 22 21 24 23 24 21 21 23 25 17 16 16 15 16 15 14 15 15 15 14 14 13 14 14 13 13 13 14 13 13 14 13 12 12 12 12 12 12 13 11 11 12 11 11 11 11 11 11 11 10 11 11 10 10 10 11 10 10 10 10 10 10 10 10 10 10 10 9 10 10 10 10 10 9 9 9 9 9 9 9 8 8 9 9 9 9 8 8 8 8 9 9 8 8 8 8 9 8 8 8 8 9 7 7 8 8 8 8 7 8 8 8 8 8 8 7 7 8 8 7 8 8 8 7 7 8 7 7 6 7 8 7 7 7 7 7 7 7 7 7 7 7 7 7 6 7 7 7 7 7 7 7 7 8 7 6 8 6 7 7 7 6 7 6 7 6 6 7 7 7 7 7 7 6 6 6 6 6 7 6 7 0 
5 6 6 6 5 6 6 6 6 6 5 5 6 6 6 6 5 5 6 6 6 6 6 6 6 6 6 6 6 6 6 6 6 5 6 6 6 6 6 6 6 6 6 6 6 6 6 6 6 7 7 6 7 6 7 6 6 6 7 6 6 6 7 7 6 6 6 6 7 7 7 6 6 7 7 6 7 7 7 6 6 6 6 7 7 7 7 7 6 6 7 6 7 6 7 7 7 7 7 7 6 7 7 7 7 7 7 7 7 7 6 7 6 7 6 7 7 7 7 7 7 7 7 8 8 7 8 7 7 8 7 8 7 8 8 7 7 8 8 7 7 7 7 8 8 8 7 8 8 7 7 8 8 8 8 8 8 8 8 7 8 8 7 8 9 7 8 8 8 8 8 9 8 7 8 8 8 9 8 9 8 9 9 8 8 8 8 9 9 10 9 8 9 9 9 9 9 9 9 9 9 9 9 9 9 9 9 9 10 9 9 9 9 9 10 9 9 9 9 9 10 10 10 10 8 10 10 10 9 10 10 10 10 10 10 10 10 9 9 11 10 10 10 11 10 11 11 10 11 11 10 11 11 11 11 9 10 11 11 10 10 11 10 11 11 11 11 11 11 11 10 11 11 11 12 11 11 12 12 12 11 12 12 12 12 12 11 12 11 12 12 13 12 12 11 12 12 12 12 12 12 13 12 12 12 12 12 12 13 12 13 13 12 12 12 12 13 13 13 13 13 13 13 14 14 13 14 13 13 14 14 14 14 14 14 14 14 14 14 15 14 14 15 14 15 14 14 14 15 14 14 15 15 16 15 16 15 15 16 16 16 15 16 16 16 17 16 17 17 17 17 18 17 18 18 17 18 18 22 17 18 18 18 17 17 18 18 17 17 18 17 18 18 17 18 17 17 17 17 17 16 17 16 17 17 17 17 17 18 18 19 19 19 19 18 19 21 24 28 23 23 23 30 23 23 22 18 17 17 16 16 16 15 15 14 14 14 15 15 14 13 13 13 13 14 13 12 12 12 13 12 13 12 12 12 12 12 12 12 12 12 12 12 11 11 11 11 11 11 10 11 10 10 10 10 10 10 10 10 10 10 9 9 10 9 9 10 9 9 9 9 9 9 10 9 9 8 10 8 9 9 9 9 8 8 8 8 8 9 9 8 8 8 8 7 8 8 8 8 8 8 8 8 8 8 8 8 8 8 8 8 7 7 8 8 7 7 8 7 7 8 8 7 8 7 7 8 8 7 8 7 7 8 7 7 7 7 7 8 7 7 7 7 7 7 7 7 6 7 7 7 7 7 7 6 6 6 7 6 7 7 7 7 7 6 7 6 7 6 7 6 7 7 7 6 6 6 6 7 0 
6 6 6 5 6 6 6 6 5 6 6 5 6 6 6 5 6 6 6 6 6 6 6 6 6 6 6 6 6 6 6 6 6 6 6 6 6 6 6 6 6 6 6 6 6 6 6 6 6 7 6 6 6 6 6 6 6 6 6 6 6 6 6 6 6 6 7 6 6 7 6 7 6 7 6 7 7 7 7 7 7 7 6 7 7 7 7 7 7 7 6 6 7 7 7 7 7 7 7 7 7 7 6 7 6 7 7 7 7 7 7 7 7 7 7 6 7 7 7 7 7 7 7 7 8 7 7 7 7 7 8 7 7 7 7 7 8 8 8 7 8 8 8 7 7 8 8 8 8 8 8 7 8 7 8 7 8 8 8 8 9 8 8 7 8 8 8 7 8 8 8 7 9 9 9 8 8 8 9 8 8 9 8 8 9 8 8 9 9 8 9 8 9 9 9 9 9 9 9 9 8 9 8 9 9 9 9 10 9 9 9 10 9 9 9 9 9 9 9 10 9 10 9 9 10 9 9 10 10 9 10 9 10 10 10 10 9 9 11 10 10 10 10 10 10 10 10 10 10 10 10 11 11 10 10 11 11 11 10 11 11 10 10 11 11 11 11 11 11 10 11 11 11 11 11 11 12 11 11 12 11 12 12 12 11 12 11 11 11 12 11 12 12 12 12 12 12 12 11 12 12 12 12 12 12 12 12 12 12 12 13 12 12 12 12 13 13 12 12 13 14 13 13 13 13 13 14 13 13 13 14 14 14 13 15 14 13 14 14 14 14 13 15 14 14 15 14 15 14 16 15 15 16 16 15 16 15 15 15 16 15 16 17 16 16 16 16 17 16 17 17 19 17 18 18 18 17 18 18 18 17 17 17 17 17 16 17 17 16 17 17 17 16 16 16 17 16 17 15 17 16 16 15 15 16 16 16 16 17 17 17 16 17 18 17 18 18 20 27 26 24 23 25 21 24 20 19 15 16 15 14 15 15 13 14 14 14 13 14 13 13 13 13 13 13 13 13 13 12 13 12 13 12 11 11 13 11 11 11 11 11 10 11 11 11 11 11 11 10 10 10 9 10 10 9 10 10 10 10 10 10 9 10 9 9 10 9 10 9 9 9 9 10 9 8 9 9 9 8 9 9 9 8 8 8 9 9 9 8 9 8 9 8 7 8 8 8 8 8 8 7 8 8 8 8 8 8 8 8 8 8 7 8 7 8 8 8 7 7 8 8 8 7 7 7 7 7 7 8 7 7 7 7 7 7 7 7 7 7 7 8 7 7 8 7 7 7 7 7 7 7 7 6 8 6 7 7 7 7 7 6 7 7 7 6 6 6 7 7 7 6 7 7 6 7 7 6 7 6 0 
6 5 6 6 5 6 6 7 6 6 6 6 6 5 5 6 6 6 6 6 6 5 6 6 6 5 6 6 6 6 6 6 6 6 6 6 6 5 6 6 7 6 6 6 6 6 6 6 6 6 7 6 6 6 6 7 6 6 6 6 6 7 6 6 6 6 7 6 6 6 7 6 7 7 7 6 6 7 7 6 6 7 6 6 7 7 6 6 6 6 6 7 7 7 7 6 6 7 7 6 7 7 7 7 7 7 7 7 7 7 7 7 7 7 7 7 7 7 7 7 7 7 7 6 8 7 7 7 7 7 8 7 7 7 7 7 7 7 7 7 8 7 8 8 7 7 8 7 7 7 8 8 8 7 8 8 8 8 8 8 8 7 8 8 8 8 8 8 8 8 8 8 8 9 8 8 8 8 8 8 9 8 9 9 8 9 9 9 8 8 8 9 9 9 9 9 9 9 9 9 8 8 9 9 10 9 9 9 9 9 9 10 9 9 10 9 9 9 9 9 10 9 9 9 9 10 10 10 9 10 10 9 10 10 10 10 9 10 10 10 10 10 10 10 10 10 10 10 10 10 11 10 10 11 10 10 10 11 11 11 10 11 11 10 11 11 11 11 12 11 11 11 11 11 11 11 11 11 11 11 12 11 11 11 12 12 12 11 12 11 12 11 11 12 12 12 12 12 12 12 12 12 12 12 12 12 12 12 12 11 13 13 12 13 13 13 12 13 13 14 12 12 13 13 13 13 13 14 13 14 13 13 13 14 13 13 14 14 13 14 14 14 15 14 14 14 13 14 14 15 15 15 14 14 15 14 15 16 15 15 15 15 16 16 16 16 17 16 16 16 17 16 18 19 18 16 17 17 18 17 17 17 17 17 17 17 16 17 17 16 17 16 17 17 17 16 17 16 16 17 16 17 17 15 16 16 15 17 16 17 17 15 16 16 17 17 17 18 21 22 23 20 22 19 24 17 16 16 14 14 15 14 14 14 13 13 14 13 13 14 13 13 13 13 11 12 12 12 12 13 12 12 11 11 12 12 10 11 11 11 11 11 11 11 11 11 11 11 10 11 10 9 10 10 10 9 10 9 10 9 10 9 9 9 10 9 8 9 10 9 9 9 9 8 9 9 8 8 9 8 9 8 8 9 9 9 9 8 9 9 9 8 8 8 8 8 8 8 8 7 8 8 8 8 9 7 8 8 8 7 7 8 7 8 7 7 8 8 8 7 7 7 7 7 7 7 7 7 8 7 7 8 7 7 7 7 7 8 7 7 7 7 7 6 7 7 7 6 6 7 7 7 7 7 7 7 6 7 6 6 7 6 7 6 7 7 6 7 7 6 6 7 6 7 7 7 6 6 7 0 
6 6 6 6 6 6 6 5 5 6 5 6 5 6 6 6 6 6 6 7 7 6 6 6 6 6 6 6 6 6 6 6 6 6 6 6 6 6 6 6 6 7 6 6 6 6 6 6 6 6 6 6 6 6 6 7 6 6 6 7 6 6 7 6 6 6 7 6 7 6 6 6 7 7 7 6 6 6 6 6 7 7 6 6 6 6 6 7 7 7 7 6 7 7 7 6 7 7 6 6 7 7 7 7 7 7 6 7 6 7 6 6 8 7 7 7 7 7 7 7 7 7 7 7 7 7 7 7 7 7 7 7 8 7 8 7 7 7 7 7 7 7 7 8 7 8 8 7 8 8 7 8 8 7 8 7 7 7 8 8 8 8 8 7 8 8 8 8 8 8 8 8 8 8 8 8 8 8 8 8 8 8 8 8 8 8 8 9 8 9 9 8 9 8 8 8 9 9 9 9 9 8 9 8 9 9 9 9 9 9 9 9 8 10 9 9 10 9 9 10 10 10 10 10 10 9 9 10 9 10 10 10 10 9 10 10 10 10 9 10 10 10 10 10 9 10 10 11 10 11 10 10 11 10 11 10 11 11 11 11 11 10 11 11 11 11 11 11 11 11 11 11 12 11 11 11 12 11 11 12 11 11 11 11 11 11 12 11 12 11 12 12 11 11 11 12 12 11 12 12 12 12 12 13 12 11 12 12 12 12 12 12 12 12 12 12 12 12 12 12 12 13 13 13 12 13 13 13 14 13 14 13 13 13 13 13 14 14 13 14 13 14 14 14 14 14 14 14 15 15 14 15 15 15 15 14 15 15 15 15 16 15 16 14 16 17 16 16 16 16 17 16 17 18 17 16 17 17 17 16 17 17 17 17 16 16 17 17 16 17 17 16 17 16 16 17 16 15 16 17 17 16 15 15 15 15 15 16 16 15 15 17 15 16 16 16 16 16 16 18 19 17 19 20 20 17 16 15 14 13 14 14 14 13 14 14 13 13 12 13 12 13 12 12 12 12 13 11 12 13 11 12 13 12 12 12 11 11 11 11 11 11 10 11 11 11 11 10 11 10 10 10 10 10 10 11 10 9 9 10 9 9 10 9 10 9 10 9 10 9 8 9 9 9 8 8 9 8 9 9 8 8 8 8 9 8 9 9 8 8 8 9 9 8 9 8 8 8 8 7 8 8 8 8 8 8 7 7 8 8 8 8 8 7 7 8 7 8 7 8 8 8 7 7 8 7 7 7 7 7 7 7 8 7 6 7 7 7 8 7 7 7 7 7 7 7 7 7 7 7 7 7 7 7 6 6 7 7 6 7 7 7 7 7 7 6 7 7 7 7 7 7 6 6 6 6 7 7 7 0 
6 6 6 6 6 6 6 6 5 6 6 6 5 6 6 6 6 6 6 6 6 6 6 6 6 6 6 6 6 6 6 6 6 7 6 6 6 6 6 6 6 6 6 6 7 6 6 7 6 6 6 6 6 6 6 6 6 6 6 7 6 6 6 6 6 6 6 6 6 6 6 6 7 6 6 7 7 7 6 6 7 7 7 7 6 7 6 6 6 6 6 7 7 7 6 6 7 6 7 6 7 7 6 7 7 7 7 6 7 7 7 7 7 7 7 7 7 7 7 7 7 7 7 7 7 7 7 7 7 7 7 8 8 7 7 7 7 8 8 8 7 7 7 8 8 7 8 8 8 7 8 8 7 8 7 8 7 8 8 7 7 8 8 8 7 8 9 8 7 8 8 8 8 8 8 8 8 8 8 8 9 8 9 8 9 9 8 8 8 9 9 9 9 8 9 8 9 8 8 8 9 9 9 9 9 9 9 9 8 9 9 9 9 9 9 9 9 9 9 9 10 9 10 9 9 9 10 10 9 9 10 10 10 9 9 10 10 10 10 10 10 9 10 10 10 10 9 10 10 10 11 10 9 10 10 10 10 11 10 10 10 11 10 11 11 12 11 10 10 11 10 11 11 11 11 11 11 11 11 11 11 11 11 11 11 11 11 11 12 12 11 11 11 12 12 12 11 11 12 11 12 12 12 11 12 12 12 12 13 12 13 12 12 13 12 13 13 12 13 12 12 13 12 13 13 13 13 13 13 13 13 13 13 14 13 13 13 13 13 14 14 13 13 15 13 14 14 14 14 14 14 15 15 14 15 15 15 15 15 13 15 15 15 15 14 15 14 16 15 16 16 16 16 16 17 17 17 17 16 16 16 16 16 16 17 16 17 15 17 16 15 16 17 16 16 15 16 15 16 15 16 15 16 15 15 15 15 16 16 15 15 16 15 16 16 16 16 16 16 17 16 17 16 18 16 15 15 15 14 13 13 13 13 13 14 13 13 12 13 13 13 13 13 12 12 12 13 12 12 11 12 11 11 12 11 10 12 11 11 11 11 11 11 10 11 11 12 11 11 11 10 9 10 9 10 10 9 10 9 10 9 9 9 9 9 9 9 9 10 8 8 9 9 8 9 9 9 9 9 8 8 9 8 8 9 9 8 8 8 8 7 8 7 9 8 8 8 8 8 8 8 8 8 8 8 8 8 7 8 7 8 7 8 8 8 7 8 7 7 8 7 8 7 7 7 7 8 7 7 7 7 7 7 7 7 7 7 7 8 7 7 7 7 7 7 7 7 7 7 7 7 6 7 7 7 7 7 7 7 7 7 6 6 7 7 7 6 7 7 6 6 6 6 7 7 6 7 6 7 0 
6 6 6 5 6 5 6 6 6 5 6 6 6 6 6 6 6 6 6 6 6 6 5 6 6 6 6 6 6 5 6 6 6 6 6 6 6 6 6 6 6 6 6 5 6 7 6 6 6 6 6 7 7 6 6 6 6 6 7 6 6 6 6 6 6 7 6 7 7 7 6 7 6 7 6 6 7 7 7 7 7 7 7 7 7 7 6 6 7 6 6 7 7 6 7 6 7 7 7 7 7 7 7 7 7 6 7 7 7 7 7 7 6 7 6 7 7 8 7 7 8 7 7 7 8 7 8 7 7 7 7 7 7 7 7 7 7 7 7 7 7 8 8 7 8 8 7 8 8 8 8 7 7 8 8 7 8 8 8 8 7 7 8 8 8 8 8 7 7 8 7 8 8 8 8 8 7 8 8 7 8 8 8 8 8 8 9 9 9 9 9 8 8 8 9 9 9 9 9 8 9 9 9 9 9 9 9 9 9 9 9 9 9 9 9 10 9 9 9 10 10 10 9 10 10 9 9 9 9 10 10 9 9 9 10 10 9 10 9 10 10 10 9 10 10 10 10 10 11 10 10 10 10 10 10 10 10 10 11 10 10 10 10 10 11 11 11 11 10 10 11 11 11 11 11 10 10 11 11 12 11 11 11 11 10 11 11 12 11 12 11 11 12 11 12 12 12 12 11 11 12 12 11 12 12 12 12 13 12 12 12 12 12 13 12 12 12 12 12 12 12 14 13 12 13 12 13 12 13 13 13 13 13 12 13 13 14 13 13 14 13 13 13 13 14 14 13 14 14 13 14 14 14 13 14 14 15 15 15 15 15 15 15 15 15 16 16 16 16 16 15 15 15 16 16 16 17 16 16 17 16 16 17 16 22 17 16 16 15 16 15 15 16 16 15 15 16 16 14 15 14 15 15 15 14 16 15 15 14 15 15 15 16 15 15 16 14 15 15 15 15 14 15 15 16 15 15 14 15 14 13 14 13 13 13 13 12 13 12 13 12 12 12 12 12 12 12 12 12 12 12 11 12 11 12 10 11 11 11 11 11 11 10 10 11 11 10 10 10 10 10 10 10 9 9 10 10 10 9 10 9 9 10 9 9 9 9 10 9 9 9 9 9 9 9 8 9 8 9 9 8 8 8 9 9 9 8 8 8 9 8 8 8 7 8 8 8 8 8 8 9 8 7 8 8 8 8 8 8 8 8 8 7 8 8 8 7 8 7 8 8 8 8 7 8 8 7 8 7 7 7 7 7 7 7 7 7 7 7 7 7 7 7 7 7 7 7 7 7 7 7 7 7 7 7 7 6 7 6 7 7 7 7 7 6 7 7 7 7 6 6 7 7 6 6 7 7 6 6 0 
6 6 6 6 6 6 6 6 6 6 6 6 6 6 6 6 6 6 6 6 5 6 6 6 5 6 6 6 6 7 6 6 6 6 6 6 6 6 6 6 6 6 6 6 6 6 6 6 6 6 6 6 6 6 6 7 6 6 7 6 7 6 7 6 6 7 7 6 6 6 7 7 6 7 6 6 7 6 7 7 6 7 6 6 6 7 6 7 6 7 6 7 7 7 7 7 7 6 7 7 6 7 7 7 7 7 6 7 7 7 6 7 7 7 7 7 7 7 7 7 7 7 6 7 7 7 7 7 7 8 7 8 7 8 7 7 7 8 7 7 7 7 8 8 8 8 7 7 8 8 7 7 8 7 8 7 7 8 7 7 8 8 7 8 8 7 7 8 8 8 7 8 7 8 8 8 8 8 8 8 8 8 8 8 8 8 8 9 8 9 8 9 8 8 8 9 9 8 8 8 9 9 9 8 9 8 9 9 9 9 9 9 9 9 9 9 9 9 8 9 9 9 10 9 9 10 9 9 8 9 9 9 10 10 10 10 9 9 10 9 10 10 11 10 10 10 10 10 10 10 10 10 10 10 10 10 10 10 10 11 10 10 11 11 10 10 10 11 10 11 11 11 10 10 10 11 11 11 11 11 11 11 11 10 11 11 11 11 11 11 11 11 11 11 11 11 12 12 11 11 12 12 11 11 12 11 12 12 13 12 12 12 12 12 12 13 12 13 12 12 12 11 12 12 13 12 12 12 13 13 13 12 13 13 13 13 13 13 13 13 13 14 13 13 14 13 14 14 14 14 14 14 14 13 14 14 15 15 14 14 15 15 14 15 15 15 15 15 16 15 16 16 16 17 16 17 16 16 16 16 16 16 16 16 19 16 16 15 15 16 17 15 15 16 15 16 15 14 14 15 15 15 14 15 15 15 14 14 14 15 15 14 15 14 15 15 15 15 14 15 15 15 15 14 15 15 14 14 14 13 13 12 13 13 13 13 14 13 12 12 13 11 12 12 11 12 12 12 12 11 11 11 11 11 11 10 10 11 11 11 10 10 11 10 10 10 11 10 10 10 10 10 9 10 9 9 9 10 10 9 9 9 10 9 9 9 9 9 9 9 9 9 8 9 9 9 8 8 8 8 8 9 8 9 8 8 9 9 9 9 8 8 8 8 9 8 8 9 8 8 8 8 8 8 8 8 8 8 8 7 7 7 7 7 8 7 8 7 7 8 8 7 7 7 8 8 7 7 7 8 7 8 7 7 8 7 7 7 7 7 7 7 7 7 7 7 6 7 7 7 7 6 7 7 7 6 6 7 7 7 7 7 7 6 7 6 7 7 7 6 6 6 7 7 6 6 7 7 6 0 
6 5 6 6 5 5 6 6 7 6 6 6 6 6 6 6 6 6 6 5 6 5 6 7 6 6 6 6 6 6 6 6 6 6 6 6 6 5 6 6 6 6 6 6 6 6 6 6 7 6 6 6 6 6 7 6 5 6 7 6 6 6 6 7 6 6 6 6 6 6 7 6 6 6 6 6 7 7 7 6 6 6 7 6 7 7 6 6 6 7 7 7 6 7 7 7 7 7 7 7 7 6 7 6 6 7 7 6 6 7 7 7 7 7 7 7 7 8 7 7 7 7 7 7 7 7 7 8 8 7 7 7 6 7 8 7 7 7 7 7 8 7 7 8 8 7 7 8 7 7 8 8 8 7 8 7 7 8 8 8 8 8 8 8 8 8 8 8 8 7 8 8 8 8 8 8 9 8 8 7 8 8 8 8 8 8 8 8 8 8 9 8 8 8 8 8 8 9 8 9 9 8 9 8 9 8 9 9 9 9 8 9 9 9 9 10 9 9 9 9 9 9 9 10 9 8 10 9 9 9 9 10 9 10 9 10 9 10 10 9 10 10 10 10 9 10 9 11 10 10 9 9 10 10 10 10 10 10 10 11 10 10 10 11 10 11 10 10 11 10 11 11 11 11 10 10 11 10 10 11 10 12 11 12 11 11 11 12 11 11 12 11 12 11 11 11 11 11 12 12 11 12 12 11 12 11 11 12 12 11 12 12 12 11 11 12 12 12 11 12 12 12 12 12 12 12 12 12 13 12 12 13 12 12 13 13 13 13 12 13 13 13 13 13 13 14 14 13 14 14 13 14 14 14 14 14 14 14 14 13 14 14 15 14 14 14 15 15 15 15 15 15 17 17 16 15 16 16 15 15 16 15 15 15 16 15 16 16 15 16 22 16 16 14 15 15 15 15 15 15 14 14 16 14 14 15 15 14 15 14 13 14 15 14 14 14 15 15 14 13 14 14 14 15 14 15 12 13 13 13 12 12 13 13 12 13 13 12 12 12 12 12 11 11 12 11 11 12 10 11 11 11 11 11 11 11 12 11 11 10 11 11 11 10 10 10 10 10 10 10 10 10 9 10 10 9 10 9 9 10 9 9 9 9 9 9 9 9 9 9 9 9 9 9 9 9 9 8 8 9 9 8 8 8 8 8 9 8 9 8 8 8 8 9 8 8 8 8 8 7 8 7 7 8 8 8 8 8 7 8 7 7 8 7 8 8 7 8 7 7 7 8 7 8 7 8 8 7 7 7 8 7 7 7 7 7 7 7 7 7 6 7 7 7 7 7 7 7 7 7 7 7 6 7 7 7 7 7 7 7 7 6 6 7 7 7 7 6 7 6 7 7 6 7 7 7 7 6 6 0 
6 6 6 6 6 6 6 6 6 6 6 6 6 6 6 6 6 6 6 6 6 6 6 6 6 6 6 6 6 6 7 6 7 6 6 6 6 6 6 6 6 6 6 6 6 6 6 7 6 6 6 6 6 6 6 7 6 6 6 6 6 6 6 6 6 6 6 6 6 7 6 7 6 6 6 6 6 6 6 7 6 6 6 6 7 6 7 6 6 7 6 6 6 6 7 7 7 6 6 7 6 7 7 6 7 7 7 7 6 6 6 7 6 7 7 6 7 7 7 7 8 7 7 7 7 7 7 7 7 6 7 7 7 7 8 7 7 8 7 7 7 8 8 7 7 8 7 8 7 8 7 7 7 8 8 8 8 8 7 8 8 8 8 8 8 7 8 8 8 8 8 8 7 8 8 8 8 8 8 8 8 8 8 8 8 8 8 8 8 8 8 8 8 8 9 8 8 8 8 9 8 9 8 9 8 9 9 9 9 9 9 9 9 9 9 9 8 9 9 8 9 10 9 9 9 9 9 9 10 9 10 10 9 9 10 9 9 10 9 10 9 10 9 10 11 9 11 9 10 11 10 10 10 11 10 11 11 10 10 10 10 10 11 10 11 11 11 11 11 10 10 11 11 10 10 11 11 10 10 11 11 11 12 11 10 11 11 12 10 11 11 11 11 12 11 11 11 11 11 11 11 12 11 12 12 11 11 12 12 12 12 12 11 12 12 11 12 12 13 13 12 11 12 12 13 11 12 12 13 12 12 13 13 12 13 13 13 13 13 13 13 13 12 14 13 12 12 13 13 13 14 14 14 13 14 14 13 14 13 14 14 15 14 14 14 15 15 15 14 15 15 16 15 25 17 15 15 15 14 15 14 15 15 15 15 15 15 15 15 17 43 22 15 14 15 15 14 15 14 15 14 14 14 14 15 14 14 14 14 14 15 14 13 13 14 14 14 14 14 14 13 13 14 13 13 14 16 14 12 13 12 12 13 12 13 13 12 12 12 12 12 12 12 11 11 12 11 11 11 12 10 11 11 11 11 11 10 11 10 10 10 10 11 10 10 9 11 10 10 11 10 10 10 10 8 9 9 10 9 9 9 9 9 9 9 9 9 8 9 9 9 9 8 9 9 8 8 8 9 9 8 9 9 8 8 8 9 9 8 8 8 7 8 9 8 8 8 8 8 7 8 8 8 8 7 8 8 8 8 7 8 8 8 7 7 7 7 7 7 7 7 7 7 7 7 7 7 8 7 7 7 7 7 7 7 7 7 8 7 7 7 7 6 6 7 7 7 6 7 6 7 6 6 7 7 7 7 7 6 7 7 6 6 7 6 7 7 7 6 6 6 6 7 6 6 7 6 6 6 0 
5 6 6 5 5 5 6 5 6 6 6 6 5 7 6 5 6 6 6 6 5 5 6 6 6 6 6 6 6 6 6 6 6 6 6 6 6 6 7 6 6 6 7 7 6 6 6 6 6 6 6 6 6 6 6 7 6 6 6 6 6 6 5 6 6 6 7 6 6 6 7 7 7 7 7 6 7 6 7 6 7 6 7 7 7 7 7 7 7 6 7 6 7 7 7 6 7 7 7 7 7 6 7 7 7 7 7 7 6 7 7 7 7 6 7 7 7 7 7 7 7 7 7 7 7 7 7 7 7 7 7 7 7 7 7 7 7 7 7 7 8 7 7 7 7 7 8 7 8 7 7 8 7 8 8 8 8 8 7 8 8 7 8 8 8 7 8 8 8 8 8 7 8 8 8 8 8 9 8 9 7 8 8 8 9 8 8 9 8 8 9 8 9 9 8 8 8 8 8 8 8 9 8 8 9 9 9 9 9 8 8 9 8 9 9 9 10 8 9 9 10 9 9 9 9 9 9 9 9 9 9 9 9 9 10 9 9 10 9 10 9 9 10 10 10 10 10 9 10 10 10 9 10 9 9 10 10 10 10 9 10 10 11 9 11 10 10 11 10 10 10 10 10 10 11 11 11 11 10 11 10 11 11 11 10 11 11 11 11 11 11 10 11 11 10 11 11 11 11 11 11 11 11 11 12 12 11 12 11 11 13 12 12 12 12 12 12 11 12 12 13 12 11 11 12 12 12 13 13 13 12 12 12 13 13 13 13 13 12 12 12 13 13 12 13 13 13 14 13 13 13 14 14 14 13 14 13 13 14 13 14 14 15 15 14 14 15 14 15 15 15 14 16 27 17 16 14 14 15 15 14 15 15 14 15 15 15 15 15 16 25 19 15 15 15 14 14 14 14 13 13 14 14 14 14 13 13 14 13 14 13 13 14 13 13 13 13 12 13 14 13 13 14 13 14 13 20 13 13 13 12 12 12 12 12 12 13 11 11 12 12 12 11 12 11 11 12 11 11 10 11 11 11 11 10 11 11 11 10 11 10 10 10 10 10 10 10 10 10 10 10 9 10 9 9 9 10 9 9 10 9 10 10 8 8 9 9 9 8 9 8 9 8 8 9 8 8 8 9 9 9 9 9 8 8 8 9 8 8 8 8 8 8 8 8 8 8 8 8 7 7 8 7 8 8 8 7 8 7 7 8 8 8 7 8 7 8 7 8 8 8 7 8 7 7 7 7 7 7 7 7 7 6 7 7 7 6 7 7 7 7 7 7 7 7 7 8 7 7 6 6 7 6 7 6 7 6 7 7 6 6 7 6 7 7 6 6 7 6 7 7 6 7 6 7 7 7 5 6 0 
6 6 6 6 6 5 6 6 6 6 6 6 5 6 5 6 6 6 5 6 6 6 6 6 6 6 6 6 5 6 6 6 5 6 6 6 6 6 6 6 6 6 6 6 7 6 6 6 6 6 6 6 6 6 6 6 6 6 6 6 6 6 6 6 6 6 6 7 6 6 6 6 7 6 6 6 6 7 6 6 6 7 6 6 6 7 6 7 6 7 6 7 7 7 6 6 7 7 7 7 7 7 7 7 7 7 6 7 6 7 7 7 6 7 8 7 7 7 7 8 7 7 7 7 7 7 7 7 7 7 7 7 7 7 7 7 7 8 8 7 8 7 8 7 7 8 7 7 8 7 8 8 8 7 8 8 8 8 8 8 7 7 8 8 8 8 7 7 7 8 8 7 8 8 7 8 8 9 8 8 8 8 7 8 8 8 8 8 8 8 8 8 8 8 9 8 8 9 8 9 8 9 8 7 9 9 9 9 8 9 9 9 9 9 9 8 9 9 9 9 9 9 10 9 9 9 9 9 8 9 9 9 10 9 9 9 9 9 9 10 10 10 9 10 9 10 10 10 9 10 9 10 10 10 10 10 10 10 11 10 10 10 11 10 10 11 10 10 10 11 10 11 10 11 10 10 11 11 11 11 10 10 11 12 11 10 11 11 10 11 11 11 10 11 11 11 11 11 11 11 10 11 11 11 11 11 12 11 12 11 12 11 12 11 12 12 12 12 11 12 11 12 11 12 12 12 12 12 11 12 12 12 12 12 12 12 13 12 12 13 13 13 13 13 13 13 12 12 13 12 13 13 13 13 14 14 13 13 13 14 13 14 14 14 15 15 15 15 15 14 15 15 15 16 15 15 15 14 15 14 15 14 14 14 15 14 14 15 14 15 17 15 14 14 14 14 14 14 14 14 14 14 13 14 13 13 14 14 14 13 13 13 13 12 13 13 13 13 13 13 13 14 14 13 12 13 16 13 13 13 12 12 13 13 12 11 12 11 12 12 12 11 12 11 11 11 11 11 11 12 11 10 11 11 10 11 10 10 10 10 10 10 10 11 9 10 10 10 10 9 10 9 9 9 9 9 10 9 9 10 9 10 9 9 9 9 9 9 9 8 9 8 8 9 8 9 8 8 9 9 8 9 8 8 8 8 8 9 8 8 7 8 8 8 8 8 8 7 8 8 8 7 7 8 7 8 8 7 8 8 8 8 7 7 8 7 7 8 7 7 7 7 7 7 7 7 7 7 7 7 7 7 7 8 7 7 7 7 7 7 7 7 6 7 7 7 7 7 7 7 7 6 7 7 7 7 7 7 7 6 7 7 7 7 6 7 7 6 6 7 7 7 6 6 6 7 6 7 7 0 
6 6 5 6 6 5 6 6 6 6 6 6 6 6 5 6 6 6 6 6 6 6 6 6 6 6 6 6 6 6 6 6 6 6 6 6 6 6 6 6 6 6 5 6 6 6 6 6 6 6 6 6 6 6 6 6 6 6 6 6 6 6 6 6 7 6 6 6 7 7 7 7 7 6 6 7 6 6 6 7 7 6 7 7 6 6 7 6 7 7 6 7 7 6 6 6 7 7 7 6 6 7 7 7 6 7 7 7 7 7 7 6 7 7 7 7 6 7 7 7 7 7 7 7 7 7 7 7 7 6 7 7 7 7 7 8 7 7 7 7 7 7 7 7 7 7 8 7 7 7 8 7 8 7 8 7 7 7 7 7 7 8 7 8 7 8 8 8 8 8 8 8 8 8 7 8 8 8 9 7 8 8 8 8 9 7 9 8 8 8 8 8 9 9 8 9 8 8 9 9 8 9 9 8 8 9 8 9 9 9 8 9 9 10 9 8 9 9 9 9 9 9 9 9 9 9 9 9 10 9 9 9 9 8 9 9 9 9 9 10 9 10 9 10 10 10 9 10 9 10 10 10 10 10 10 9 10 10 10 10 10 10 9 10 10 10 10 10 10 10 11 10 10 10 10 10 11 12 11 10 11 11 11 11 11 11 11 11 11 11 11 11 11 11 11 11 10 10 11 11 12 11 11 11 11 11 11 11 11 10 11 12 11 12 11 12 12 11 12 12 11 12 12 12 12 12 12 12 12 12 12 12 12 12 12 12 13 12 12 12 12 13 13 13 13 13 12 13 14 13 13 13 12 13 13 13 13 13 13 14 14 13 13 14 15 15 14 14 13 14 14 15 15 15 14 15 14 14 14 13 14 14 14 14 15 14 13 13 14 14 14 15 14 14 15 14 13 14 13 13 13 13 13 13 13 12 13 13 13 14 13 13 13 13 14 13 13 13 13 13 12 13 13 12 12 12 13 14 12 12 12 13 12 12 11 12 12 12 12 11 11 12 12 12 12 11 11 11 11 11 10 11 11 10 10 10 10 10 10 11 10 10 10 10 10 10 10 10 10 10 10 9 10 9 10 9 10 9 9 9 9 9 9 8 9 8 9 9 9 9 9 9 9 9 9 9 9 8 8 8 8 8 8 8 8 8 8 8 8 8 8 8 8 8 8 8 8 7 8 8 7 8 8 8 8 7 8 8 8 7 7 7 7 7 8 7 7 8 8 8 7 7 7 8 8 7 7 8 7 7 6 7 7 7 7 7 6 7 7 7 7 7 7 7 7 7 6 7 7 7 6 7 7 7 7 7 6 7 7 7 6 7 7 7 6 6 7 7 7 6 6 7 6 6 6 6 6 7 7 0 
5 6 6 5 5 6 6 6 6 6 6 6 5 5 6 6 6 6 6 6 5 6 6 6 5 5 6 6 6 6 6 6 6 6 6 5 6 6 5 5 6 6 6 6 7 6 6 6 7 7 6 6 6 6 6 6 6 6 7 6 6 6 6 6 6 6 6 6 6 7 6 7 6 7 6 6 7 6 6 7 7 6 7 7 7 6 7 7 7 7 7 6 6 7 7 7 7 7 6 7 6 7 7 7 7 7 7 6 7 6 7 7 7 6 7 7 7 8 7 7 7 6 7 7 7 7 7 7 7 7 7 7 7 7 7 7 7 7 7 7 8 7 8 7 7 7 8 8 8 8 8 7 8 7 8 7 7 8 7 8 8 8 8 8 8 8 8 7 8 7 7 7 8 8 7 8 8 7 8 8 8 8 9 8 8 8 8 8 8 8 8 8 8 8 8 8 8 9 8 8 8 9 9 8 9 8 8 9 9 8 8 9 9 9 8 9 8 9 9 9 10 9 9 9 9 8 9 9 9 9 9 9 9 9 9 9 9 9 9 9 10 10 9 9 11 10 10 9 9 10 10 10 10 9 9 10 10 10 10 10 10 9 11 10 10 10 10 10 10 10 10 10 10 10 10 10 10 11 10 10 11 10 11 10 11 10 11 11 11 11 11 10 11 11 11 10 11 11 11 11 10 11 11 10 11 11 11 11 11 12 12 12 11 11 11 11 12 11 11 12 11 12 12 11 11 12 12 12 12 12 12 12 12 12 12 12 12 12 13 13 12 13 13 13 12 13 12 12 13 13 12 13 13 12 13 13 13 13 13 13 13 14 13 13 14 14 14 15 14 15 14 14 15 14 14 14 14 14 14 14 14 15 14 14 14 14 14 14 14 13 13 13 13 14 13 14 13 14 13 13 14 13 13 13 13 14 13 13 12 13 13 13 13 13 13 13 13 13 12 12 12 12 13 12 13 12 12 13 12 12 13 11 12 11 12 12 12 11 12 11 12 12 11 12 11 11 12 11 11 11 11 10 11 10 10 11 11 11 10 10 10 10 9 10 11 10 9 9 10 9 9 9 9 10 9 9 8 10 9 9 9 9 9 9 9 9 9 9 9 9 8 9 9 9 8 8 9 9 8 8 8 8 8 8 8 8 8 8 8 8 8 9 8 8 8 8 7 8 8 7 8 8 8 7 7 7 8 7 8 8 8 8 8 7 8 7 7 8 8 7 8 7 7 7 8 8 7 7 7 7 6 7 8 7 7 7 7 7 6 6 7 7 7 7 6 7 6 7 7 7 6 7 6 7 7 7 7 6 6 6 7 7 7 6 6 7 6 6 6 6 6 6 7 6 6 6 6 7 7 0 
6 5 5 6 5 5 6 6 6 6 6 6 6 5 6 5 5 6 6 6 6 6 5 6 6 6 6 6 6 6 6 6 6 6 6 6 6 6 6 5 6 6 6 7 6 6 6 6 6 6 6 7 6 6 6 6 6 6 6 6 6 6 6 6 6 7 6 6 7 6 6 7 7 7 6 7 7 6 6 7 7 7 6 6 6 7 7 6 7 7 7 6 7 6 7 7 6 6 7 7 7 7 7 6 7 7 7 7 7 7 7 7 7 7 7 7 7 7 7 7 6 7 6 7 7 7 7 8 7 7 7 7 7 7 7 7 7 7 7 7 8 7 7 8 8 7 7 7 8 7 7 7 8 7 7 7 7 7 7 8 8 7 7 8 8 8 8 8 8 8 8 8 7 8 8 8 8 8 8 8 8 8 9 8 7 8 8 8 8 9 8 8 8 8 8 8 8 8 8 8 8 9 8 9 8 9 8 9 8 9 9 9 9 9 8 9 8 8 9 9 9 9 9 9 9 9 9 9 9 9 9 9 9 10 9 9 9 9 9 9 10 10 10 9 10 9 9 10 10 10 10 11 10 10 10 10 10 10 10 10 10 9 10 10 10 10 10 10 10 10 10 11 10 10 10 10 10 10 11 10 10 10 10 10 11 11 11 10 11 11 11 11 10 11 10 11 11 11 11 10 11 11 11 10 10 11 11 12 11 11 11 11 11 11 11 11 11 11 12 11 11 12 11 11 12 11 11 11 11 12 12 12 12 12 12 12 12 13 12 12 12 12 12 12 12 12 12 12 13 13 12 13 12 12 13 13 13 13 13 13 14 14 13 14 14 14 14 14 14 14 14 14 14 15 14 14 13 14 14 13 14 14 14 13 13 13 13 13 13 14 14 13 14 13 13 14 13 14 13 13 12 13 13 13 14 13 13 13 13 12 13 12 12 12 13 12 12 12 12 12 12 12 12 12 13 12 12 12 12 12 12 12 12 12 11 12 11 11 12 11 11 12 12 11 11 10 11 11 11 11 11 10 11 10 10 11 10 11 10 10 11 10 10 11 10 9 10 9 10 10 9 9 10 9 9 10 9 10 9 9 9 8 9 9 9 9 9 8 8 9 9 9 8 8 9 8 8 9 9 8 9 8 8 8 8 8 8 8 8 8 8 8 8 8 7 7 8 7 8 8 8 7 8 8 7 7 7 8 7 7 7 7 8 7 8 8 7 7 7 8 7 7 7 7 6 7 7 7 7 7 7 7 7 7 8 7 7 7 7 7 6 7 7 7 6 7 7 7 7 7 6 7 6 6 7 6 6 6 6 7 7 7 7 6 7 7 6 7 7 7 6 6 7 6 6 6 7 6 7 0 
6 6 6 6 6 6 6 6 6 6 5 5 6 6 6 5 6 6 6 6 6 5 6 5 6 6 5 6 6 6 6 6 6 6 5 6 6 6 6 7 6 6 6 6 6 6 6 6 6 6 6 6 6 7 6 6 6 6 7 5 6 6 6 6 6 6 6 6 7 7 6 7 6 6 6 6 6 6 7 6 6 6 7 7 7 6 7 6 7 7 6 6 7 7 6 7 6 7 6 6 6 6 6 7 7 7 7 6 7 8 7 7 6 7 7 7 7 6 7 7 7 7 6 7 8 7 7 7 7 7 7 7 7 7 7 7 7 7 8 7 7 7 7 7 7 7 7 7 7 8 8 8 8 7 8 7 8 8 7 7 7 8 7 8 7 8 8 8 7 8 8 8 7 8 8 8 8 8 8 8 7 8 8 8 8 8 8 8 8 8 8 9 8 8 8 8 8 8 8 9 8 8 8 8 9 8 9 9 9 8 8 9 9 9 9 9 9 8 8 9 8 8 9 9 9 9 8 8 9 9 9 9 9 9 10 9 9 8 9 10 9 8 9 9 10 10 9 9 10 9 10 11 10 10 10 10 10 10 9 9 10 10 9 10 10 10 10 9 10 10 10 10 10 10 10 10 10 11 11 11 10 10 11 10 10 11 10 11 11 11 10 11 10 10 11 10 11 11 11 12 10 11 11 11 10 11 11 11 11 11 11 11 11 11 11 11 11 12 12 11 12 11 11 11 12 11 12 12 11 11 13 11 12 11 12 12 11 12 12 13 12 12 11 12 13 12 12 13 12 12 13 13 13 13 12 13 13 14 13 13 13 13 14 14 14 14 14 15 14 14 14 14 14 14 14 13 14 13 14 14 13 13 13 14 13 14 14 13 13 13 14 14 13 13 13 13 13 13 13 13 12 13 12 13 12 12 12 13 12 12 13 12 11 12 13 12 12 12 12 12 13 12 12 13 12 12 12 12 12 11 12 11 12 11 11 11 12 11 11 12 12 12 12 12 11 11 11 11 11 10 11 10 10 11 11 10 10 11 11 10 9 10 10 10 9 9 9 10 10 10 9 9 10 10 9 9 9 9 9 8 9 9 9 9 9 8 9 9 9 8 9 8 9 8 8 9 8 9 9 8 8 8 8 8 8 8 7 8 8 9 8 8 8 8 9 8 8 8 8 7 7 7 8 8 7 8 8 7 8 7 7 8 8 7 7 7 7 7 8 7 8 8 7 7 7 8 7 6 7 7 7 7 6 7 7 7 7 7 7 7 7 7 7 7 7 7 7 7 7 7 6 7 7 7 7 7 7 6 6 7 6 7 7 6 6 6 7 7 6 6 7 6 6 6 6 6 7 6 6 0 
6 5 6 6 5 6 6 5 5 5 6 5 6 6 5 6 6 7 6 6 6 6 6 6 6 6 6 5 6 6 5 6 6 6 6 6 6 6 6 6 6 6 6 6 6 6 6 6 6 6 6 7 6 6 6 6 6 6 7 6 6 6 6 6 6 7 6 6 6 6 7 6 7 7 7 6 7 6 7 6 7 7 6 6 6 6 6 6 7 7 6 7 6 7 7 6 6 7 7 7 6 7 6 7 7 6 7 7 7 7 6 7 7 7 7 7 7 6 7 7 7 7 7 7 7 7 7 7 7 7 7 7 7 8 7 7 7 8 7 7 8 7 7 7 7 7 7 7 7 7 7 8 7 7 7 8 7 8 8 7 8 8 8 8 7 7 7 8 8 7 8 7 7 8 8 8 8 8 8 8 8 8 8 9 8 8 7 8 8 8 8 8 8 8 8 9 8 7 8 9 8 8 8 9 8 9 9 8 9 8 9 8 8 9 9 9 8 9 9 9 9 9 8 8 8 9 9 8 9 9 9 9 9 9 9 9 9 9 9 9 9 9 9 9 10 9 9 9 9 9 9 10 10 9 10 10 10 10 10 9 10 10 10 10 9 10 10 9 10 9 10 10 10 10 10 11 11 11 11 10 11 11 10 11 11 11 11 11 10 11 10 10 11 11 11 12 11 10 10 10 11 11 11 11 11 11 11 11 11 10 11 11 11 11 11 11 12 11 12 12 11 11 13 11 12 11 12 11 11 11 11 12 11 13 12 12 12 12 12 12 12 13 13 11 12 12 12 13 12 13 12 13 12 12 12 12 12 13 13 12 13 13 13 14 14 15 15 16 15 15 15 14 13 13 14 14 13 13 13 13 12 12 13 12 14 13 13 13 13 14 13 13 12 13 14 13 13 13 12 13 12 12 12 12 13 12 12 12 12 12 12 12 12 12 11 11 12 12 11 12 12 12 12 12 12 12 11 12 12 11 11 11 11 11 11 11 12 11 11 11 10 12 12 11 11 11 10 10 10 10 11 10 10 10 10 10 10 10 10 10 10 10 10 10 10 10 9 9 9 9 9 9 9 10 9 8 9 9 9 9 9 9 8 9 8 9 9 9 9 9 8 8 8 8 8 8 8 8 8 8 8 8 8 8 8 8 8 7 7 9 8 8 8 8 8 8 7 7 8 8 7 8 8 7 8 8 7 7 7 7 7 7 8 8 7 7 8 8 8 7 7 7 7 7 8 7 7 7 7 7 7 7 6 7 7 7 7 6 7 7 7 7 7 7 6 7 7 7 7 7 7 7 6 7 7 7 6 7 7 6 7 7 7 7 7 7 7 6 6 6 6 6 6 6 6 7 6 6 7 0 
6 6 6 6 6 5 6 5 6 6 6 6 6 6 6 5 6 6 5 6 5 6 6 6 6 6 6 6 6 6 6 6 6 6 6 6 6 6 6 6 6 6 6 6 6 6 6 6 6 6 6 6 6 6 6 6 7 6 7 6 7 6 6 5 6 6 6 6 7 6 6 6 6 6 6 6 6 6 7 6 7 6 7 6 6 6 6 7 7 7 6 6 6 6 7 6 6 7 6 7 7 6 7 6 7 6 7 7 6 7 7 7 6 6 7 7 7 7 7 7 7 7 7 7 7 6 7 7 7 6 8 6 7 7 7 7 7 7 7 7 8 7 8 7 8 8 7 7 7 8 7 7 7 7 8 7 7 7 7 7 8 7 7 8 7 8 8 8 8 7 8 7 8 8 8 7 8 8 8 8 8 7 8 8 8 8 8 8 8 7 8 8 8 8 8 8 8 8 9 8 8 8 8 8 9 8 8 8 9 8 8 9 8 9 8 9 9 9 9 9 8 9 9 9 8 9 9 9 9 9 9 10 9 9 9 9 9 9 9 9 9 9 9 10 9 9 9 9 9 9 10 10 9 9 9 10 9 9 10 9 10 10 10 10 10 11 10 10 10 10 9 10 10 10 10 10 10 10 9 10 9 10 10 10 10 10 10 11 10 11 11 10 10 10 10 10 10 11 11 10 11 11 11 10 11 11 11 11 11 11 10 10 11 11 11 11 11 11 10 11 12 11 12 11 11 11 11 13 12 12 12 11 12 12 12 12 11 11 12 11 12 13 12 12 12 12 12 11 12 13 12 13 12 13 12 12 13 13 13 12 12 13 14 14 14 16 18 23 19 16 15 14 13 13 14 14 13 13 13 14 13 12 13 13 13 13 13 13 13 12 13 13 13 13 13 12 13 14 13 12 12 13 13 13 12 12 12 13 12 13 13 12 12 12 12 12 12 12 12 11 12 12 12 11 11 12 12 12 11 12 12 11 11 12 11 11 11 11 11 10 11 10 10 11 11 11 10 10 11 10 11 10 10 10 10 10 10 10 10 10 10 9 10 9 9 10 9 9 10 10 9 9 9 9 9 10 9 9 9 9 10 9 9 9 9 9 9 9 8 9 8 9 8 8 9 8 8 8 8 8 8 8 9 8 8 8 8 8 7 9 8 8 8 7 8 7 8 8 7 8 8 8 8 8 8 7 7 8 7 8 7 7 8 8 7 7 7 7 8 7 7 7 7 7 7 8 7 7 7 7 7 7 7 7 6 7 7 7 7 6 7 7 7 6 7 7 7 7 7 7 7 7 7 7 7 8 7 6 7 6 7 7 7 7 7 7 7 6 6 7 7 6 6 6 6 7 7 6 6 0 
5 6 6 6 6 6 5 5 6 5 6 6 6 6 6 6 6 6 6 6 6 6 6 6 6 6 6 6 6 5 6 6 6 6 6 6 6 5 6 6 6 6 6 6 6 6 6 6 5 7 6 6 6 6 6 6 6 6 6 6 6 6 6 6 6 7 6 6 6 6 6 6 6 7 6 6 6 6 6 7 7 7 7 6 7 6 7 6 6 6 6 7 6 7 7 7 6 7 7 7 7 7 7 7 7 6 7 7 7 7 7 6 7 6 7 7 7 7 6 7 7 7 7 7 6 7 7 6 7 7 7 7 6 7 6 7 8 7 7 7 7 7 7 8 7 7 7 7 8 7 7 7 7 7 7 7 8 7 7 7 8 7 8 8 7 7 8 7 8 8 8 8 7 8 8 7 7 7 8 8 8 8 8 8 8 9 8 8 8 8 7 9 8 8 9 8 8 8 8 8 8 8 9 9 9 8 9 8 9 8 8 8 9 9 9 8 8 9 8 9 9 9 8 9 9 9 9 9 9 9 8 8 9 9 8 9 9 9 9 9 9 9 9 10 9 9 9 10 9 10 10 9 10 9 9 9 9 10 9 10 9 9 10 10 10 9 9 9 9 10 10 10 11 10 10 10 10 10 10 10 10 10 10 10 10 10 10 10 10 10 10 10 11 10 11 11 10 11 10 10 10 11 10 11 11 11 11 11 10 11 11 12 11 11 11 11 10 11 12 11 11 10 11 11 12 11 11 11 11 11 11 11 11 11 12 11 12 12 12 12 12 12 11 11 13 11 12 12 12 12 12 13 12 13 12 13 12 13 12 12 12 12 14 14 15 17 28 54 23 17 15 14 14 13 14 12 13 13 13 13 12 12 12 12 12 13 12 12 12 13 13 13 12 13 12 12 13 12 13 13 13 13 13 12 12 11 12 12 11 12 13 12 11 12 12 12 12 12 12 12 11 12 12 12 12 11 11 11 11 11 11 11 10 12 11 12 11 11 10 10 10 10 10 11 10 10 11 11 11 10 10 11 11 10 11 10 10 10 10 10 10 10 9 9 10 10 10 9 10 10 9 9 9 9 8 9 9 9 9 9 9 9 9 9 8 10 8 9 8 8 8 8 9 8 8 8 8 8 7 8 8 7 8 8 8 8 8 8 8 8 8 8 8 8 8 8 8 7 7 8 8 7 8 8 8 7 7 8 7 8 7 7 7 7 7 8 8 7 7 7 7 7 6 8 7 7 7 7 7 7 7 7 7 7 7 7 6 7 7 7 7 6 7 7 7 7 7 6 7 6 6 7 7 6 7 7 6 7 7 7 7 6 7 7 6 6 7 7 7 7 6 7 6 6 7 7 7 6 6 0 
6 6 6 6 5 6 5 6 6 6 6 6 5 6 6 6 5 6 6 5 6 6 6 6 6 6 6 6 5 6 5 6 6 6 6 6 5 6 6 6 6 6 6 6 6 6 6 6 6 6 6 6 6 6 5 6 6 6 6 6 6 6 6 6 6 6 6 6 6 7 6 6 7 6 6 6 6 6 6 6 6 6 6 6 6 7 7 7 6 6 7 6 7 6 7 6 6 6 6 7 6 7 6 7 7 7 7 7 6 7 6 6 7 7 7 7 7 7 7 7 7 7 7 7 7 7 7 6 7 7 7 7 7 6 7 7 7 7 7 8 8 7 7 7 7 7 7 7 7 7 7 7 7 7 7 7 8 7 8 8 8 7 8 7 7 8 7 8 8 8 8 7 8 8 8 8 8 7 8 8 7 8 7 8 8 8 8 8 7 8 8 9 8 8 8 8 8 8 8 8 8 8 8 8 8 9 8 8 9 8 9 8 8 8 8 8 8 8 9 8 8 9 8 9 10 8 8 9 9 8 9 8 8 9 9 9 9 9 9 9 9 8 9 9 9 9 10 9 9 9 9 8 10 10 9 10 9 9 10 9 10 9 10 10 10 10 10 10 10 10 10 10 10 9 10 10 10 9 10 10 9 11 10 10 9 10 10 10 10 10 10 10 10 10 10 10 11 10 10 10 10 10 10 11 10 10 11 10 10 11 11 10 11 11 11 11 10 11 11 10 11 11 12 11 11 11 11 11 12 10 11 11 11 11 11 12 12 12 12 12 12 11 11 12 11 12 12 11 11 12 13 12 12 12 12 13 12 12 12 13 13 14 13 13 15 16 46 51 27 19 14 14 13 14 13 13 13 13 13 13 12 13 13 13 12 12 13 13 13 12 12 12 12 12 12 12 11 12 12 12 12 15 13 12 11 11 12 12 12 12 12 12 12 12 12 12 12 12 12 11 11 12 12 12 11 11 11 11 12 11 12 11 11 11 11 11 11 12 10 11 11 11 11 10 11 11 11 13 10 10 11 11 11 10 10 10 9 10 10 9 9 10 9 10 10 9 9 9 9 9 9 9 9 9 9 9 8 8 9 8 9 9 8 9 9 8 8 9 8 8 8 8 9 8 8 8 8 8 8 8 8 8 8 7 8 8 8 8 8 8 8 7 8 7 8 7 8 8 8 8 8 8 7 7 7 8 7 7 7 7 7 7 7 7 7 8 7 8 7 8 7 7 7 7 8 7 7 7 7 7 8 8 7 7 7 7 7 7 7 7 7 6 6 7 7 7 7 6 7 6 6 6 7 6 7 6 7 7 7 6 6 7 6 6 6 7 6 6 6 7 7 7 6 6 6 6 6 6 6 0 
6 6 5 5 6 5 5 6 5 5 6 6 6 6 6 6 6 6 6 6 6 6 6 6 6 6 6 6 6 6 6 6 6 6 6 6 6 6 6 6 6 6 6 5 6 6 6 6 6 6 6 6 6 6 6 6 6 6 6 6 6 7 6 6 6 6 5 6 6 6 6 6 6 6 6 6 6 6 7 7 6 6 7 7 6 6 6 6 7 6 7 6 6 7 6 7 6 7 6 7 7 7 7 7 7 7 7 6 6 7 7 6 7 7 7 7 7 7 7 6 7 7 7 7 7 7 7 6 7 7 7 7 7 7 7 8 7 7 7 7 7 7 7 7 7 7 7 8 7 7 8 7 7 7 7 8 8 8 8 6 8 7 8 7 7 8 8 7 7 7 8 8 8 7 8 8 8 8 8 8 8 8 8 8 8 8 8 8 8 8 8 8 8 8 8 8 8 8 9 8 8 8 8 8 8 8 8 8 9 8 9 9 8 8 9 9 8 8 8 9 8 9 9 9 8 8 9 8 9 9 9 9 9 9 9 10 9 9 9 9 9 9 9 9 9 9 9 9 9 9 10 9 9 9 10 9 9 10 9 9 10 9 10 10 9 10 10 10 10 10 10 10 10 10 9 10 10 10 10 10 11 10 11 10 10 10 11 10 10 10 9 10 10 10 11 10 10 10 11 10 10 10 10 10 11 11 10 10 10 11 11 10 11 11 10 11 11 10 11 11 11 11 11 10 11 11 10 11 12 11 11 12 11 11 11 11 11 12 11 12 12 10 12 12 11 12 11 12 11 12 12 12 13 12 12 12 12 12 12 13 13 13 13 14 15 16 37 32 23 17 15 14 13 13 13 12 13 12 13 12 12 12 12 11 12 12 12 12 12 11 12 12 11 13 12 13 12 12 12 12 12 13 12 12 11 11 12 12 12 11 12 11 11 12 12 12 12 11 11 11 12 12 11 12 12 12 11 11 11 11 11 12 11 11 11 11 11 10 11 11 10 10 11 11 11 10 10 11 10 10 11 11 10 11 10 10 9 9 10 9 10 9 10 8 8 9 10 9 9 8 9 9 9 9 9 9 9 8 8 9 8 8 7 9 8 8 8 8 8 8 8 8 8 8 8 8 8 8 8 7 8 8 7 8 8 7 8 8 8 8 8 8 8 8 7 8 8 8 8 7 8 8 7 7 7 7 7 7 7 8 8 7 7 8 8 7 7 7 7 7 7 7 7 7 7 7 7 7 7 7 8 7 7 6 7 7 7 7 7 7 7 7 6 7 7 7 6 7 7 6 6 6 6 6 7 7 7 7 6 6 6 7 7 7 7 7 6 7 7 6 6 7 6 7 7 6 6 7 6 0 
5 6 5 5 5 5 6 5 6 6 6 5 6 6 6 5 6 6 6 6 6 5 6 6 6 5 6 6 6 6 6 5 6 6 6 6 6 6 6 6 6 6 6 6 6 7 6 5 6 6 6 6 6 6 6 6 6 6 6 6 6 6 6 6 6 6 7 6 6 6 6 6 6 6 7 6 6 6 7 6 6 7 6 6 7 7 7 7 7 7 6 7 7 6 6 6 6 7 7 6 6 6 7 7 7 7 7 6 7 7 7 7 7 7 7 7 6 7 7 6 7 7 7 7 7 7 7 6 7 7 7 8 7 7 7 7 7 8 7 7 7 7 7 7 7 7 7 7 7 7 7 7 7 7 7 7 7 8 8 8 8 8 7 8 8 8 8 7 8 7 8 7 7 8 8 8 8 8 7 8 8 8 8 8 8 7 8 8 8 8 8 8 8 8 9 8 8 7 8 9 8 9 9 8 9 8 8 8 8 9 8 8 8 8 8 8 9 8 8 8 9 8 8 8 8 9 9 9 9 9 9 9 9 10 9 9 9 9 9 9 9 9 9 8 9 10 8 9 9 9 9 9 10 9 10 9 10 10 9 10 9 9 9 10 10 10 9 10 9 9 10 9 10 10 10 10 9 10 10 10 10 10 10 10 10 9 9 10 10 10 11 10 9 10 10 11 10 11 10 10 10 10 10 10 10 11 10 10 10 11 10 10 11 11 11 10 11 11 11 11 11 11 11 11 11 11 11 11 11 11 11 11 11 10 11 11 12 11 11 11 12 11 11 12 12 12 12 11 11 11 12 11 12 11 13 13 12 12 12 12 12 13 13 13 14 15 19 19 19 15 13 13 12 12 13 13 12 12 12 12 12 12 12 12 12 14 13 13 13 11 11 13 11 13 12 12 12 12 12 12 12 12 11 11 11 11 12 12 11 11 11 11 12 12 11 11 11 11 11 11 11 12 11 12 11 11 12 11 12 11 11 11 10 10 11 11 11 11 10 11 11 11 11 10 10 10 10 10 11 11 11 10 10 10 10 10 9 10 10 9 9 9 10 9 9 9 9 9 9 10 9 9 8 9 9 8 10 9 9 9 8 9 9 8 9 8 9 8 8 8 9 8 8 8 8 8 8 7 8 8 8 8 8 8 8 8 8 8 8 8 7 8 8 8 8 7 7 7 8 7 7 7 7 7 7 7 7 7 8 8 8 7 7 7 7 8 7 7 7 7 8 7 7 7 7 7 7 6 7 7 7 7 7 7 7 7 7 6 7 7 7 7 6 7 6 6 7 7 7 6 7 7 7 6 6 6 7 6 6 7 6 6 6 6 6 6 6 6 7 6 6 7 7 6 6 6 6 6 6 0 
6 6 5 6 5 5 6 6 6 6 6 5 6 6 6 6 6 6 6 6 6 7 6 6 6 6 6 6 6 5 5 6 6 5 6 6 7 6 6 6 6 6 6 6 6 6 7 6 6 6 6 6 6 6 6 6 6 6 6 6 6 6 6 6 6 7 6 6 6 7 6 6 7 6 6 7 6 6 6 6 6 6 6 6 6 6 7 6 7 6 6 6 7 6 7 6 7 7 7 7 6 7 6 6 7 6 7 7 7 7 7 6 6 6 7 7 7 7 6 7 6 7 7 8 7 7 7 7 7 8 6 7 7 7 7 7 7 7 7 7 7 7 7 7 8 7 7 7 7 8 7 7 8 8 7 7 7 7 7 8 7 8 8 8 7 8 7 8 7 8 8 7 7 7 7 7 7 8 7 7 8 8 8 8 7 8 8 8 8 8 7 8 9 8 8 8 8 8 8 8 8 9 8 8 8 9 8 8 8 8 8 8 8 8 9 8 9 8 9 9 9 9 8 9 8 8 9 8 9 9 9 9 8 8 9 8 9 9 9 9 9 8 9 9 9 9 9 9 9 9 9 9 9 10 9 9 9 9 10 10 9 9 9 9 9 10 10 9 10 9 10 10 10 9 9 10 9 10 10 9 10 10 9 10 10 10 10 10 9 9 10 10 9 9 10 10 11 10 9 11 11 11 10 9 10 10 10 10 10 11 10 10 10 11 10 11 10 10 10 10 11 11 11 11 10 11 10 10 11 11 11 11 11 12 11 11 11 11 11 11 11 12 11 12 11 12 11 12 12 11 11 12 12 12 11 12 12 12 12 13 12 13 12 13 15 14 14 13 13 13 13 13 13 13 12 12 12 13 13 11 12 13 12 12 12 12 13 12 12 12 12 12 12 12 11 12 12 11 11 12 12 12 11 12 11 12 11 12 11 12 11 12 11 11 11 11 11 12 11 10 12 11 11 12 11 11 12 11 12 12 11 11 11 11 11 10 12 11 10 11 10 10 10 10 10 10 10 10 10 10 10 10 10 10 9 9 10 10 10 9 9 10 10 10 9 8 9 9 9 9 9 9 9 9 9 8 9 9 9 8 9 9 8 9 8 8 8 8 9 8 9 9 8 8 9 8 8 8 8 8 9 8 8 8 8 8 8 8 8 8 7 7 8 8 7 7 8 7 7 8 7 7 7 7 8 7 7 8 7 8 7 7 7 7 7 7 7 7 7 7 8 7 7 7 7 7 6 7 7 7 7 7 7 7 7 7 6 7 7 7 7 7 7 6 7 7 6 7 7 7 7 6 7 6 6 6 6 6 6 6 6 7 7 6 6 6 8 7 6 7 7 7 6 6 7 6 6 6 6 0 
6 6 6 6 6 5 6 6 6 5 6 6 6 6 6 6 5 6 6 6 6 6 6 6 6 6 6 6 6 6 6 6 6 5 6 6 6 6 6 6 6 6 6 6 6 6 6 5 6 6 5 6 6 7 6 6 7 6 7 6 6 6 6 6 6 6 6 6 6 6 7 7 7 6 6 6 6 6 7 6 6 7 7 6 7 6 6 6 6 6 7 7 6 7 6 6 7 7 6 6 7 7 6 7 6 6 6 7 7 7 7 7 7 7 7 7 7 7 7 7 6 7 7 7 8 7 7 7 7 7 7 7 7 7 7 7 7 7 7 7 7 7 7 7 7 8 7 6 7 7 7 7 7 8 7 7 8 7 7 7 7 7 8 7 7 7 7 7 7 8 8 8 7 7 8 8 7 7 8 8 8 8 8 8 8 7 7 8 8 8 8 8 7 8 8 8 8 8 7 8 8 8 8 8 8 7 8 8 8 8 8 9 8 9 9 8 8 8 8 8 8 8 9 8 8 9 9 9 9 9 8 9 9 9 8 9 8 8 9 8 9 9 9 8 9 9 10 9 9 9 9 9 9 9 10 9 9 10 9 10 10 10 10 9 10 9 9 9 10 9 9 10 9 10 9 10 10 10 10 10 9 10 9 11 10 10 9 10 10 9 10 10 10 10 11 10 10 10 11 10 10 10 11 10 10 10 10 10 11 11 10 9 10 11 10 11 10 10 10 11 11 11 11 10 11 11 10 11 10 10 11 11 11 11 11 11 10 11 11 12 11 11 11 11 11 11 11 11 11 11 11 11 11 12 12 11 11 11 11 11 13 12 12 13 13 13 13 14 13 13 13 13 13 13 12 13 12 12 12 13 12 12 13 12 12 12 12 11 12 11 11 12 12 12 11 12 11 11 12 12 11 11 12 11 11 12 11 11 12 12 11 12 11 12 11 11 12 12 11 11 12 12 12 11 11 11 10 11 10 12 11 11 11 11 10 11 11 10 10 10 11 10 10 10 10 10 10 10 10 10 10 10 10 10 10 9 10 9 9 10 9 9 9 9 9 10 9 9 8 9 9 9 9 8 8 9 8 9 9 8 9 8 8 8 8 8 8 8 8 9 8 8 9 8 8 8 8 8 8 9 7 8 7 8 8 8 8 8 8 8 8 7 7 7 7 7 7 8 8 7 7 8 7 7 7 7 7 8 7 7 7 7 7 7 7 7 7 7 8 8 7 7 7 7 7 7 7 7 7 7 7 6 8 7 6 7 7 7 7 6 7 6 7 7 7 6 7 6 6 7 7 6 6 6 7 6 6 6 7 7 7 6 6 6 7 7 6 6 7 7 6 7 6 6 6 6 6 6 6 0 
6 5 6 6 5 6 6 5 6 6 6 6 5 5 6 6 6 6 6 6 6 6 6 6 5 6 5 6 6 6 6 6 5 6 6 6 6 6 6 6 6 6 6 6 6 7 6 6 6 6 6 7 6 6 6 6 6 6 6 6 6 6 6 6 6 6 6 6 6 7 6 6 6 6 6 6 6 6 7 6 6 7 6 6 6 7 7 6 6 6 7 6 6 6 7 6 6 6 7 7 6 7 7 6 6 7 7 6 6 6 7 6 7 6 7 7 7 7 6 6 7 7 7 7 6 7 7 7 8 7 7 7 6 7 7 7 7 8 6 7 7 7 7 7 7 8 7 7 7 7 7 7 7 7 7 7 8 7 7 8 7 7 7 8 7 8 7 7 7 7 7 7 7 7 8 7 8 8 8 8 8 8 8 7 8 8 7 7 8 8 7 8 7 8 8 8 8 8 8 8 8 8 8 8 7 8 8 8 9 7 8 9 8 8 8 8 8 8 9 9 8 8 8 8 9 8 9 9 8 8 8 8 8 9 8 8 8 9 8 8 9 9 8 9 9 9 9 9 9 9 9 9 9 9 9 9 9 9 10 9 10 10 9 9 9 10 10 10 9 10 9 9 10 10 9 10 10 9 10 9 10 10 10 10 10 10 10 10 10 10 10 10 10 10 10 9 10 11 11 10 10 10 10 10 11 10 10 10 10 11 11 10 11 10 10 10 11 10 10 11 11 10 11 11 10 11 11 11 11 11 11 11 11 10 10 11 10 11 11 11 11 11 11 11 11 12 11 12 11 11 11 10 11 11 12 11 12 13 12 12 12 12 12 12 12 12 13 14 12 13 13 12 11 13 12 12 12 12 12 12 12 11 12 11 11 12 12 11 12 11 12 12 11 11 11 12 11 12 11 11 11 12 12 12 11 12 12 11 11 11 12 12 11 11 11 11 11 11 12 11 11 12 11 11 11 11 11 11 10 11 10 11 11 11 11 10 11 10 10 10 10 10 10 10 9 10 10 10 9 10 10 10 9 10 10 9 9 9 9 9 9 9 9 8 8 9 9 9 9 9 9 9 9 9 9 9 9 8 9 9 8 9 8 9 8 8 8 8 8 8 8 9 8 9 8 8 8 8 8 7 8 8 8 8 8 8 8 8 7 7 7 8 8 8 8 8 7 8 8 7 7 7 7 7 8 7 7 7 7 7 7 7 7 7 7 7 7 7 7 8 8 7 7 7 6 8 7 7 7 7 7 6 7 6 6 7 6 7 7 7 7 7 7 7 7 7 7 7 7 7 6 7 6 6 6 6 6 6 7 7 6 7 6 6 7 6 6 7 6 7 6 7 6 6 6 7 6 6 6 0 
6 6 5 5 5 6 6 5 6 5 6 6 6 6 6 5 5 6 6 6 6 6 5 6 6 6 6 6 6 7 6 6 6 6 6 6 6 6 6 6 6 6 6 6 6 6 6 6 6 6 6 5 6 6 6 6 6 6 6 6 6 6 6 6 6 6 6 6 6 6 6 7 6 6 6 6 7 6 6 6 6 6 6 6 7 6 6 7 6 7 6 6 7 7 6 6 7 6 6 7 6 7 7 6 6 7 6 6 7 6 7 6 6 6 7 7 6 7 7 6 7 7 7 7 6 8 7 7 6 7 7 7 6 7 7 7 7 7 7 7 7 7 7 7 7 7 7 7 7 7 7 7 7 7 8 7 7 7 7 7 7 7 8 8 8 7 7 7 8 8 7 8 7 7 8 7 7 7 8 7 8 7 8 7 8 8 7 8 8 7 7 8 9 8 7 8 8 8 7 8 8 8 8 9 9 8 8 8 8 9 8 9 8 9 8 8 8 8 8 9 8 8 8 8 8 8 8 8 9 9 9 10 9 8 9 9 9 8 9 9 8 9 9 9 9 8 9 8 9 8 9 9 9 9 9 8 9 9 9 8 9 9 8 10 9 10 9 9 9 9 9 9 9 9 10 10 10 10 10 9 10 10 10 10 10 10 10 10 9 10 10 10 10 10 10 10 10 10 10 10 10 10 9 10 10 10 10 10 11 11 10 11 10 10 10 10 10 10 10 10 11 10 11 11 10 10 11 11 11 10 11 11 11 11 11 11 11 10 11 11 11 10 11 11 11 11 11 11 11 12 12 12 11 12 12 12 11 11 12 11 12 12 12 11 13 13 12 12 12 12 13 12 11 11 12 12 12 11 11 11 11 12 12 12 12 11 12 12 11 12 12 11 11 11 12 12 11 11 12 12 11 10 12 11 11 11 12 11 12 11 11 11 11 12 10 11 12 10 11 12 11 11 11 11 10 11 10 10 10 10 11 11 10 10 10 11 10 11 11 11 10 10 10 10 10 10 10 10 10 9 10 10 9 9 10 9 9 9 9 9 9 9 9 9 9 8 9 9 9 9 9 9 8 9 8 9 8 9 8 8 9 8 8 9 8 9 9 8 8 9 7 8 8 8 8 8 8 8 8 8 8 8 8 8 8 7 8 8 7 8 7 7 7 7 7 7 7 8 7 7 7 7 7 7 7 7 8 8 7 7 7 7 7 7 7 7 7 7 7 7 7 7 7 8 7 7 7 7 7 7 7 7 7 7 7 7 7 6 7 6 7 7 6 6 7 7 7 6 7 7 6 7 7 7 7 6 7 7 6 7 7 7 6 6 6 6 6 6 6 6 7 6 6 6 6 6 6 6 6 0 
5 6 6 6 6 5 5 5 6 6 6 6 6 5 6 6 6 6 5 6 6 6 5 7 6 6 6 6 6 6 6 6 6 6 6 6 6 5 6 6 6 6 6 6 6 6 6 7 6 6 6 6 5 6 6 6 6 6 6 6 6 6 6 6 6 6 7 6 6 6 5 6 6 6 6 7 6 6 6 6 6 6 6 6 6 6 6 6 6 7 7 7 6 6 6 6 7 6 7 7 6 6 6 7 7 7 7 7 7 7 7 7 7 6 6 7 7 6 7 7 6 7 7 7 6 7 6 7 7 7 7 7 7 7 7 7 6 7 7 7 7 7 7 7 8 7 7 7 7 8 7 7 7 7 7 7 7 7 8 7 7 8 8 7 8 8 7 8 7 8 7 7 8 8 7 8 8 8 7 8 8 7 8 7 7 7 8 8 8 8 8 8 8 8 7 8 8 7 8 7 8 8 8 8 9 8 9 8 8 8 8 8 8 8 8 8 7 9 8 9 9 8 9 8 8 9 9 8 8 8 9 8 9 9 8 8 9 8 8 8 9 9 9 9 9 8 9 9 9 9 9 9 9 9 9 9 9 9 8 9 10 9 9 9 9 9 9 9 9 10 9 10 9 10 9 10 9 9 9 9 10 10 10 10 10 10 10 10 9 10 9 10 10 10 9 10 10 10 10 10 10 10 10 10 10 10 10 10 9 10 11 10 9 10 11 11 10 11 10 10 11 10 10 11 11 10 11 10 10 11 10 10 11 11 11 10 10 11 10 11 11 11 11 10 10 10 11 11 10 11 11 11 11 12 11 12 11 12 12 12 11 11 12 12 13 12 12 12 12 13 12 12 12 12 12 12 12 12 12 11 12 11 11 12 11 11 11 11 11 11 12 11 11 12 11 11 11 12 11 11 11 11 11 12 11 11 11 11 10 11 11 11 11 11 11 10 11 10 11 10 11 10 11 10 11 11 10 11 10 11 11 10 11 10 10 11 11 10 11 11 10 10 9 11 10 10 9 10 9 10 10 9 10 10 9 9 9 10 10 10 9 9 9 9 9 8 8 9 9 9 9 9 8 9 9 9 8 9 8 8 8 8 9 8 8 9 8 8 8 9 8 8 9 8 7 7 7 8 9 8 8 7 8 8 8 8 8 8 8 8 8 8 7 8 7 8 8 8 7 7 8 8 8 7 7 7 7 8 7 7 7 8 7 7 7 7 6 7 7 7 7 7 7 7 7 7 7 7 6 7 7 7 7 6 7 7 7 7 6 6 7 7 7 6 7 7 6 7 7 7 7 7 7 6 6 7 6 7 6 7 7 6 7 7 6 6 6 6 6 6 6 6 6 6 6 6 6 6 6 0 
6 5 6 6 5 5 6 6 5 6 5 5 5 6 5 6 6 6 6 6 6 5 6 6 5 6 6 6 6 6 6 6 6 6 6 6 6 6 6 6 5 6 6 6 6 6 5 6 6 6 7 6 6 6 7 6 6 6 6 6 7 6 6 6 6 6 6 6 6 6 6 6 6 6 6 6 6 7 6 5 6 6 6 6 6 6 7 6 6 6 6 6 7 7 6 7 6 7 6 7 7 6 6 6 7 7 7 7 7 7 7 7 7 7 7 7 7 7 6 6 7 6 7 7 7 6 7 6 7 7 7 7 7 7 7 7 8 7 7 7 7 7 7 7 8 6 7 7 7 7 7 7 7 7 7 7 7 7 7 7 8 8 7 7 7 7 8 8 7 7 8 7 8 8 7 8 7 8 8 8 7 7 7 8 8 8 7 8 8 8 8 8 8 8 8 8 8 8 8 8 7 8 8 8 7 9 9 8 9 8 9 8 8 8 8 8 8 8 8 9 8 8 9 8 8 9 8 9 8 8 9 8 9 8 9 8 9 9 9 9 9 9 9 8 9 8 8 9 9 8 9 9 9 9 9 9 9 8 9 10 10 9 9 8 9 10 8 9 9 10 10 10 9 9 9 10 10 9 10 9 9 10 10 9 9 10 10 9 9 10 10 9 9 9 9 10 10 10 10 10 10 10 10 10 10 10 10 10 11 10 10 11 10 10 11 10 10 10 11 10 10 11 10 10 11 10 10 11 10 10 11 11 11 10 11 10 10 10 11 11 12 11 11 11 11 11 11 11 10 11 11 10 11 10 10 11 11 12 11 11 12 12 12 11 12 12 12 12 12 12 12 12 12 12 12 11 12 11 11 12 12 12 12 11 11 12 11 11 11 11 11 10 11 10 11 11 11 11 11 11 11 11 11 10 11 11 11 10 11 11 11 11 11 11 11 11 11 11 11 11 10 10 11 11 11 10 10 11 10 10 11 10 10 10 10 10 12 12 11 10 11 10 10 9 10 10 10 10 10 9 10 10 9 10 10 9 8 9 9 9 10 11 10 9 10 9 9 9 9 8 8 8 8 9 8 9 8 9 8 8 8 8 9 8 8 8 8 8 8 9 8 8 8 7 8 9 7 8 8 8 8 8 7 8 8 8 7 7 7 8 8 8 8 8 7 7 7 8 7 7 7 7 7 8 7 8 7 7 8 7 8 7 8 7 7 7 7 7 7 7 7 6 7 7 7 7 7 7 7 6 7 7 7 7 6 7 7 7 7 7 7 6 7 7 6 7 6 6 6 7 6 6 7 6 6 7 6 6 7 6 6 6 7 7 6 6 6 7 6 6 6 6 7 6 6 6 6 7 6 0 
6 5 6 6 5 5 6 6 6 6 6 6 6 6 6 6 6 5 6 6 5 6 6 6 5 6 6 6 6 5 6 6 6 6 6 6 6 6 6 6 5 6 6 6 6 6 6 6 6 5 6 6 6 5 6 5 7 7 6 6 6 6 6 6 7 6 6 6 6 6 6 6 7 6 6 7 6 6 6 6 7 6 6 6 7 6 6 6 6 6 6 6 7 6 7 6 6 7 6 6 7 7 7 6 7 7 6 6 7 7 7 7 7 7 6 7 7 7 7 7 6 7 7 7 7 6 7 7 7 7 7 7 7 7 7 8 7 7 7 7 8 7 7 7 7 7 7 7 8 7 7 7 7 7 7 7 8 7 7 7 7 7 7 7 7 7 7 7 8 7 8 8 7 7 7 8 8 7 8 8 7 8 7 7 8 8 7 8 8 8 8 8 8 8 8 8 8 7 8 8 7 8 8 8 8 8 8 8 8 8 8 8 8 8 8 8 8 9 8 8 8 8 9 8 9 9 8 8 8 9 8 8 8 9 8 9 9 9 9 9 8 9 9 8 9 9 9 8 9 9 9 9 9 9 9 9 9 9 9 10 9 9 9 9 9 9 9 9 10 10 9 10 9 9 10 9 9 10 10 9 9 10 10 9 10 9 9 10 10 10 10 10 10 10 9 9 10 10 10 10 10 10 10 10 10 10 10 10 10 10 10 9 10 10 10 10 10 10 11 10 9 10 10 10 10 10 10 11 11 10 10 11 10 10 10 10 10 11 11 10 11 10 10 10 10 11 10 11 12 11 11 11 11 12 11 11 11 12 11 12 11 11 12 12 11 11 11 12 11 11 11 12 11 12 12 11 11 11 11 11 11 11 11 12 11 10 11 11 11 10 12 11 10 11 11 11 12 11 11 11 11 12 11 12 11 11 11 11 10 11 11 11 10 10 10 11 11 10 10 10 11 11 10 10 11 11 10 11 9 10 10 10 10 10 11 11 11 16 13 11 10 10 10 10 10 9 10 10 10 9 10 9 10 9 9 9 9 10 9 9 9 9 9 9 9 8 9 9 9 9 8 9 9 8 8 8 8 9 8 8 8 8 8 8 9 9 8 9 8 8 7 8 8 8 8 8 8 8 7 8 8 8 8 8 7 7 7 7 7 7 8 7 7 7 7 7 7 8 7 7 7 7 7 7 7 7 8 7 7 7 7 7 7 7 7 8 8 7 7 7 8 7 6 8 7 8 6 7 7 6 7 7 7 6 7 7 6 7 7 7 7 7 7 7 6 7 7 7 6 6 6 6 6 7 7 7 6 6 7 7 7 6 6 6 7 6 7 6 6 7 6 7 6 7 6 6 7 6 6 0 
5 5 6 6 5 6 6 5 5 6 6 6 5 6 6 6 6 6 6 6 6 6 5 6 6 6 5 6 6 6 6 6 6 6 6 6 6 6 6 6 5 5 5 6 6 6 6 6 6 6 6 6 6 6 6 6 6 6 7 6 6 6 7 7 6 6 6 7 6 6 6 6 6 6 6 6 7 6 6 7 7 6 6 6 6 6 7 7 6 7 6 7 6 7 7 7 6 7 6 6 6 6 7 7 6 7 7 7 6 7 6 7 7 7 6 7 6 6 6 6 7 6 7 6 7 7 6 6 7 7 7 7 7 6 7 7 7 6 7 7 7 7 7 6 7 7 7 8 7 7 7 7 6 7 7 7 8 7 8 7 7 7 8 7 7 8 7 7 8 7 7 7 7 8 8 7 8 8 8 8 7 7 8 8 7 7 7 7 8 8 8 8 7 8 8 8 8 8 8 8 8 8 8 8 8 7 8 8 8 8 9 8 8 8 8 8 8 8 8 8 8 8 8 9 8 8 9 9 8 8 9 8 9 9 9 8 8 8 9 9 9 8 9 8 8 9 9 9 9 9 8 9 9 8 9 8 9 9 9 8 8 10 10 9 9 10 9 9 9 9 9 9 10 9 10 9 9 10 8 10 9 9 9 9 10 10 10 10 10 9 9 10 9 10 9 10 10 10 9 9 10 10 9 9 10 10 10 10 9 10 10 10 10 11 11 10 10 11 10 10 10 10 11 10 10 10 10 10 9 10 10 11 11 10 10 11 11 11 11 10 11 10 11 11 11 11 11 11 11 10 11 12 11 11 10 11 11 12 11 12 11 11 11 11 12 11 11 11 11 11 11 11 11 11 12 11 11 11 11 11 11 10 10 10 11 11 11 10 11 11 11 11 11 12 10 11 11 10 11 10 10 11 11 11 11 11 12 11 11 11 11 11 10 11 11 10 11 11 11 10 11 10 11 10 10 11 10 10 10 10 10 10 10 10 10 10 11 14 13 12 11 10 9 9 9 10 9 10 10 10 9 9 9 9 9 9 9 9 9 9 8 9 9 9 9 9 8 9 8 9 8 8 9 8 8 9 8 9 8 9 8 8 8 8 8 8 8 8 8 8 8 8 7 8 8 8 8 7 9 8 8 8 8 8 7 7 7 7 7 8 8 7 8 7 8 7 8 7 8 7 7 7 7 8 7 8 7 8 7 7 7 7 7 7 7 7 7 7 7 7 6 7 7 7 7 7 7 7 7 7 6 7 7 7 7 6 7 7 7 6 7 7 6 6 7 7 6 7 6 6 6 6 6 7 7 6 7 6 7 6 6 6 6 6 6 6 6 6 7 6 6 6 6 7 7 6 6 6 7 0 
6 5 5 6 5 6 6 6 6 5 6 6 6 6 5 6 6 5 6 6 6 6 6 6 6 6 6 6 5 6 5 5 6 6 6 6 6 5 6 6 6 6 6 6 6 6 6 6 6 6 6 6 6 6 6 6 6 6 6 6 6 6 6 6 6 6 6 6 6 6 6 6 6 6 6 6 6 6 6 6 6 6 6 6 6 6 6 6 6 6 6 7 6 6 7 6 6 6 6 7 6 7 6 6 6 7 6 6 6 7 5 6 6 7 7 6 6 7 7 7 7 7 6 7 6 6 7 6 7 7 7 7 7 7 7 7 7 7 7 7 8 7 7 7 7 7 7 7 7 7 7 7 7 8 7 7 7 7 7 8 7 7 7 8 7 7 7 7 8 7 7 7 7 8 7 7 8 8 7 7 7 8 7 7 8 8 7 8 7 8 8 8 8 8 8 7 8 8 7 8 8 8 8 8 8 9 8 8 8 8 8 8 8 8 8 8 8 8 8 8 8 9 8 8 8 8 8 9 8 8 8 9 8 8 9 9 8 8 9 8 8 9 9 9 8 8 9 8 9 9 9 8 9 8 8 10 8 9 9 8 10 9 9 9 8 10 9 9 9 9 9 9 9 9 9 9 10 9 9 10 9 10 10 9 9 10 9 9 10 10 10 10 9 10 9 9 10 9 9 10 9 10 10 9 10 10 10 10 10 9 11 9 10 10 9 9 10 10 10 10 10 10 11 10 10 10 11 10 10 10 10 10 11 10 11 10 11 10 11 11 11 10 11 10 11 11 11 10 10 11 11 11 11 12 11 11 11 11 11 11 11 12 11 11 11 11 11 11 11 11 12 11 11 12 11 11 11 10 11 11 11 11 11 11 11 11 11 11 11 11 11 11 11 12 11 10 10 11 10 10 12 10 11 10 11 10 11 10 11 11 10 11 11 11 11 11 11 11 11 9 10 11 10 10 10 10 10 10 10 10 10 9 10 10 10 10 10 11 10 10 9 10 9 10 9 9 9 9 9 10 9 10 9 9 9 9 9 9 8 9 9 9 9 9 8 8 9 9 9 8 8 9 8 8 9 8 8 8 8 8 9 8 8 8 7 8 8 8 9 8 8 8 8 8 9 8 7 7 8 7 7 8 8 8 7 7 8 8 8 8 8 8 7 8 7 7 7 7 7 7 7 7 8 7 7 7 8 7 8 8 7 7 7 7 7 7 7 7 7 7 7 6 7 7 7 7 7 7 6 7 7 6 7 7 7 7 7 6 7 7 7 7 7 7 6 7 6 6 6 6 6 6 6 7 7 7 7 6 6 6 7 7 6 7 6 6 5 6 6 6 7 6 6 6 6 7 6 6 6 0 
6 5 6 6 5 6 6 6 6 6 5 6 5 6 6 6 6 6 6 5 6 5 6 6 6 6 5 6 5 5 6 6 5 6 6 6 6 6 6 6 6 6 6 6 6 6 6 6 7 6 6 6 7 6 6 6 7 6 6 6 6 6 6 6 7 6 6 6 6 6 6 6 6 7 7 6 6 6 6 6 6 6 6 6 7 6 6 6 6 7 6 6 6 6 6 6 7 6 6 6 7 6 7 7 7 6 7 6 7 6 7 7 7 7 6 6 7 7 6 6 6 6 6 6 7 7 6 7 7 7 7 7 7 7 7 7 7 7 7 7 7 7 7 7 7 7 7 7 6 7 7 7 7 7 7 7 7 7 7 8 7 7 8 7 7 7 8 7 8 7 7 7 7 7 7 7 8 8 7 8 8 8 7 8 7 7 8 7 8 7 8 8 8 8 8 7 7 7 8 7 7 8 8 7 8 8 8 8 8 8 8 9 8 9 7 8 8 8 8 8 8 8 8 8 8 8 8 8 8 8 8 8 9 8 8 9 8 8 9 8 8 9 8 9 9 8 8 9 9 8 8 9 9 9 9 8 9 9 9 9 10 9 9 9 9 9 9 9 9 9 9 9 9 9 9 9 9 10 9 9 10 10 9 10 9 9 10 9 10 9 10 9 9 10 9 9 9 10 10 10 10 9 10 9 9 10 10 10 10 10 10 9 10 10 10 10 10 10 10 10 10 11 10 10 11 10 10 10 10 11 10 10 10 10 11 10 10 10 10 10 10 10 10 10 10 10 10 11 10 11 11 10 11 10 11 11 11 11 11 12 11 11 10 11 12 11 11 11 11 11 11 10 11 10 11 11 11 11 11 10 11 11 11 11 11 11 11 10 11 11 11 10 11 10 10 11 10 11 11 11 10 11 10 11 10 11 11 11 11 11 11 11 12 15 14 11 11 10 11 11 11 10 10 10 10 11 10 9 10 10 9 10 10 10 10 10 10 10 10 10 9 9 9 10 9 10 9 9 9 9 10 10 10 9 9 9 9 8 9 9 9 9 9 8 9 9 9 8 8 8 9 9 9 8 9 8 8 9 8 8 8 8 8 7 8 9 8 8 8 7 8 8 8 8 8 8 8 7 7 7 7 8 8 7 7 8 7 7 7 7 7 7 7 7 8 8 7 8 8 8 7 7 7 7 7 7 7 7 8 7 7 7 7 7 7 7 7 7 7 8 7 7 7 7 7 6 7 7 7 6 7 6 7 6 6 7 7 7 6 7 7 7 7 6 6 7 6 7 7 7 6 7 7 6 7 7 6 6 6 7 6 6 6 7 7 6 7 6 6 6 7 7 7 6 7 6 6 7 6 0 
6 5 5 6 6 5 6 5 5 6 5 6 6 6 5 6 6 6 6 6 6 5 6 6 6 6 6 6 6 6 6 6 6 6 6 5 6 6 6 6 6 6 6 6 6 6 6 6 7 6 6 6 6 6 6 6 6 6 6 6 6 6 6 6 6 7 6 7 6 6 6 6 6 6 6 6 6 6 6 6 6 6 6 7 6 6 6 6 6 6 6 6 6 7 7 6 7 6 6 7 6 7 7 7 7 7 6 7 6 7 7 7 7 7 7 7 7 6 7 6 6 6 7 7 7 7 6 6 7 7 7 7 7 7 7 7 7 6 7 6 7 7 7 7 7 7 7 7 7 7 7 7 7 7 7 7 7 7 7 8 7 8 8 7 6 7 7 8 7 8 8 8 7 7 8 8 8 8 7 7 7 8 8 7 7 8 7 8 8 8 8 8 8 8 8 8 7 8 8 8 7 8 8 7 8 8 8 8 9 8 8 8 8 8 8 8 8 8 8 9 8 8 8 9 8 8 8 8 8 8 8 9 8 8 8 9 9 9 9 8 8 9 8 9 8 8 8 9 8 9 9 9 9 9 9 8 9 9 8 9 8 9 9 8 9 9 9 9 9 9 10 9 9 9 9 9 8 9 9 9 10 9 9 9 10 9 9 9 9 9 9 10 9 10 9 9 9 9 9 9 10 9 10 9 10 9 10 10 9 10 9 10 9 10 9 9 10 10 10 9 9 10 10 10 10 10 10 10 11 10 10 10 10 10 10 11 9 10 10 10 10 10 10 10 11 10 10 11 10 10 10 10 10 11 11 11 10 11 11 11 11 11 11 10 11 11 11 11 11 11 11 11 11 11 10 11 11 11 11 11 10 10 11 11 12 11 10 10 11 11 10 10 10 10 10 11 10 10 10 10 10 10 10 11 11 10 10 11 11 11 11 12 14 13 14 12 12 11 10 10 10 10 10 10 10 10 10 10 10 10 10 9 10 10 9 10 10 10 10 9 9 9 9 9 9 9 9 9 10 9 9 9 9 10 9 8 9 9 8 8 9 8 8 9 9 8 9 9 8 8 8 8 8 8 7 8 8 9 8 8 8 8 7 8 8 8 9 8 8 7 8 8 8 8 8 8 8 8 7 8 8 8 8 8 7 7 8 8 8 7 8 8 7 8 7 7 8 8 7 7 7 8 7 7 7 7 7 7 7 8 7 8 7 8 6 7 7 7 7 7 7 6 7 7 7 8 7 7 7 7 6 7 7 6 7 7 6 7 7 7 7 7 7 7 7 6 6 7 7 7 7 6 6 6 7 6 6 6 6 6 6 7 6 7 7 7 6 7 6 7 6 6 6 6 7 6 6 6 6 0 
5 5 5 5 5 5 6 5 6 6 6 5 5 6 6 6 6 6 6 5 5 5 6 5 6 6 6 5 6 6 6 6 5 6 6 6 6 6 6 6 6 6 6 6 6 6 6 7 6 6 6 6 6 6 6 6 6 6 6 6 6 6 6 6 6 6 6 6 6 6 7 6 6 6 6 6 7 6 6 7 6 6 6 6 6 6 7 6 6 7 6 7 6 7 6 6 6 6 6 7 6 6 6 6 7 6 6 6 6 6 6 7 7 6 7 7 7 6 7 7 7 7 7 6 6 7 7 6 7 7 7 6 7 7 6 7 7 7 7 7 7 8 7 7 6 7 7 7 7 7 7 7 7 8 7 7 7 7 7 7 7 7 8 7 7 7 7 7 8 8 7 7 7 8 7 8 7 7 8 7 7 7 7 7 8 7 7 8 8 8 7 8 8 8 7 8 8 8 8 8 8 8 7 8 8 8 8 8 8 8 8 8 8 8 8 8 8 8 8 8 8 9 7 8 8 8 8 8 8 9 8 9 8 8 8 8 8 8 8 8 8 8 8 8 8 8 8 8 8 9 9 8 8 8 8 9 9 9 8 9 9 9 8 9 9 8 9 8 9 9 9 9 9 9 9 9 9 9 9 9 9 9 9 9 10 10 9 9 10 9 10 9 9 9 9 10 9 10 10 9 9 9 10 9 10 9 10 10 10 9 9 9 9 9 9 10 9 9 10 10 10 10 10 10 10 9 10 10 10 11 10 10 10 10 11 11 10 9 10 10 11 10 10 9 10 10 10 11 10 10 10 10 10 10 10 11 10 11 11 12 11 11 10 11 10 11 11 10 11 10 11 11 10 10 11 11 11 11 11 11 11 11 11 10 10 11 10 11 11 11 11 10 10 10 11 11 10 11 11 9 11 11 10 9 10 10 10 10 11 11 11 11 14 15 13 12 11 10 10 11 10 10 10 10 10 10 10 10 10 10 9 9 10 9 10 10 10 10 10 9 9 10 9 9 9 10 9 9 10 10 9 9 8 9 8 9 9 9 8 9 9 9 9 8 8 9 8 9 9 8 9 8 8 8 9 8 8 8 9 8 8 8 8 8 7 8 8 8 8 7 7 8 7 7 8 7 8 8 8 7 8 8 7 7 8 8 8 7 7 8 7 7 7 7 7 8 7 7 8 8 7 7 7 7 7 7 7 7 7 7 7 7 7 7 7 7 7 7 8 7 7 8 7 6 7 7 7 7 7 7 7 7 7 7 6 6 7 7 7 7 7 6 7 6 6 7 7 6 6 6 6 6 7 7 6 6 6 6 7 6 7 7 7 6 6 7 6 7 6 6 6 7 7 6 7 6 6 6 6 0 
6 5 6 6 6 6 5 6 6 6 5 6 6 6 6 5 5 5 5 6 6 6 6 6 6 6 6 6 6 6 6 5 6 6 6 6 6 6 5 6 6 6 6 6 6 6 6 6 6 6 6 6 6 6 6 6 6 7 6 6 6 6 6 6 6 6 7 6 6 6 6 6 5 6 6 6 6 7 6 6 6 6 6 7 6 6 7 6 6 5 6 6 6 6 6 6 6 6 7 7 6 6 6 7 6 7 6 7 7 6 7 7 6 7 6 6 6 7 6 6 7 7 6 6 7 7 7 7 7 7 7 6 7 7 7 6 7 7 7 7 7 7 7 7 7 7 7 7 7 6 7 7 6 7 6 8 7 7 7 7 6 7 7 7 7 7 7 7 8 7 7 7 7 7 7 7 7 7 7 8 7 7 7 7 7 8 7 8 6 8 7 7 8 8 8 8 7 8 7 8 7 8 8 8 8 8 8 8 8 7 8 8 8 8 8 8 8 7 8 8 8 8 8 8 8 8 9 9 8 8 8 9 8 8 8 9 8 8 9 8 8 8 8 8 8 8 8 8 8 9 9 9 9 9 9 9 8 9 9 9 8 9 9 9 9 9 9 9 9 9 9 9 9 9 9 9 9 10 9 9 9 9 9 9 9 9 9 9 9 10 9 9 9 9 9 9 9 9 9 9 9 9 9 9 9 10 10 10 10 10 10 9 10 10 10 10 10 9 10 10 9 10 9 10 10 10 10 9 10 10 10 10 9 11 10 11 10 10 10 10 9 9 9 10 10 10 10 11 11 10 10 10 11 10 10 10 10 10 11 11 11 10 11 10 11 11 11 11 10 11 10 11 11 11 10 11 11 11 10 11 10 11 11 10 10 11 10 10 11 10 11 10 11 11 11 9 10 10 11 10 11 10 10 10 10 10 10 11 10 10 11 13 14 17 13 12 11 10 11 10 10 9 10 9 10 9 9 10 10 10 9 11 9 9 9 10 9 10 10 10 9 9 9 10 9 10 9 10 9 9 8 9 9 9 8 9 9 8 9 9 8 8 9 8 9 9 9 9 9 9 8 8 8 7 8 8 9 8 8 8 8 8 8 8 8 8 8 8 8 8 7 8 8 8 8 7 7 8 7 8 8 7 7 8 8 8 7 8 8 7 8 7 7 7 7 7 8 7 8 7 7 7 7 8 8 7 7 7 7 7 7 7 7 7 7 7 7 7 6 7 7 7 7 7 7 7 7 7 6 7 6 6 7 7 6 7 7 7 7 7 7 7 6 6 7 6 7 6 7 6 7 6 7 6 6 7 7 7 7 6 6 6 7 7 6 7 6 6 7 6 6 6 6 6 6 6 6 7 6 0 
5 6 6 6 6 5 5 6 5 6 5 5 6 6 7 6 6 6 6 6 6 6 6 6 6 6 5 6 5 6 6 6 6 6 6 6 6 5 5 6 5 5 6 6 6 6 6 6 6 6 7 6 6 6 6 6 6 6 6 6 6 6 6 6 6 6 6 6 7 6 6 6 6 6 6 6 6 7 6 6 6 6 7 6 7 6 6 6 6 6 7 6 6 7 7 6 6 6 7 7 7 6 6 7 6 7 6 6 6 7 6 7 6 6 6 6 7 7 6 7 6 6 6 6 6 7 7 7 7 7 7 7 7 7 7 7 6 7 8 7 6 7 7 7 7 7 7 7 7 7 7 7 7 7 7 7 8 8 7 6 7 7 7 7 7 7 7 7 8 7 7 7 7 7 7 8 7 7 7 8 7 8 7 7 7 7 7 8 7 8 7 8 7 7 8 8 8 8 8 8 8 8 7 8 8 7 8 8 8 7 8 8 7 9 8 8 8 8 8 8 8 8 7 7 8 8 9 8 8 8 8 8 9 9 8 8 9 8 8 9 8 9 9 9 9 9 8 9 8 9 9 9 9 9 9 9 8 9 9 9 9 8 9 8 9 9 9 9 8 9 9 9 9 8 9 8 9 9 9 9 9 9 9 9 9 9 10 9 9 8 10 10 9 9 9 9 9 9 10 8 9 9 10 9 10 9 9 9 9 10 9 9 10 10 10 9 10 10 10 10 9 9 10 10 9 10 10 10 10 10 9 10 10 10 9 10 10 9 10 10 10 10 10 10 10 10 9 11 10 10 10 10 10 10 10 11 11 10 10 10 10 10 11 10 10 11 10 10 11 10 11 10 10 10 10 10 10 11 10 10 10 10 10 10 10 10 10 10 11 10 10 11 11 10 10 10 10 10 11 10 10 10 10 11 10 10 10 11 11 10 10 11 12 13 12 10 10 10 10 10 10 10 10 10 10 9 10 10 10 9 9 10 9 10 10 10 10 10 9 10 8 10 9 9 9 9 9 8 9 10 9 9 9 9 9 9 9 8 9 8 9 9 9 9 9 9 8 8 8 8 8 8 8 8 9 8 8 8 8 8 8 8 8 7 9 8 8 8 8 7 8 7 7 8 7 8 7 8 8 8 7 8 8 7 8 8 7 7 7 7 7 7 7 7 8 8 8 7 7 8 7 7 7 7 7 7 7 7 7 7 7 8 7 7 7 7 7 7 7 7 7 7 6 6 7 7 7 7 7 7 6 7 6 7 7 7 7 7 6 6 6 7 7 5 6 7 7 7 7 7 7 6 6 6 6 7 6 6 6 6 6 6 6 6 6 6 6 6 6 6 7 6 7 6 6 6 6 6 6 0 
6 5 6 6 6 6 6 5 6 5 5 6 6 6 5 5 5 5 6 6 6 6 6 6 6 5 6 6 6 6 6 6 6 6 6 6 6 6 6 6 5 6 6 6 6 6 6 6 6 7 6 6 6 6 6 6 6 6 6 6 6 6 6 6 7 6 6 6 6 7 7 6 6 6 6 6 6 6 6 6 6 6 6 6 6 6 6 6 6 6 6 6 6 7 7 6 6 6 7 6 6 7 6 6 6 7 6 6 6 6 6 7 7 6 7 7 7 7 7 7 6 7 7 7 7 8 7 7 6 7 6 7 7 7 7 7 6 6 7 7 7 7 7 7 7 7 7 6 7 7 7 7 7 7 8 7 7 7 7 7 7 6 7 7 7 7 7 7 7 7 7 7 7 7 8 7 8 7 7 8 7 7 8 8 7 8 8 8 8 8 8 7 7 7 8 8 7 8 8 8 7 7 7 8 8 8 8 8 8 8 8 8 8 8 8 8 8 8 8 8 7 8 8 8 8 8 8 8 9 9 9 9 8 8 9 9 8 8 9 8 9 8 8 8 9 9 9 9 9 8 9 8 9 8 8 9 9 9 8 8 9 9 9 8 9 8 9 9 9 9 9 9 9 9 9 9 9 9 9 10 9 9 9 9 8 9 9 10 9 9 9 9 9 9 9 9 10 9 10 10 9 10 9 9 9 9 9 9 9 9 9 10 9 10 9 9 9 10 9 9 10 10 10 10 9 9 10 9 10 10 10 10 10 10 9 9 10 10 11 10 11 10 10 10 10 10 11 10 10 10 10 10 10 10 10 11 10 11 10 11 10 11 10 10 11 11 10 10 11 11 10 11 10 10 10 10 10 11 11 11 10 10 10 10 10 10 9 10 10 9 10 11 10 10 11 10 10 10 10 9 11 11 10 11 10 10 11 10 11 10 10 10 11 11 12 10 10 10 9 10 10 10 10 10 9 10 9 9 9 9 9 9 9 9 9 10 10 10 9 9 9 9 9 8 8 9 9 9 9 9 9 8 9 9 8 8 8 9 8 9 9 10 9 8 8 9 8 9 8 8 8 8 8 8 8 8 8 8 8 8 8 8 8 8 8 8 8 8 8 8 8 8 7 7 8 8 8 8 7 8 8 7 8 8 8 8 7 7 7 8 7 7 7 7 7 7 8 7 7 7 7 8 7 7 7 7 8 6 7 7 7 7 7 7 7 6 7 7 7 7 7 7 7 7 7 7 7 7 7 7 7 6 6 7 6 6 7 7 6 6 7 7 7 7 6 7 7 6 7 6 6 6 6 6 6 6 7 6 6 7 6 6 6 6 7 6 6 6 7 6 6 6 7 6 6 6 7 6 6 0 
6 6 5 6 5 5 5 6 6 6 6 6 5 6 6 6 6 5 6 6 6 6 6 5 6 6 6 5 6 6 6 6 5 5 6 6 6 6 5 5 6 6 6 6 6 6 6 6 6 6 5 6 6 6 5 6 6 6 6 6 6 6 6 6 6 6 6 6 6 6 6 6 6 6 6 6 6 6 6 5 6 6 6 6 6 6 6 6 6 7 6 7 6 6 7 6 7 6 6 6 6 6 6 6 6 7 6 7 7 6 7 6 7 6 7 6 6 6 7 7 6 6 6 7 7 7 6 7 6 7 7 7 7 6 7 7 7 7 7 7 7 7 6 7 7 7 7 7 7 7 7 7 7 7 7 7 7 7 7 7 7 7 8 7 7 7 8 8 7 7 7 7 7 7 7 7 7 8 7 8 8 8 7 7 7 8 8 7 7 7 7 8 8 7 8 7 8 7 8 8 8 7 8 8 8 8 8 8 8 8 8 8 8 8 8 8 8 8 8 8 8 8 7 8 7 8 8 8 8 8 8 8 9 8 9 8 8 8 7 8 8 8 9 8 8 8 8 9 9 9 9 9 8 9 8 9 8 9 9 9 9 8 9 8 9 8 9 9 9 9 9 9 10 10 9 9 9 9 9 9 9 9 9 10 9 8 9 9 10 9 9 9 9 9 10 9 9 9 9 9 9 9 9 9 10 9 10 9 10 9 9 9 9 9 10 9 10 9 9 10 9 9 10 10 10 10 9 9 9 10 10 9 10 9 10 10 10 10 10 10 10 10 10 11 10 10 9 10 10 10 9 10 10 11 10 10 10 10 10 10 11 11 10 10 10 11 11 11 10 10 10 10 10 10 10 10 10 10 10 10 10 10 10 10 10 10 10 10 10 10 10 10 10 10 10 10 10 10 10 10 10 10 11 10 10 10 10 10 10 10 10 11 10 10 10 11 11 9 11 9 10 9 10 10 9 9 10 10 9 9 10 9 10 8 9 9 9 10 10 9 9 9 9 10 8 9 9 8 9 9 9 9 9 9 8 8 8 8 8 8 9 8 9 8 8 8 8 8 8 8 9 8 8 8 8 8 8 8 8 8 8 8 8 8 7 8 7 8 8 8 8 8 7 8 8 8 7 7 8 7 7 7 8 8 7 8 6 8 7 8 8 8 7 8 7 8 7 7 7 7 7 8 7 8 7 7 7 7 7 8 7 7 7 7 7 7 7 7 6 7 7 7 7 7 7 7 7 6 7 6 7 7 7 7 7 7 7 7 7 6 7 6 7 6 6 7 7 7 6 7 6 6 7 6 7 7 6 6 7 7 6 6 6 7 6 6 6 7 6 6 6 6 6 6 6 6 6 7 6 0 
6 6 6 5 5 5 5 6 6 6 6 6 6 5 5 5 5 6 5 6 6 6 5 6 6 6 6 5 5 5 6 6 6 6 6 7 6 6 6 6 5 6 6 6 6 6 6 6 6 6 6 6 6 6 6 6 6 6 6 6 6 6 6 6 7 7 6 6 6 6 6 6 7 6 6 6 6 6 6 6 6 6 6 6 7 6 7 6 6 7 6 6 6 7 7 6 6 6 7 6 7 6 6 6 7 6 7 6 6 7 7 6 6 6 6 7 7 6 7 6 6 6 7 6 6 6 7 7 7 7 7 7 6 7 7 7 7 7 6 7 7 7 6 7 7 7 7 7 7 7 7 7 7 6 7 7 7 7 7 8 7 7 7 7 7 8 7 7 8 8 8 7 7 7 8 7 8 7 7 7 7 8 7 7 8 8 7 7 7 8 7 7 8 8 7 8 8 8 9 8 7 8 8 7 8 8 8 8 8 8 8 8 8 8 8 8 8 8 8 8 8 8 9 8 8 8 7 8 8 8 8 9 8 8 9 8 8 8 8 9 9 9 8 8 9 8 9 8 8 8 8 8 9 8 8 8 8 9 8 9 8 9 9 8 8 9 9 9 9 9 9 8 9 9 8 9 9 9 9 8 9 9 9 9 9 9 9 9 10 9 9 9 9 9 9 9 9 9 9 9 9 9 8 9 9 9 10 9 9 9 9 10 9 9 10 9 10 9 10 9 10 10 10 10 10 10 9 10 10 10 10 9 10 10 10 10 10 10 9 10 9 10 10 10 10 10 10 10 10 9 11 10 10 10 10 10 10 10 10 11 10 9 10 10 9 10 10 10 11 10 10 10 10 11 10 10 11 10 10 10 10 10 10 10 10 10 9 10 10 11 10 10 10 10 10 11 10 10 11 10 10 10 9 9 10 10 10 10 10 10 10 9 10 9 10 10 10 10 9 9 9 10 9 10 9 9 9 9 9 9 10 8 9 9 9 9 9 9 9 9 8 10 9 9 9 9 9 8 9 9 9 8 9 9 9 9 8 8 9 8 9 8 9 8 8 8 8 8 9 8 8 8 9 8 9 8 8 8 8 8 8 8 8 8 8 8 7 7 8 7 7 8 8 8 8 8 7 8 8 7 8 8 8 7 7 8 7 7 7 8 8 7 7 7 7 7 7 7 7 7 7 7 8 7 6 7 7 7 6 7 7 7 6 7 7 7 7 7 7 7 7 7 7 7 7 7 7 6 6 6 7 7 7 7 6 6 6 7 7 7 6 6 6 6 6 6 6 6 6 7 7 6 6 7 7 6 6 6 7 6 6 7 6 6 6 6 6 6 6 6 6 6 6 6 6 6 6 6 6 0 
5 6 6 5 6 6 6 6 5 6 6 6 5 5 5 6 6 6 6 6 6 6 5 6 6 5 6 6 6 6 5 6 5 6 5 6 5 6 6 6 6 5 6 6 6 6 6 6 6 6 6 6 6 6 6 6 6 6 6 6 6 6 6 6 6 6 5 7 6 6 6 6 6 6 6 6 7 6 6 7 6 6 6 7 6 6 6 6 6 7 6 6 6 7 6 6 6 6 6 6 6 6 6 6 6 6 6 6 7 6 6 6 6 7 7 7 6 7 7 7 7 6 6 6 6 6 7 7 7 7 7 7 6 6 7 6 7 7 7 7 7 7 7 7 7 7 7 7 7 7 7 7 7 7 7 8 7 8 7 7 7 7 7 7 7 7 7 7 7 7 7 7 8 7 7 7 7 8 7 8 7 8 7 7 7 7 8 7 7 8 7 8 7 8 8 8 8 8 7 8 8 7 8 9 8 7 8 8 8 8 8 8 8 7 8 7 8 7 8 8 8 8 8 8 8 8 8 9 8 8 7 9 8 9 8 8 8 8 9 9 8 8 9 8 8 8 8 8 8 8 9 8 9 8 9 8 9 8 9 8 9 8 9 9 10 9 9 9 9 9 9 8 9 9 8 9 9 9 8 9 9 8 8 8 8 8 9 10 9 9 9 8 10 9 9 9 9 9 9 10 9 9 10 10 8 9 9 10 10 9 9 9 10 9 10 9 9 10 9 9 9 9 9 9 9 10 10 9 10 10 9 10 9 10 9 10 9 9 9 10 9 10 10 10 10 9 10 10 9 10 9 9 9 10 10 10 11 10 10 10 10 10 10 10 10 10 11 10 10 9 9 9 10 10 10 10 11 11 9 10 10 10 10 10 11 10 10 10 10 10 10 10 9 10 10 9 10 10 9 10 10 9 10 10 10 10 9 9 10 10 10 10 10 10 11 9 10 10 9 9 10 9 9 10 9 10 9 9 9 10 9 9 9 9 9 8 9 9 9 9 9 9 9 9 9 9 9 9 9 8 8 9 9 8 9 9 8 8 8 8 8 8 9 8 9 8 8 8 8 8 8 8 8 8 8 8 8 8 8 7 8 8 8 8 7 8 7 8 7 8 8 8 7 8 7 8 7 7 8 7 8 8 8 8 7 9 7 8 8 6 7 7 7 7 7 8 7 7 7 7 7 7 7 7 7 7 7 7 6 7 7 7 7 7 7 7 7 7 6 7 7 7 6 7 7 7 7 7 7 7 7 6 6 6 7 7 7 6 7 7 7 7 6 7 7 6 6 6 7 6 7 7 7 7 6 6 7 6 6 6 6 6 6 6 6 6 6 6 7 6 6 6 6 6 6 6 6 6 6 0 
6 6 6 5 6 6 5 5 6 5 5 6 6 6 5 5 5 6 6 5 5 6 6 6 5 6 6 5 6 6 6 6 6 6 6 6 6 6 6 6 6 5 6 6 6 6 6 5 6 6 6 6 5 6 6 6 6 6 5 6 5 6 6 6 6 6 6 6 6 6 6 6 5 6 6 6 6 7 6 6 6 6 6 6 6 6 6 6 6 6 6 7 6 7 6 6 6 6 6 6 7 7 6 7 6 6 7 6 7 7 6 6 7 6 6 7 7 7 6 6 7 7 7 7 6 7 6 6 7 7 7 7 7 7 7 7 7 7 7 6 7 7 7 7 6 8 7 7 7 7 7 7 7 7 7 7 7 7 7 6 6 7 7 7 7 7 7 7 7 7 7 7 7 8 7 7 7 7 8 7 8 7 7 8 7 8 7 7 7 7 7 7 7 8 7 8 7 7 8 8 8 8 8 7 7 8 7 7 8 8 8 8 7 7 8 8 8 7 7 8 8 9 7 7 8 8 7 8 8 8 8 9 7 8 8 8 8 8 8 8 8 8 8 8 8 8 8 8 8 7 9 9 8 9 8 9 8 9 9 9 9 9 8 8 9 8 9 9 8 9 9 9 9 9 9 9 9 8 8 9 9 9 9 8 9 10 10 9 9 9 9 9 9 9 10 9 9 9 9 9 9 9 9 9 9 10 9 9 10 9 10 10 9 10 9 9 9 9 9 9 10 9 10 9 9 10 10 9 9 9 9 9 10 10 10 9 10 10 10 9 10 9 9 10 9 10 10 9 10 10 9 10 9 10 9 10 10 10 10 10 10 11 10 10 10 10 10 10 10 10 10 10 10 10 10 10 10 10 10 10 10 10 10 10 10 10 10 10 10 9 9 9 10 10 9 10 9 9 9 10 10 9 10 9 10 10 10 10 10 10 9 10 10 10 9 9 9 9 9 9 10 10 9 10 9 9 9 9 10 9 9 9 9 9 9 9 10 9 9 9 9 9 9 9 9 8 9 9 9 9 9 9 9 8 9 8 9 9 9 9 8 8 8 8 8 8 9 8 9 8 7 8 8 8 8 8 8 8 7 8 7 8 8 8 8 7 8 7 9 7 8 8 7 8 8 8 8 7 7 7 8 8 7 8 8 7 7 7 7 7 7 7 7 8 7 7 8 7 7 7 7 7 7 7 7 7 7 8 7 7 7 7 7 7 7 7 7 7 7 6 6 6 6 7 7 7 7 7 7 7 7 7 7 6 7 6 7 6 7 7 7 6 7 6 6 6 6 6 6 7 6 6 7 7 6 6 6 6 6 7 6 7 6 6 6 6 7 6 7 6 6 7 6 6 6 6 6 7 6 0 
5 5 6 6 6 5 6 6 6 5 5 5 6 6 6 6 5 6 6 6 5 6 6 5 6 6 6 6 6 6 6 6 6 6 6 5 6 5 6 5 6 6 6 6 6 6 6 6 6 6 6 6 6 6 6 6 6 6 7 6 5 7 6 6 6 5 6 6 6 6 6 6 6 6 7 6 6 6 6 6 6 6 6 6 7 6 6 6 6 6 6 7 6 6 6 6 6 6 6 7 7 6 7 6 6 6 7 7 6 7 6 6 7 6 6 6 6 6 7 7 6 6 6 6 7 7 6 7 7 7 7 7 7 7 7 7 6 7 6 7 7 6 6 7 7 7 7 7 7 7 7 8 7 7 7 7 7 7 7 7 7 7 7 7 7 6 7 7 7 8 7 7 7 7 7 7 8 7 8 7 7 7 7 7 7 8 7 7 7 8 7 7 8 7 7 8 8 8 8 7 7 7 7 8 7 7 8 8 7 7 8 7 8 8 8 8 8 8 9 8 8 8 8 8 8 8 8 8 8 8 8 8 8 8 8 8 8 8 9 8 8 8 8 8 8 8 9 8 8 8 8 9 8 8 9 8 8 8 8 8 8 9 9 9 8 9 8 9 9 8 8 9 9 9 9 8 9 9 9 8 10 8 8 9 9 9 9 9 9 9 8 9 9 9 9 9 9 9 9 9 9 9 9 9 9 9 9 9 9 9 9 9 10 8 9 9 10 10 10 9 10 9 9 10 9 10 9 9 9 10 9 9 9 9 10 10 9 10 10 10 9 11 10 9 9 10 10 9 9 10 10 9 9 9 10 10 10 10 9 10 10 10 10 10 10 10 10 10 10 10 10 10 10 10 9 10 10 10 10 10 10 9 10 10 10 10 10 9 11 10 10 9 9 10 10 10 10 10 9 10 9 9 10 9 9 10 9 10 10 10 10 10 10 9 9 9 9 8 10 10 9 9 9 10 9 9 9 9 9 9 9 9 9 9 8 9 8 10 9 9 9 9 9 9 8 8 9 9 8 8 8 9 9 10 8 8 8 9 9 9 8 8 8 8 8 8 9 8 8 8 8 8 8 8 8 8 8 8 8 8 8 8 8 7 8 8 7 8 8 8 7 8 8 8 7 7 6 8 7 8 7 7 7 7 7 7 8 7 7 7 7 7 7 7 8 7 7 7 7 7 7 7 8 7 7 7 7 7 7 7 7 6 7 6 7 7 7 7 7 7 7 7 7 7 7 7 7 7 6 7 7 7 7 6 7 6 7 7 6 6 6 7 7 6 6 6 6 7 7 6 6 6 6 6 7 6 6 6 6 6 6 6 7 7 6 6 6 7 6 7 6 6 6 6 6 6 6 6 6 0 
5 5 6 6 6 5 6 6 6 5 6 6 6 6 6 6 6 6 5 5 6 6 6 5 5 6 6 6 6 6 5 5 6 6 6 6 5 6 6 6 6 6 6 6 6 6 6 6 6 6 5 6 6 6 6 6 6 6 6 6 6 6 6 6 7 6 6 6 6 6 5 6 6 6 6 6 6 6 6 6 6 6 6 6 6 5 6 6 6 7 7 6 6 6 6 6 6 6 6 7 6 6 6 7 7 7 6 6 6 6 7 7 6 6 6 6 6 6 7 6 6 7 6 7 6 6 7 6 7 7 7 6 7 7 6 7 6 7 7 7 6 8 7 7 7 6 7 6 7 7 7 6 7 6 7 7 7 6 7 7 7 7 7 7 7 7 7 7 7 7 7 7 8 7 6 7 7 7 7 7 7 7 7 8 7 8 7 7 7 7 7 7 7 8 8 7 8 8 8 8 8 8 8 7 7 7 7 8 7 7 8 8 7 8 8 8 8 8 8 8 8 7 8 8 8 8 8 8 7 8 8 7 8 8 8 8 8 8 8 8 8 8 8 9 9 8 9 8 8 8 9 8 9 7 8 8 9 8 8 8 8 9 8 8 9 8 8 8 9 8 8 8 9 9 8 9 9 9 8 9 9 8 9 9 9 8 9 9 8 9 9 9 9 9 9 8 9 9 9 9 9 9 9 8 9 9 9 9 9 9 9 10 10 9 10 9 9 9 9 9 9 9 9 9 9 10 9 9 9 9 10 9 10 10 10 9 10 10 9 9 10 9 9 10 10 10 10 10 10 9 10 9 10 10 10 11 10 10 10 9 9 9 10 9 9 10 10 10 10 9 10 9 10 10 10 10 9 10 9 9 9 10 10 10 10 10 9 10 9 9 9 9 10 10 10 10 10 10 9 10 9 10 9 10 10 9 9 10 10 9 10 10 10 9 10 9 9 9 9 10 9 9 9 9 10 9 9 9 9 9 8 9 8 9 9 8 9 9 9 9 9 9 8 9 9 9 9 8 8 9 8 9 8 8 9 9 9 8 9 9 8 8 8 8 8 8 8 8 9 8 8 8 8 8 8 8 7 8 8 8 8 8 8 7 7 8 7 8 8 7 7 7 7 8 7 7 7 7 7 7 7 7 7 7 8 7 8 7 7 8 7 7 6 7 7 7 7 8 7 7 7 6 7 7 7 7 7 7 7 7 7 7 7 7 7 7 7 7 7 7 7 7 7 7 7 7 7 7 7 6 6 6 7 7 6 6 7 6 7 7 6 7 7 7 6 6 6 6 6 6 6 6 6 6 7 6 6 7 6 6 6 6 6 6 6 7 6 6 7 6 6 6 7 6 6 6 6 6 6 0 
6 5 6 5 5 6 5 5 5 6 5 6 6 5 5 6 6 6 5 6 6 7 6 5 6 6 6 6 6 6 6 6 6 6 6 6 6 7 6 5 6 6 6 6 6 5 6 6 6 6 6 6 6 6 6 6 6 6 6 6 6 6 6 6 6 6 6 6 6 6 6 5 6 7 6 6 6 6 6 6 6 6 6 7 6 7 6 6 6 6 7 6 6 6 6 6 6 6 6 7 6 7 6 7 7 6 7 7 6 6 6 6 7 6 7 7 6 7 7 6 7 7 6 6 6 7 7 7 7 7 7 7 6 6 7 7 7 7 7 7 7 7 7 6 7 7 7 7 7 7 6 7 7 8 8 7 7 7 7 7 7 7 7 7 7 7 8 7 6 7 7 7 7 7 7 7 7 8 7 7 8 8 7 7 8 7 7 7 7 8 8 7 8 8 7 8 7 8 7 8 8 8 7 8 7 7 8 8 7 8 7 8 8 8 8 8 8 8 8 7 8 8 8 8 7 8 8 8 8 8 8 8 8 8 7 9 8 7 8 9 8 8 8 8 8 8 8 9 9 9 8 8 8 8 8 8 8 9 9 8 9 8 8 8 9 9 8 8 8 8 9 9 9 9 9 8 8 9 9 9 9 8 9 9 9 9 8 8 9 9 8 9 9 9 8 9 10 9 9 9 9 9 9 8 9 9 9 9 9 9 10 10 9 9 9 9 9 10 9 10 9 9 9 8 9 9 8 10 10 10 10 9 9 9 9 10 10 8 9 10 10 9 10 9 9 10 9 9 9 10 10 10 10 9 9 10 8 9 9 9 10 9 10 9 9 10 9 10 10 10 10 9 9 10 9 10 10 9 9 10 10 9 10 10 10 10 10 10 9 10 9 10 8 10 10 10 10 10 10 9 9 9 10 9 9 10 9 9 9 10 9 10 10 9 10 10 10 9 9 9 9 9 9 8 9 10 9 9 9 9 10 9 9 9 8 9 9 9 9 8 9 9 8 9 8 9 9 9 8 9 8 8 8 8 8 8 9 8 9 9 8 8 8 8 8 8 8 8 9 8 8 8 8 8 8 8 8 8 7 8 8 8 8 8 8 7 7 7 7 8 7 7 8 8 8 7 7 7 7 7 7 7 7 7 7 7 7 7 8 7 7 7 7 7 7 6 6 7 7 7 7 7 7 7 7 7 7 7 7 7 6 6 7 7 8 7 7 7 6 7 6 7 7 7 7 6 7 7 6 6 6 7 6 6 7 7 7 7 7 7 6 7 6 6 6 6 6 7 7 6 7 7 6 7 7 6 7 6 6 7 6 6 6 7 6 6 6 6 6 6 6 6 6 6 6 6 6 6 7 0 
6 5 5 5 6 6 6 5 6 5 6 6 6 5 5 6 6 6 6 6 6 6 6 6 6 6 6 6 6 6 6 6 6 6 6 6 6 6 6 6 6 6 6 6 6 6 6 6 5 5 7 6 6 6 6 7 6 6 6 6 6 6 5 6 6 7 6 6 6 6 5 6 6 6 6 6 6 6 6 6 6 7 7 6 6 6 6 7 6 6 6 6 6 6 6 6 6 6 6 6 6 6 6 6 6 6 6 7 6 7 6 6 6 6 6 7 7 7 7 6 7 7 7 6 6 7 7 6 7 7 7 6 6 7 7 7 7 6 7 7 7 6 6 7 7 6 6 7 7 6 7 7 7 6 7 7 7 6 7 7 7 7 7 7 7 7 7 7 7 7 7 7 8 7 7 7 7 7 7 8 7 7 7 7 7 7 7 7 7 7 7 7 7 7 7 7 7 7 8 7 7 8 8 8 7 7 8 8 8 7 7 8 8 8 8 8 8 8 7 8 7 7 8 8 8 8 8 8 8 8 8 8 8 8 8 8 8 8 8 8 8 8 8 8 8 8 8 8 8 8 8 8 8 8 9 8 8 8 9 8 8 8 8 9 8 9 9 8 9 9 9 8 9 9 9 8 8 8 9 9 8 9 9 9 9 9 8 9 9 9 8 9 9 8 9 8 9 8 9 9 9 9 9 8 9 9 9 9 9 9 9 8 9 9 9 9 9 9 9 10 9 10 9 9 9 9 10 9 9 9 9 9 10 10 10 9 9 9 9 9 9 9 9 9 10 10 10 9 9 10 9 10 9 10 10 10 10 9 10 10 10 10 9 10 10 9 9 9 10 10 9 10 10 10 10 9 9 11 9 10 9 10 9 10 9 10 9 9 9 10 9 9 9 9 9 10 9 10 9 9 9 10 9 9 10 9 9 9 9 10 9 9 9 9 10 9 9 10 9 9 9 9 9 8 9 9 9 9 9 9 8 9 9 9 9 9 9 9 9 9 9 9 9 8 8 8 8 8 8 8 9 8 8 8 8 8 8 8 8 8 8 8 8 8 8 8 8 8 8 8 8 8 8 8 8 7 8 8 8 7 8 8 8 7 8 8 8 8 7 8 8 8 8 7 8 8 7 8 7 7 7 7 7 7 7 7 7 7 7 7 7 7 7 7 6 7 7 7 7 7 7 7 7 7 8 7 7 6 8 7 6 7 8 7 7 7 7 7 7 7 7 7 7 7 6 6 7 7 7 6 6 7 7 7 6 6 6 7 7 7 6 7 6 6 6 6 7 6 6 6 7 7 6 7 6 7 6 6 7 6 6 6 7 6 6 6 6 6 6 6 6 6 6 6 6 6 6 6 6 0 
5 5 6 6 6 5 6 6 5 6 6 6 6 5 6 6 6 6 6 6 5 5 6 6 6 6 5 6 6 6 6 5 6 6 5 6 6 6 6 6 6 6 6 6 6 6 6 6 6 6 6 6 6 6 6 5 6 6 6 6 5 6 6 6 7 6 6 6 6 5 6 6 6 6 6 6 6 6 6 6 6 6 6 6 6 6 6 6 6 6 6 6 6 6 6 7 6 7 6 6 6 7 6 7 6 6 6 7 6 7 7 7 6 6 7 6 6 6 7 7 6 7 7 7 7 6 7 7 6 7 7 7 7 7 6 7 7 7 6 7 7 6 7 6 7 7 7 6 6 7 7 6 7 7 7 7 7 7 7 7 6 7 6 7 7 7 7 7 7 7 6 7 8 7 7 7 7 7 8 7 7 7 8 7 7 7 7 7 7 8 8 7 7 8 7 7 8 7 7 8 7 7 7 8 8 7 7 8 7 7 7 8 8 7 8 8 8 8 8 8 8 8 8 8 8 8 8 8 8 8 7 8 8 8 8 8 8 7 8 8 8 8 8 9 8 8 8 8 9 8 9 8 8 8 8 8 8 8 8 8 8 8 8 8 8 9 8 8 8 8 10 9 8 8 8 8 8 9 9 8 9 9 9 9 9 8 9 10 8 9 9 9 8 8 9 9 8 10 9 9 9 9 8 9 9 8 9 9 9 9 9 8 9 9 9 9 9 9 9 9 8 9 9 9 10 9 9 9 9 9 9 9 10 9 10 10 9 10 9 10 9 9 10 10 9 9 10 9 9 9 10 9 10 10 9 9 9 9 10 10 10 10 8 10 10 9 9 9 10 9 9 10 9 10 9 9 10 10 10 9 10 10 9 10 10 9 10 9 10 9 9 10 9 9 10 9 10 10 9 9 9 9 9 9 9 9 10 9 9 9 9 10 9 9 9 9 9 9 9 10 9 8 9 9 10 10 9 9 10 8 9 9 8 9 9 9 8 9 8 8 8 9 8 8 9 8 8 8 8 8 8 9 8 8 8 8 8 8 8 8 8 8 8 8 8 8 8 7 8 8 8 8 7 8 8 7 7 8 8 7 7 8 7 8 8 7 7 8 7 7 8 7 7 7 7 7 7 8 8 8 8 8 8 7 7 8 7 8 7 7 7 7 7 6 7 8 6 7 7 7 7 7 7 7 7 7 7 7 7 7 7 7 7 6 7 6 6 6 7 7 7 7 7 7 7 7 7 7 7 6 7 7 6 6 7 6 7 6 6 6 7 7 6 6 7 7 7 7 7 7 6 6 7 6 6 6 6 6 6 6 6 6 6 6 6 6 6 6 6 6 6 6 6 6 5 6 6 6 6 0 
5 5 5 6 6 5 6 6 6 6 6 5 6 6 6 6 5 6 5 5 5 6 5 5 5 6 6 6 6 5 6 5 6 6 5 6 5 5 5 6 6 6 6 6 5 6 6 6 6 6 6 6 6 6 6 6 6 6 6 6 6 6 6 6 6 6 6 6 6 6 6 6 6 6 7 6 6 6 7 6 6 6 6 6 6 7 6 6 6 6 6 6 6 6 7 6 6 6 6 6 7 6 6 7 7 6 6 6 6 6 7 7 6 7 6 7 6 7 7 7 6 6 7 7 6 7 7 6 7 6 6 6 7 6 6 7 6 7 7 7 7 7 7 6 7 7 7 7 7 6 7 7 8 6 7 6 7 7 7 7 7 7 7 7 7 7 7 7 7 7 7 7 7 8 7 7 8 7 7 7 7 7 7 7 7 7 8 8 7 7 8 8 7 7 7 7 7 8 8 8 7 8 7 8 7 8 8 7 7 8 7 7 7 8 8 7 8 8 7 7 8 7 8 8 7 7 8 8 7 7 7 8 8 8 7 8 8 8 7 8 8 8 8 8 8 9 8 7 8 8 9 8 8 8 9 8 8 8 8 9 9 8 8 9 8 8 8 9 8 8 8 8 8 8 8 8 8 9 9 9 9 9 8 8 8 8 9 8 9 9 9 9 8 9 9 9 9 8 9 9 9 8 9 9 10 8 9 9 9 9 9 9 9 9 8 8 9 8 9 9 9 9 10 9 9 10 9 9 9 10 9 10 9 10 9 9 9 10 9 10 9 9 9 9 9 10 10 9 9 9 10 9 9 9 9 9 10 9 9 10 9 10 9 9 9 10 10 9 10 9 10 9 9 9 9 9 10 9 9 9 9 9 9 9 10 10 9 10 10 9 9 9 9 9 10 9 9 10 10 10 9 9 8 10 9 9 9 9 9 9 9 9 9 9 10 9 9 9 9 10 9 9 8 10 9 9 8 9 9 9 8 9 9 9 9 9 8 9 8 9 9 8 8 9 8 9 8 8 9 8 8 8 9 8 9 8 8 8 8 8 8 8 7 8 8 8 8 8 8 8 7 8 8 8 8 8 7 7 8 8 8 7 7 8 7 8 7 8 8 7 8 8 7 7 7 7 7 8 7 7 7 7 8 7 7 7 7 7 7 7 7 7 7 8 8 7 8 7 7 7 7 7 7 7 7 7 7 7 6 7 7 7 6 7 6 7 7 7 6 7 7 7 7 7 7 6 6 7 6 7 6 7 7 7 7 7 7 6 7 6 6 6 7 7 6 7 6 6 7 7 6 7 7 6 7 6 6 6 6 6 6 6 6 6 6 6 6 6 6 6 6 6 6 7 6 7 6 7 6 0 
5 6 5 6 5 6 6 5 6 6 5 6 6 6 5 6 5 6 6 6 6 5 6 6 6 6 5 5 6 6 6 5 6 6 6 6 6 6 6 6 6 6 6 6 6 6 6 6 6 6 5 6 6 5 6 6 6 6 6 6 5 6 6 6 6 6 6 6 6 6 6 6 6 6 6 7 6 6 6 6 6 6 7 6 6 6 6 6 7 6 6 6 6 6 6 6 7 7 6 6 6 6 7 7 7 6 6 6 6 7 6 6 6 6 7 6 6 6 6 6 7 6 6 7 7 6 7 7 7 7 6 7 7 7 7 6 7 6 7 7 7 7 7 7 7 6 7 7 7 7 7 7 7 7 7 8 7 7 7 7 7 7 7 8 7 7 7 7 7 7 7 7 7 7 7 7 7 7 8 7 7 7 7 7 7 7 7 7 8 8 7 7 7 6 7 8 7 8 7 8 7 8 7 7 8 8 7 7 8 7 7 8 8 7 7 8 7 7 7 8 8 8 8 8 7 8 8 8 8 8 8 8 8 8 8 9 8 8 9 7 7 8 8 8 7 8 8 8 8 8 8 8 8 8 8 8 8 8 8 8 9 8 9 8 8 8 9 9 8 8 9 9 8 9 8 8 8 8 9 8 8 8 9 9 9 8 8 8 9 9 9 9 9 9 9 8 8 9 9 8 9 9 9 9 9 9 8 9 9 9 9 9 9 9 9 9 9 9 9 9 9 10 9 9 9 10 9 9 8 9 10 9 9 9 9 9 10 9 9 10 9 9 9 9 9 9 9 9 9 9 9 9 10 9 9 9 9 9 9 10 10 10 10 9 9 9 9 9 9 9 10 9 9 9 9 9 10 10 10 9 10 10 9 9 9 9 9 10 10 8 10 9 9 10 9 9 10 10 9 8 10 9 9 11 9 9 9 10 9 9 9 10 9 8 9 10 8 9 9 9 9 9 9 8 9 9 9 8 8 9 8 8 8 8 9 8 9 9 8 8 8 9 9 9 8 9 8 8 7 8 8 8 9 8 9 8 8 8 8 8 8 8 8 8 8 7 8 8 8 7 8 8 7 8 8 8 8 8 8 7 8 7 8 8 7 8 8 7 7 7 7 7 7 8 7 7 8 8 7 7 8 8 7 7 7 7 7 7 8 7 7 7 7 7 7 7 7 7 7 7 6 7 7 7 7 7 7 7 6 6 7 7 7 8 6 7 7 7 6 6 7 7 6 7 6 7 7 7 7 7 6 7 7 6 7 7 7 7 6 6 6 6 7 7 6 7 7 6 6 6 6 6 6 7 6 7 6 6 6 6 6 7 6 6 6 6 6 6 6 6 6 6 7 6 6 6 6 6 6 0 
5 6 5 6 5 6 5 6 5 6 6 5 5 6 6 6 5 5 5 5 6 6 6 5 6 6 6 6 6 5 6 6 7 6 6 6 6 6 6 6 6 6 6 6 6 6 6 6 6 6 6 6 6 6 6 5 6 6 6 6 6 6 6 6 6 6 6 6 6 6 5 6 6 6 6 7 6 6 6 6 6 6 6 6 6 6 6 6 6 6 5 6 6 6 6 6 6 7 6 6 6 7 6 6 6 6 7 6 6 6 6 6 7 7 7 6 7 6 7 6 7 7 6 6 7 6 6 6 6 7 6 7 7 6 7 7 7 6 7 7 7 7 7 7 7 6 7 6 7 7 7 7 7 7 6 7 7 7 6 7 7 7 7 7 7 7 7 8 7 8 7 7 7 6 7 7 7 6 7 6 7 7 7 7 8 7 7 7 7 6 7 8 7 7 7 8 7 7 7 7 7 8 7 8 8 8 8 7 8 8 8 7 7 8 8 8 8 7 8 7 8 7 7 8 8 7 8 8 8 8 8 8 8 7 8 8 8 8 8 7 8 8 8 8 8 8 8 8 8 8 8 8 8 8 8 8 7 8 8 9 8 8 8 8 8 8 8 8 8 8 9 8 9 9 8 8 8 8 9 8 8 8 9 8 8 9 8 9 8 9 8 8 9 9 9 9 9 9 9 9 8 9 9 8 9 9 9 8 8 9 9 9 8 9 9 9 9 9 9 9 9 9 9 9 9 9 9 9 9 8 9 9 8 9 9 9 8 9 10 9 9 9 10 9 8 9 9 10 9 10 9 9 10 9 9 9 9 9 10 9 10 9 9 10 9 9 9 10 9 9 10 9 9 10 10 9 10 10 9 9 9 9 9 10 9 8 10 9 9 9 10 9 9 9 9 9 9 10 9 9 9 9 9 9 9 9 9 8 9 9 9 9 9 9 9 9 9 9 8 9 9 8 8 8 9 8 9 8 9 9 9 8 8 8 8 9 9 8 8 8 8 8 8 9 8 8 8 7 8 8 8 8 8 8 8 8 9 8 8 8 8 7 8 8 8 8 8 8 8 8 8 8 7 8 8 8 8 8 8 7 7 7 7 8 7 8 8 8 7 7 7 7 8 7 7 7 7 7 7 7 7 8 7 7 7 7 7 7 7 7 7 7 7 7 7 7 7 7 7 7 7 8 7 6 6 7 7 7 7 7 7 7 7 6 7 7 7 7 7 7 7 7 7 6 7 7 7 7 6 7 6 6 7 6 6 7 6 6 6 6 6 6 7 6 6 6 6 7 6 7 7 6 7 6 6 6 6 6 6 6 7 7 6 7 6 7 5 6 6 6 6 6 6 6 6 6 6 6 6 0 
6 6 6 5 5 5 5 6 6 6 5 5 6 6 6 6 5 5 5 6 6 6 5 6 6 6 5 6 6 6 6 6 6 5 5 6 5 6 6 6 6 6 6 6 6 6 6 5 5 5 6 5 6 5 6 6 6 6 6 6 5 6 5 6 6 6 6 6 6 6 6 6 6 6 6 6 6 6 6 7 6 6 5 7 6 6 6 7 6 6 6 6 6 6 6 6 6 7 6 6 6 6 7 6 6 6 6 6 6 6 6 7 6 6 7 6 6 6 6 6 7 7 7 7 7 7 7 6 7 7 7 6 6 7 6 7 7 7 7 7 6 6 6 7 7 7 7 7 8 6 7 6 7 7 7 7 6 7 6 7 7 7 8 7 7 7 7 7 6 7 7 7 7 7 7 7 7 7 7 7 7 7 7 7 7 7 7 8 8 6 8 6 7 7 7 7 7 7 7 7 8 8 7 8 7 8 8 7 7 8 7 7 8 8 8 8 8 7 8 8 8 8 8 8 8 8 8 7 8 8 8 8 8 7 8 8 8 8 8 8 8 8 7 9 8 8 7 8 8 8 8 8 8 7 9 8 9 8 8 9 8 8 8 8 9 9 8 8 8 9 8 8 8 8 8 8 9 8 9 8 8 9 9 9 8 9 9 8 9 8 8 9 8 9 9 8 8 8 8 8 9 8 9 9 9 9 8 8 9 9 9 8 9 9 10 9 9 9 8 9 8 9 9 9 9 10 9 8 9 9 9 9 9 9 9 9 9 9 8 10 9 10 9 9 10 10 9 9 9 9 9 10 9 9 9 9 9 9 9 9 10 9 8 9 9 10 9 9 10 8 9 10 10 9 9 9 9 9 10 9 9 9 9 9 9 9 10 9 9 9 9 9 9 9 8 9 9 9 9 10 10 9 9 8 9 9 10 9 9 8 8 8 8 9 9 8 9 9 8 9 8 8 9 8 8 9 9 9 9 8 9 9 8 9 9 9 8 8 8 9 8 8 8 9 8 9 8 8 8 8 8 8 9 8 8 8 8 8 8 8 8 8 8 8 8 8 8 9 8 8 8 7 8 8 7 8 8 7 7 7 8 8 7 7 7 7 8 7 8 7 8 7 8 7 7 7 7 7 7 8 7 7 7 7 7 7 7 7 7 7 7 7 7 7 6 6 7 7 7 7 7 7 7 7 7 7 7 6 7 6 7 6 7 7 7 7 7 7 7 7 7 7 6 6 6 7 6 6 6 7 6 6 6 6 6 6 7 7 6 7 6 7 7 7 6 6 7 6 6 6 7 6 6 6 6 6 6 6 6 7 6 6 6 6 6 6 6 6 6 6 6 6 6 6 6 6 6 6 6 0 
6 6 6 6 5 6 5 5 6 6 5 5 6 6 6 6 6 5 6 6 6 6 5 6 5 6 6 6 6 6 6 6 6 5 6 6 6 6 5 6 6 6 6 6 5 6 6 6 6 5 6 6 6 6 6 6 6 6 6 6 6 5 6 6 6 6 6 6 6 6 6 6 6 6 6 6 6 7 6 6 6 6 6 6 6 6 6 6 6 6 6 6 6 6 6 6 7 6 6 6 6 7 6 7 6 7 6 6 7 6 7 6 6 6 6 6 6 7 6 7 6 6 7 6 6 7 7 7 7 6 7 6 6 6 7 7 6 6 7 7 7 7 6 7 7 6 7 7 7 6 7 7 6 6 6 7 7 7 7 7 7 7 7 7 7 7 6 7 7 7 7 7 7 7 7 7 7 6 7 7 8 7 7 7 7 7 7 7 7 7 7 7 7 7 7 7 8 7 7 7 8 7 8 7 7 8 8 7 7 7 7 8 8 8 7 8 7 7 7 7 8 8 8 8 7 8 8 8 8 8 7 8 7 7 8 8 7 8 8 8 8 8 8 7 9 8 8 8 8 8 8 8 8 8 8 8 8 8 9 8 8 7 8 8 8 8 8 8 8 8 9 8 9 8 8 8 8 8 8 8 9 9 8 8 9 8 8 8 9 9 9 8 8 9 8 8 9 9 8 8 9 8 9 9 9 8 9 8 9 8 9 9 9 9 9 8 9 9 9 9 8 9 9 9 9 8 9 10 9 9 9 9 9 9 10 9 9 9 8 8 9 9 9 9 9 9 8 9 9 9 8 9 9 9 9 9 9 9 9 10 9 9 10 9 9 10 10 9 9 10 9 9 9 10 9 9 9 10 10 9 8 10 9 10 9 10 9 9 9 9 9 9 9 8 9 9 9 9 9 9 9 9 9 9 9 8 9 9 9 9 9 9 9 8 9 9 8 8 8 9 9 8 9 9 8 8 9 8 9 9 8 9 9 8 8 8 8 9 8 8 9 8 8 8 9 8 9 8 9 8 8 8 8 8 8 8 7 8 8 8 8 8 8 8 8 7 8 8 7 8 7 8 8 7 7 8 7 8 7 7 7 8 8 8 7 7 7 8 7 7 7 7 7 8 7 8 7 7 7 7 7 7 7 7 7 7 8 7 7 7 7 8 7 7 7 7 6 7 7 7 7 7 7 7 7 7 6 7 7 7 7 7 7 7 6 7 7 6 7 7 7 7 6 6 6 7 7 7 7 6 7 7 7 6 6 7 6 6 6 7 7 7 7 6 7 6 7 6 7 6 6 7 6 6 7 6 7 6 6 6 6 6 6 6 7 5 7 6 6 6 6 6 6 6 7 6 7 6 6 0 
6 5 6 6 5 5 6 6 6 5 6 6 5 6 6 6 5 5 6 6 6 6 6 6 5 5 6 5 6 6 6 6 6 5 6 5 6 6 6 6 6 6 6 6 6 6 6 6 6 6 5 6 6 6 6 5 6 6 6 6 6 5 6 6 6 6 6 6 6 6 6 6 6 6 6 6 6 6 7 6 6 7 6 6 6 6 6 6 6 6 6 6 6 6 6 7 6 6 6 6 6 6 7 6 6 6 6 6 6 7 7 7 6 6 7 6 6 7 6 7 7 7 6 6 6 7 6 6 6 7 7 6 7 6 6 7 7 6 6 7 7 6 6 6 7 7 7 7 7 7 7 7 7 6 7 7 7 6 6 7 7 7 7 7 7 6 8 7 7 7 7 7 7 7 7 7 7 7 7 8 7 7 7 6 7 7 6 7 8 7 7 7 7 7 8 7 7 7 7 8 7 8 7 8 7 6 7 7 7 8 8 8 8 7 8 7 7 7 7 7 7 7 8 8 7 8 8 8 8 7 8 8 8 7 8 8 8 8 8 8 8 7 8 8 8 8 8 7 8 8 8 8 8 8 8 8 8 8 8 8 8 9 8 8 8 8 8 8 9 8 8 8 8 8 9 8 8 9 9 9 8 9 8 8 8 8 8 8 8 9 8 8 8 8 9 9 9 8 8 9 9 9 8 9 8 9 9 9 9 9 8 9 9 9 9 9 9 9 9 8 9 9 9 9 9 10 9 9 8 9 9 9 9 9 9 9 9 8 9 9 9 9 9 9 9 9 9 9 10 9 10 9 9 10 9 9 9 9 10 9 9 9 9 9 9 9 9 9 9 9 9 9 9 9 9 9 9 9 9 9 10 9 10 9 9 9 9 10 9 9 9 9 9 9 9 8 9 9 9 9 9 10 9 9 8 8 8 8 9 9 8 9 9 9 9 9 9 8 8 8 8 9 9 9 8 8 9 8 9 8 9 9 8 8 9 9 9 8 8 8 8 8 9 9 8 8 8 8 8 8 8 8 8 9 8 7 8 8 8 8 8 8 8 8 7 8 8 7 8 8 8 8 8 8 8 8 8 8 8 7 8 7 7 7 8 8 7 7 7 7 7 7 7 7 7 7 7 7 7 7 7 7 7 7 7 7 7 7 7 7 7 6 7 7 7 6 7 7 7 7 7 7 7 7 7 6 7 7 6 7 6 6 7 6 7 7 6 7 7 7 6 7 6 6 6 7 7 7 6 6 6 6 6 6 6 6 6 7 7 6 7 6 6 6 6 7 6 7 7 6 6 6 7 6 6 6 6 6 6 6 6 6 6 5 6 6 6 6 6 6 6 6 6 7 6 6 6 6 6 0 
6 5 6 6 5 6 6 6 6 5 6 6 5 6 6 6 5 5 5 6 5 5 6 5 6 6 6 6 6 6 6 6 6 6 5 6 6 6 6 6 6 6 6 5 5 6 6 5 6 6 6 6 6 6 6 6 6 6 6 6 6 5 6 6 6 6 6 6 6 7 6 6 6 6 6 6 6 6 6 5 6 6 6 6 6 5 7 6 6 6 7 6 6 6 7 6 6 6 6 6 7 6 6 6 6 7 6 7 6 6 7 6 6 6 6 6 6 6 6 7 6 7 6 7 6 6 6 6 6 7 7 7 7 6 6 6 7 7 7 6 6 6 7 6 6 6 7 7 7 7 7 7 6 6 7 7 7 6 6 7 6 8 6 7 7 6 7 7 7 7 7 7 8 7 7 7 8 7 7 7 7 7 7 7 7 7 7 7 7 7 7 7 7 7 8 7 7 7 7 7 7 7 7 8 8 7 7 8 7 7 8 7 7 7 7 7 8 8 8 8 8 7 8 8 8 8 8 8 7 8 8 7 7 8 8 7 8 8 8 8 8 8 8 7 8 8 8 8 8 8 8 8 8 8 7 8 8 8 8 7 8 9 8 8 9 8 8 8 8 8 8 8 9 8 8 8 8 9 8 9 8 8 8 8 9 8 9 8 8 9 9 9 8 8 8 8 8 8 9 8 8 8 9 9 8 8 9 8 8 9 8 8 9 8 8 8 9 8 8 9 8 9 8 9 8 8 8 8 9 9 8 9 9 9 9 9 9 9 9 9 9 9 9 9 9 9 8 9 9 9 9 9 8 8 8 9 9 9 8 9 9 9 9 9 8 9 9 9 8 9 9 9 9 9 9 9 9 9 9 9 9 9 9 9 10 9 9 9 9 9 9 9 8 10 10 9 9 9 9 9 9 8 9 9 9 8 9 9 9 9 9 8 9 9 9 8 8 9 8 9 8 9 8 9 8 9 9 8 9 9 8 9 9 8 9 8 8 9 8 9 8 8 9 8 8 8 8 8 8 8 8 8 8 8 8 8 7 8 8 8 8 8 8 8 7 8 7 8 8 8 7 7 7 8 8 7 8 8 7 7 8 8 7 8 7 7 8 8 7 7 7 7 7 7 7 7 7 7 7 8 7 7 7 7 7 8 7 7 7 7 7 8 7 7 7 7 7 6 7 7 7 7 7 6 6 7 7 7 7 7 6 7 6 7 6 6 6 7 7 7 6 6 7 6 7 6 6 7 7 6 7 7 7 6 6 6 6 6 6 6 6 6 6 6 6 6 6 7 7 6 6 6 6 6 6 6 5 6 6 6 7 6 6 6 6 6 6 6 6 6 6 6 6 6 6 6 6 5 6 0 
5 5 6 5 5 5 6 6 6 6 5 5 6 6 5 6 6 5 6 5 5 6 6 5 5 5 6 6 6 5 6 6 6 6 6 5 6 6 6 6 6 5 6 5 6 6 5 6 6 6 6 6 5 6 5 6 5 6 6 6 6 5 5 6 6 6 6 6 6 6 6 6 6 6 5 6 6 6 6 6 6 6 6 6 6 6 6 6 6 6 6 6 7 7 6 6 6 6 6 6 6 6 6 6 6 6 7 6 6 6 6 6 7 6 6 6 7 6 7 7 6 6 6 6 6 7 6 7 7 6 6 6 7 7 6 6 6 7 7 6 6 6 6 6 7 7 7 7 7 7 7 6 7 7 7 7 7 7 7 6 7 7 7 7 7 7 7 7 7 7 7 7 7 7 7 7 7 7 7 7 7 7 7 7 7 7 7 7 7 8 7 7 7 7 7 7 7 7 8 7 8 7 8 7 7 7 8 7 7 7 8 7 8 7 7 7 8 8 8 8 8 7 8 8 7 8 8 8 8 8 7 7 8 7 8 8 7 9 8 8 7 8 8 8 8 7 8 8 7 8 8 7 8 8 7 8 7 8 8 8 8 8 8 8 8 8 8 8 8 8 8 8 8 8 9 9 8 8 9 9 8 9 8 8 8 8 8 8 8 8 8 8 8 8 9 8 8 8 9 8 8 9 9 8 9 9 9 9 8 8 8 9 9 8 8 9 8 9 8 9 8 9 8 9 8 9 8 9 9 9 8 9 8 9 10 9 9 8 9 9 9 10 9 8 9 9 9 9 9 9 9 9 9 9 9 9 8 10 9 9 9 10 9 9 9 9 9 9 9 9 8 9 9 9 9 9 9 9 9 9 9 10 9 9 8 9 9 9 9 9 9 9 9 9 9 9 9 8 9 8 8 8 9 9 9 9 8 9 9 9 9 8 9 9 8 8 9 8 8 8 8 9 8 9 8 9 9 9 9 9 8 9 8 8 8 8 8 9 8 9 8 8 9 8 8 8 8 8 8 8 8 8 8 8 8 8 8 7 8 8 8 8 8 9 8 8 8 7 8 8 8 8 8 7 8 8 7 7 8 8 7 8 8 8 7 7 7 7 7 7 8 7 7 7 7 7 7 7 8 8 7 7 7 7 7 7 7 7 7 7 8 8 7 6 7 7 7 6 7 7 7 6 7 6 7 7 7 8 7 7 6 6 7 7 7 6 7 7 7 6 6 6 6 7 7 7 6 6 6 7 7 6 6 7 6 7 6 6 6 7 6 6 6 7 6 6 6 6 6 6 6 6 6 6 6 6 6 6 6 6 6 7 6 6 6 6 6 6 7 6 6 6 6 6 6 6 7 6 6 0 
6 5 6 5 5 5 6 5 5 5 5 5 5 6 6 6 6 6 6 6 6 6 5 5 6 6 6 6 5 6 5 6 6 6 6 5 6 6 6 6 6 6 6 6 6 5 6 6 6 6 6 5 6 6 6 6 6 6 6 6 6 6 6 6 6 6 6 6 6 6 6 6 6 6 6 6 6 6 6 6 6 6 6 6 6 6 6 6 6 6 6 6 6 6 6 7 6 6 7 7 6 6 6 6 7 6 7 6 6 7 7 6 6 7 6 6 6 6 6 6 6 6 6 6 6 6 6 6 6 7 7 7 6 6 6 7 6 7 7 7 7 7 6 6 7 6 7 7 6 7 6 7 7 7 7 7 7 7 6 7 7 7 6 6 7 7 7 7 7 7 7 7 7 7 6 7 6 6 7 7 7 7 7 7 7 7 6 7 7 7 7 7 7 7 7 7 6 7 7 7 7 7 7 7 8 7 7 8 8 8 7 8 7 7 7 8 7 8 8 8 7 7 8 8 7 8 8 7 7 7 7 8 8 8 8 7 8 8 7 7 8 7 7 8 8 8 8 8 9 8 8 8 8 8 8 8 8 8 8 8 9 8 8 8 8 8 9 8 8 8 8 8 8 8 8 8 8 8 8 8 9 7 8 8 8 8 9 8 8 8 8 8 8 8 8 8 9 9 8 9 9 9 9 9 9 8 8 9 8 8 9 8 9 8 9 9 9 8 9 9 8 9 8 8 8 8 9 8 10 9 8 8 9 8 9 9 9 9 8 8 9 9 9 9 8 9 8 9 9 9 8 9 8 9 9 9 9 9 9 9 9 8 9 9 10 8 9 9 9 9 9 9 9 9 9 9 9 9 9 8 9 10 9 9 9 8 9 9 10 9 8 9 9 9 9 9 9 9 9 9 9 9 9 8 9 9 9 9 8 9 9 8 9 8 9 9 9 9 9 8 9 9 9 9 8 8 8 8 8 9 8 8 8 8 8 8 8 8 8 7 9 8 8 9 7 8 8 8 8 8 8 8 8 8 8 9 8 8 7 8 7 8 8 8 8 8 8 7 8 8 8 7 7 7 7 8 7 7 8 8 8 8 8 7 7 7 7 8 7 8 8 7 7 7 7 7 7 8 7 7 7 7 7 7 7 7 7 8 7 8 7 7 7 7 7 7 7 7 7 7 7 7 7 7 7 7 7 7 6 6 7 6 6 6 6 7 6 7 7 6 6 6 6 6 7 6 6 7 6 7 7 6 6 6 7 6 6 6 6 6 6 7 6 6 6 7 6 6 6 7 6 6 6 6 7 6 6 6 6 6 6 6 6 6 6 6 6 6 6 6 6 6 6 6 6 6 7 6 6 0 
5 6 5 5 5 5 5 6 6 5 6 5 6 6 6 5 5 6 6 6 6 5 6 5 6 6 5 5 6 5 5 6 6 5 6 6 5 6 6 6 6 6 6 6 6 6 5 5 6 6 6 5 6 5 6 5 5 6 6 6 6 6 6 6 5 6 6 6 6 6 6 5 6 6 6 6 6 6 6 6 6 6 6 6 6 6 6 6 6 6 7 6 6 6 6 6 6 6 7 6 6 7 6 6 6 6 7 6 6 6 6 6 6 7 6 6 6 7 7 7 6 6 6 6 6 7 6 7 6 6 7 6 6 7 6 7 7 6 7 6 6 7 6 6 7 7 7 7 6 6 7 6 7 7 7 7 6 7 7 7 7 7 7 6 7 7 7 7 7 7 7 7 7 7 8 7 6 7 7 8 7 7 7 7 7 7 8 8 7 8 8 7 7 7 7 7 7 7 7 7 7 7 7 7 7 7 8 8 7 7 8 7 8 7 7 7 8 8 7 7 7 8 8 7 8 8 8 7 7 7 8 8 8 8 8 8 8 8 8 8 8 8 8 8 8 8 7 8 8 8 7 8 7 8 8 8 8 8 7 8 8 7 8 9 8 8 8 8 8 8 8 8 8 8 8 8 8 8 8 9 8 8 8 9 8 8 8 9 8 8 8 9 8 8 7 8 9 8 8 9 8 8 9 8 8 9 8 8 9 9 9 8 9 9 8 9 8 9 8 9 8 8 9 8 8 9 8 9 9 8 8 8 8 9 8 8 9 8 9 8 9 9 9 9 8 9 9 9 9 9 9 9 8 9 9 8 9 9 9 9 8 8 9 9 8 8 9 10 8 9 9 9 9 9 9 9 10 9 9 9 9 9 8 8 9 10 8 9 8 9 9 9 9 8 9 9 9 9 9 9 8 9 9 9 8 9 9 9 9 8 9 8 8 8 8 8 9 9 8 8 9 9 9 9 8 8 8 8 8 8 8 8 8 9 8 8 8 8 8 8 8 8 8 8 8 7 8 8 8 8 7 8 8 8 8 8 8 7 8 8 8 8 8 8 7 8 7 7 8 7 8 8 7 7 8 8 7 8 8 7 7 7 7 8 7 8 8 7 7 7 7 8 6 7 8 7 7 7 7 8 8 7 7 7 7 7 7 8 7 7 7 6 7 7 6 7 8 7 7 6 7 7 7 7 6 7 6 7 7 7 7 7 7 6 7 7 7 6 7 6 7 7 6 6 7 7 7 6 6 7 6 6 6 6 7 6 7 7 6 7 6 7 6 6 6 7 7 6 6 6 7 6 6 6 6 6 7 6 6 6 6 6 6 6 6 6 6 6 6 6 6 6 6 6 6 6 6 6 6 0 
6 6 5 6 6 5 6 6 5 6 5 6 5 5 5 5 6 5 6 5 5 5 5 6 6 6 5 6 6 6 6 6 6 6 6 5 6 6 6 5 5 6 6 6 5 6 6 6 6 5 6 6 6 5 6 6 5 6 6 6 6 6 6 6 6 6 5 6 6 6 6 6 6 6 6 6 6 6 6 6 6 6 6 6 6 6 6 6 6 6 6 7 6 6 6 6 6 6 6 6 7 6 6 6 6 6 7 6 6 6 7 6 7 6 6 6 6 7 6 6 7 6 6 6 7 7 6 7 7 6 7 7 6 7 7 6 7 7 7 7 7 7 6 6 6 7 6 7 7 7 6 7 7 7 7 7 7 6 7 7 7 7 6 7 6 6 7 7 7 7 7 6 7 7 7 7 8 7 7 7 7 7 6 7 8 7 7 7 7 7 7 7 7 7 7 7 6 7 7 7 6 8 7 7 8 7 7 8 8 7 7 7 7 7 7 8 7 7 7 8 7 8 8 7 8 7 7 8 8 8 7 7 8 8 8 8 7 8 8 8 7 8 8 8 8 8 8 8 8 8 8 7 8 8 8 8 8 8 7 8 8 8 8 8 8 8 9 8 8 8 8 8 8 8 7 9 8 8 8 8 8 8 8 8 8 8 8 8 8 8 8 8 8 8 8 8 8 8 8 8 8 7 8 8 8 8 8 9 8 9 8 9 9 9 9 9 8 9 8 9 9 9 8 8 9 8 9 8 9 8 9 9 8 8 9 9 8 9 8 8 9 8 9 9 9 9 9 8 8 9 9 9 9 9 9 9 8 9 9 9 9 9 8 9 9 9 8 9 9 9 8 8 9 9 8 9 8 8 9 9 10 9 9 9 8 9 9 8 8 9 9 9 8 8 8 8 9 9 9 9 9 9 9 9 8 8 9 9 9 9 8 8 9 9 9 8 8 9 9 8 8 9 9 9 8 8 8 8 8 8 8 8 8 8 8 8 9 8 8 9 8 8 8 7 8 8 8 8 8 8 8 8 7 8 8 7 7 8 8 8 7 8 8 8 7 7 7 8 7 8 7 8 7 7 7 8 8 8 7 7 7 7 8 8 8 7 7 7 7 7 7 7 8 7 7 7 6 7 7 7 7 7 7 7 6 7 7 7 7 7 7 7 7 7 7 7 7 7 7 6 7 6 7 7 7 6 7 6 7 6 7 7 6 7 7 6 6 7 6 6 7 6 7 7 7 6 7 6 6 6 6 6 7 6 6 7 6 6 7 6 6 6 6 6 6 6 7 7 6 7 7 6 6 6 6 6 7 6 6 6 7 6 6 6 6 6 6 6 7 6 6 6 7 6 6 6 6 6 6 0 
5 5 5 5 6 6 5 6 5 6 5 5 6 6 6 6 6 6 5 6 5 6 6 6 6 5 5 5 5 5 6 6 6 5 5 6 5 6 6 6 6 6 6 6 5 5 5 6 6 6 6 6 6 6 6 6 6 6 6 6 6 6 5 6 6 6 6 6 6 6 5 6 6 6 6 7 6 6 5 6 6 6 6 6 6 6 6 6 6 6 6 6 6 6 6 7 6 6 6 6 6 6 6 6 6 6 6 6 6 6 7 6 6 6 6 6 6 6 7 7 6 7 6 6 6 7 6 6 7 6 6 7 6 6 6 6 7 7 6 6 7 7 7 6 7 7 6 7 7 7 7 7 7 6 7 6 7 7 7 7 7 7 7 6 7 7 7 7 7 7 7 7 7 6 7 7 7 7 7 7 7 7 7 7 7 7 7 7 7 7 7 8 7 7 7 7 7 7 8 7 7 7 7 7 7 7 7 7 7 7 7 7 7 7 8 7 8 8 7 8 8 7 8 7 8 8 7 8 8 8 7 7 7 7 8 8 7 8 8 8 7 7 7 7 7 8 8 8 8 8 7 7 8 7 7 8 8 8 8 8 8 8 8 8 8 8 8 8 8 8 8 9 8 7 8 7 7 8 8 8 8 8 9 8 8 9 8 8 8 8 9 8 8 8 9 9 8 9 8 9 9 9 9 8 8 8 8 8 9 9 9 9 8 9 9 8 8 9 9 8 9 8 9 9 8 8 8 9 8 9 8 8 8 9 8 9 9 8 9 9 8 9 8 9 8 9 9 8 9 9 8 9 8 8 9 8 9 9 9 8 8 9 8 9 9 9 9 9 9 9 9 9 9 9 9 8 8 9 9 9 8 9 8 9 9 9 9 9 8 9 9 9 8 8 8 9 8 9 9 9 8 8 9 9 8 8 9 9 8 8 8 8 9 9 8 8 9 8 8 8 8 7 8 8 9 9 8 8 8 8 8 9 8 8 8 8 8 8 8 8 8 8 8 8 8 8 8 8 8 8 8 8 8 8 7 8 7 9 8 8 8 8 8 7 8 8 8 8 8 8 8 8 7 8 8 7 7 7 7 7 8 7 7 7 7 7 7 8 7 7 7 7 7 8 8 7 8 8 7 7 7 8 7 8 7 6 7 7 7 7 7 7 7 7 7 7 7 7 6 7 6 6 7 7 6 6 7 7 7 7 6 7 7 6 7 7 7 6 7 6 7 6 7 6 7 7 6 7 6 7 6 6 6 6 6 7 6 6 6 6 6 6 6 7 6 6 6 6 6 6 6 6 6 6 6 6 6 6 6 6 6 6 6 6 6 6 6 6 6 6 6 6 6 6 6 5 6 5 6 0 
5 5 5 5 5 6 6 6 6 6 5 5 5 5 5 6 6 6 6 5 5 6 5 6 6 5 6 5 6 6 5 5 5 6 6 6 6 6 6 5 5 6 6 6 5 6 5 6 6 6 6 5 5 6 7 6 6 6 6 6 5 6 6 6 6 6 6 6 6 6 6 6 7 6 6 6 6 6 6 7 6 6 6 6 6 6 6 6 6 6 6 6 6 6 6 6 7 6 6 6 6 6 6 6 6 6 6 6 6 7 7 6 6 6 6 6 6 7 6 6 6 6 6 7 7 6 7 7 6 6 6 7 6 6 6 7 7 6 6 7 7 6 7 7 7 7 6 6 7 7 7 6 7 6 7 7 6 7 7 7 7 7 7 7 6 7 6 6 7 6 7 7 8 7 7 7 7 7 7 7 7 7 7 6 7 7 7 6 7 7 7 7 7 7 7 7 7 7 7 7 7 7 8 8 8 7 7 7 7 7 8 7 7 7 7 7 7 7 7 7 7 7 7 7 8 7 8 7 8 7 7 7 8 8 8 7 7 8 7 7 7 7 7 7 8 8 8 8 8 8 8 8 8 8 8 8 9 7 7 8 8 8 7 7 8 7 8 8 8 9 8 8 8 8 7 8 7 8 8 8 8 7 8 8 8 8 8 7 8 8 9 8 8 9 8 8 8 9 8 7 8 9 8 8 8 8 8 8 9 8 8 8 8 8 8 8 9 8 8 8 8 8 9 8 9 8 8 9 8 9 8 9 9 8 8 8 9 8 9 8 9 9 8 9 9 8 9 9 8 9 9 9 8 9 9 8 9 8 9 9 9 9 9 8 9 9 9 9 8 9 9 9 8 9 8 9 9 8 9 9 8 8 9 8 8 9 8 9 8 9 8 9 9 9 8 8 8 8 8 9 9 8 8 8 9 9 9 9 8 9 8 9 8 8 8 8 8 8 7 9 8 8 9 8 8 8 8 8 8 8 8 8 8 8 8 8 8 9 8 8 8 8 8 8 8 8 8 9 8 8 8 8 8 8 8 7 7 8 8 8 7 8 8 8 8 8 7 7 8 7 8 8 7 8 7 8 7 7 8 8 8 7 7 7 8 7 8 7 7 8 7 7 7 7 7 7 7 7 7 7 6 7 7 7 7 7 7 6 7 7 6 7 7 7 7 7 7 7 7 7 7 6 7 7 6 6 7 6 7 6 7 7 7 6 7 6 6 7 7 6 7 6 6 7 6 7 6 6 7 6 7 6 7 6 6 6 7 6 6 6 7 6 6 6 6 6 6 6 7 7 6 6 6 6 6 6 6 6 7 6 6 6 6 5 6 6 6 6 6 6 6 6 6 6 6 6 6 6 6 0 
5 6 6 6 6 5 5 6 5 6 5 5 6 6 5 6 6 5 6 6 5 6 5 6 6 6 6 5 6 5 6 6 6 5 6 5 6 5 6 6 6 5 6 5 6 6 6 6 6 6 6 6 6 6 6 6 5 6 6 6 6 6 6 6 5 5 6 6 6 6 6 6 6 6 6 6 6 6 6 6 6 6 6 7 6 6 6 6 6 6 6 6 6 6 6 6 6 6 6 6 6 6 6 7 6 6 5 6 6 6 6 6 6 6 6 6 6 6 6 6 6 6 6 6 6 7 6 7 6 7 7 6 6 6 6 6 6 6 7 6 7 6 7 6 6 6 7 6 7 7 7 6 7 6 7 7 7 7 6 7 6 7 6 7 6 7 6 7 7 7 7 7 6 7 6 7 7 7 7 7 7 7 6 7 7 7 7 7 7 7 7 7 7 7 7 7 7 7 7 7 7 7 7 7 7 7 7 7 7 7 8 7 7 7 7 8 8 7 7 7 7 7 7 7 8 8 8 6 8 7 7 8 7 7 7 7 7 8 8 8 7 7 8 8 8 7 7 7 7 8 8 8 8 7 7 8 8 8 8 8 8 8 7 8 8 7 9 8 8 8 8 8 8 8 8 8 8 8 8 8 8 8 8 9 8 8 8 8 8 8 8 8 8 9 9 8 8 8 9 8 8 9 8 8 9 8 8 8 8 8 8 8 8 9 9 8 8 8 8 8 8 9 8 9 8 8 9 9 8 9 8 8 8 8 9 9 9 9 8 8 9 9 9 9 8 8 9 9 8 9 9 9 9 8 9 8 8 9 8 8 9 9 8 9 9 8 9 9 8 9 9 9 8 9 9 9 9 8 9 8 9 9 8 8 9 8 9 8 9 9 8 9 9 9 8 9 8 9 9 9 8 9 8 9 9 8 9 8 8 8 9 8 8 8 9 8 8 8 8 9 8 8 8 8 8 8 8 8 8 8 8 8 9 8 8 8 8 8 8 8 8 8 8 8 8 8 8 7 9 8 8 8 8 7 8 8 8 8 7 7 8 8 8 8 7 7 8 7 7 7 7 8 8 7 8 7 8 7 7 7 8 7 7 7 7 7 7 7 7 7 7 7 7 7 7 7 7 7 7 7 7 7 7 7 7 7 7 7 7 7 6 7 7 7 7 7 6 7 7 7 7 7 7 7 7 6 7 6 7 6 7 6 7 7 6 6 6 7 6 6 7 7 6 7 6 6 7 6 6 7 6 6 6 7 6 7 6 6 6 6 7 6 7 7 6 6 6 6 6 6 7 6 6 6 6 6 6 6 6 7 6 6 6 6 6 6 6 6 6 7 6 6 6 6 6 6 6 6 6 0 
5 5 5 6 5 6 5 6 6 5 5 6 6 5 5 5 6 5 5 6 6 6 5 6 5 6 5 5 6 5 5 6 6 5 5 5 6 5 6 6 6 6 5 6 6 6 6 6 6 6 6 7 6 6 6 6 6 6 5 6 6 5 6 6 6 6 6 6 6 7 6 6 6 6 6 6 6 6 6 5 6 6 6 7 6 6 7 6 6 6 7 6 6 6 6 7 6 6 6 6 6 6 6 6 6 6 6 6 6 6 7 6 6 6 6 6 6 7 6 7 6 7 7 6 7 7 6 6 7 6 6 6 6 6 6 6 7 6 6 6 6 6 7 6 6 7 6 6 7 7 7 7 7 7 6 7 7 6 7 6 6 7 7 7 7 7 7 7 7 7 7 6 7 7 7 7 7 7 7 7 7 6 7 7 7 7 7 7 7 7 7 7 6 7 7 7 7 6 7 7 7 7 7 7 7 7 8 7 7 7 6 7 7 7 7 7 8 8 8 7 7 8 7 7 8 7 7 8 8 8 8 8 7 7 8 7 8 8 8 8 8 8 8 7 8 8 8 8 8 8 8 7 7 8 9 8 8 8 8 8 8 8 8 8 8 7 8 8 8 8 8 8 8 8 8 8 8 8 8 8 8 8 8 8 8 7 7 9 9 8 8 8 8 8 8 8 8 8 8 8 8 8 8 8 8 7 8 8 8 8 9 8 8 8 8 8 8 8 8 8 8 8 8 9 9 8 9 8 8 9 8 8 8 9 9 8 9 8 9 8 9 9 9 9 8 9 8 9 9 8 8 9 8 8 9 8 9 9 9 9 8 9 9 8 8 8 9 9 9 8 8 8 9 8 8 8 8 8 8 9 9 9 9 8 9 9 8 8 9 8 8 8 9 9 9 8 8 8 9 8 9 8 9 9 9 9 9 8 8 9 8 8 8 8 8 8 8 8 7 8 8 8 8 7 8 8 8 8 8 8 7 9 8 8 8 7 8 8 8 8 8 8 7 8 8 8 8 8 8 8 8 7 8 8 7 8 8 8 7 7 8 8 8 7 8 8 8 8 7 8 8 8 7 7 8 7 8 7 8 7 7 7 7 7 7 7 8 8 8 7 7 7 8 7 7 7 7 8 7 7 7 7 7 7 7 7 6 7 7 7 7 7 7 7 7 7 6 7 7 7 7 6 7 7 7 6 6 6 7 6 6 6 7 7 6 6 7 6 7 7 7 7 7 6 7 7 6 7 7 6 6 6 6 6 6 6 7 6 6 7 7 6 6 6 6 6 7 6 6 6 6 6 6 6 7 6 6 6 6 6 6 6 6 6 5 7 6 6 6 6 6 7 6 6 6 6 5 6 6 0 
6 5 6 6 5 5 6 6 5 5 5 6 5 5 6 5 6 6 5 5 6 6 6 6 5 6 5 6 6 6 6 6 6 5 5 5 6 6 5 6 5 5 5 6 6 6 7 6 6 6 6 5 6 6 6 6 6 5 6 6 5 7 5 6 6 6 6 6 6 6 5 6 6 5 6 6 6 6 6 6 6 6 6 6 6 6 6 6 6 7 6 6 6 6 6 6 6 6 6 6 6 6 6 6 6 6 6 6 7 6 6 6 6 6 6 6 6 7 6 6 6 7 7 6 7 6 6 6 6 6 6 6 6 6 7 6 6 6 7 6 6 6 6 7 6 7 7 7 7 6 6 6 7 7 6 7 7 7 6 7 6 7 7 6 7 6 7 7 7 7 7 7 7 7 7 7 7 7 7 6 7 7 7 6 7 7 7 7 7 7 7 6 7 7 7 7 7 7 8 7 7 7 7 7 7 7 7 7 7 8 7 8 8 8 7 7 8 7 7 7 7 7 7 8 8 7 7 7 7 7 7 7 8 8 8 8 7 8 7 8 7 7 8 7 8 8 8 8 7 8 8 8 8 7 8 8 8 8 7 8 8 8 8 8 8 8 8 7 8 8 8 8 8 8 8 8 7 8 8 8 8 8 8 8 8 8 8 8 8 8 9 8 8 8 7 8 8 8 8 8 9 9 8 8 8 8 8 8 8 8 8 8 8 8 8 8 8 8 9 9 8 8 8 8 9 8 8 9 8 8 8 8 8 9 9 8 8 8 9 8 8 9 9 8 9 9 8 8 9 8 9 9 9 9 8 9 9 9 8 8 9 9 8 8 8 9 8 9 9 9 8 8 9 8 9 8 8 9 9 8 8 8 8 8 9 9 9 9 9 8 9 9 9 8 9 8 8 8 8 8 8 9 8 8 8 9 9 8 9 8 8 8 8 8 8 8 8 8 8 8 8 8 8 8 8 8 8 8 9 8 8 8 8 7 8 8 8 7 8 8 8 7 8 8 8 8 8 7 8 7 8 8 8 8 8 8 8 8 8 8 7 7 7 7 7 7 7 7 8 7 7 7 7 7 8 7 8 7 8 7 7 7 7 7 7 7 7 7 7 8 7 7 7 7 7 6 7 7 7 7 7 7 7 7 7 7 7 7 7 7 7 7 6 6 7 6 7 7 7 7 7 7 7 7 6 7 6 6 7 6 6 7 7 7 7 6 6 7 6 6 7 6 6 6 7 7 6 7 7 7 7 7 6 6 6 6 6 7 6 6 6 6 6 7 6 6 6 6 6 6 6 6 6 6 6 6 6 7 6 6 6 6 5 6 6 6 6 6 6 6 6 6 6 6 6 6 7 6 5 0 
6 6 5 6 5 5 5 6 6 6 5 6 6 5 5 6 5 6 5 6 6 6 5 6 6 6 6 5 5 5 5 5 5 6 6 6 5 6 6 6 6 6 6 6 6 6 6 6 6 6 6 6 6 6 6 6 6 6 6 5 6 5 6 6 6 6 6 6 6 5 6 6 6 6 5 6 6 6 6 6 6 6 6 6 6 6 6 6 6 6 7 6 6 6 6 6 6 6 6 6 6 7 6 6 6 6 6 6 6 6 6 6 6 6 6 6 6 6 6 6 6 6 7 6 6 7 7 6 6 6 6 6 6 6 6 7 7 6 6 6 7 6 6 7 7 6 6 7 7 6 7 7 7 6 7 7 6 6 6 7 6 6 6 7 6 7 7 7 7 7 7 7 6 7 7 7 7 7 7 7 7 7 7 7 7 7 6 7 6 7 7 7 7 7 7 6 7 7 7 7 7 7 7 7 7 8 7 8 8 8 7 7 7 8 7 8 8 7 7 7 8 7 7 7 7 8 7 8 8 8 7 7 7 7 7 8 7 7 8 8 7 7 8 8 8 7 8 8 8 7 8 8 7 8 7 8 8 8 8 8 7 8 8 7 8 8 7 8 8 8 8 8 8 8 8 8 8 8 8 8 8 8 9 8 8 8 8 8 8 8 8 8 8 8 8 8 8 8 8 8 8 8 7 8 8 8 8 8 9 8 8 8 8 8 8 8 9 8 8 8 9 8 8 8 9 8 8 8 8 9 9 8 8 9 8 9 8 9 9 8 8 8 8 8 8 8 8 8 8 8 9 9 9 9 8 8 8 7 9 8 8 8 8 8 8 8 9 8 8 8 9 8 9 8 8 9 8 9 8 9 9 8 8 8 8 9 9 8 8 8 8 8 8 8 7 8 8 8 8 8 9 8 8 9 8 8 9 8 8 8 8 8 8 8 8 8 8 8 8 9 8 8 9 8 8 8 8 8 7 8 8 8 8 8 8 8 7 7 8 8 8 8 7 8 8 7 7 8 8 8 7 7 7 8 8 8 8 7 8 8 7 7 8 7 8 7 7 8 7 7 7 7 8 8 8 7 7 8 7 7 7 7 7 8 7 7 8 7 8 7 7 7 7 7 7 6 7 7 7 7 7 8 7 7 7 7 7 7 7 6 7 6 7 7 7 7 6 6 7 7 7 6 7 6 7 7 6 7 7 6 7 6 7 6 7 6 6 6 7 6 6 6 6 6 6 7 6 7 6 6 6 6 6 7 6 6 6 7 6 6 6 6 7 6 6 6 6 6 6 7 6 6 6 6 6 6 6 6 6 6 6 6 6 6 6 6 6 6 6 6 6 6 6 6 6 6 6 6 6 0 
5 5 6 6 5 5 6 6 5 6 5 5 5 6 5 5 5 6 5 6 6 5 6 5 6 6 6 6 6 6 5 6 6 6 5 6 6 6 5 6 5 5 5 6 6 5 6 5 5 6 6 6 6 6 6 5 6 6 6 6 5 6 6 6 6 6 6 6 5 6 6 6 6 6 6 6 5 6 6 6 6 6 6 6 6 6 6 5 6 6 7 5 6 6 6 6 6 6 6 6 6 6 6 6 6 6 6 7 7 6 6 6 6 6 6 6 6 6 7 6 6 7 6 6 6 6 6 7 6 6 6 6 6 6 6 7 6 6 7 7 6 7 7 7 7 6 7 6 7 7 6 6 6 6 6 7 7 7 7 6 7 7 7 7 7 6 7 7 7 7 7 7 6 7 7 7 7 7 7 7 7 7 7 7 7 7 7 7 7 6 7 7 7 7 7 7 7 7 7 7 7 7 7 7 7 7 7 7 8 7 7 7 7 7 7 7 7 8 7 7 7 7 7 7 8 7 8 7 7 7 7 7 7 7 7 7 7 7 7 7 7 8 7 7 7 8 7 8 8 8 7 8 7 8 8 8 8 7 8 7 8 8 7 8 7 8 7 8 8 8 8 8 8 8 8 7 8 8 8 7 8 8 8 8 8 7 8 8 8 7 9 7 7 8 8 8 9 8 8 8 8 7 8 8 8 8 8 8 8 8 8 8 8 8 8 9 9 8 8 9 8 8 8 8 9 8 9 8 8 8 8 9 8 8 8 8 8 8 8 8 8 8 9 8 9 8 9 9 8 8 8 9 8 8 8 8 8 9 8 8 9 9 8 8 9 8 8 8 9 8 8 8 9 8 8 8 9 9 8 9 8 9 8 8 8 8 8 8 8 9 9 8 8 9 8 8 8 8 9 8 8 8 8 9 9 8 8 8 8 8 9 8 8 8 8 8 8 8 8 8 8 8 8 8 8 8 8 8 8 8 8 8 8 8 8 8 8 8 7 8 8 8 8 8 7 7 8 7 7 8 8 7 8 8 7 8 8 7 8 8 8 7 8 7 7 8 7 7 7 7 8 8 7 7 7 7 7 8 7 7 7 7 7 7 7 7 8 7 7 7 7 7 7 7 7 7 7 7 8 7 7 7 7 7 8 7 7 6 7 7 7 7 7 7 7 7 6 7 7 7 6 6 6 6 7 7 7 6 6 7 6 6 6 6 6 7 7 7 6 6 8 7 6 6 7 6 6 6 6 6 6 6 7 6 6 6 6 6 7 7 6 6 7 6 6 6 7 6 6 7 6 6 7 6 6 6 6 6 6 6 7 6 6 6 6 6 6 6 6 6 6 6 6 6 6 6 6 5 5 0 
5 5 5 5 5 5 5 5 6 5 6 6 6 5 6 6 6 6 5 6 6 6 6 5 6 6 6 5 6 6 5 5 5 6 6 6 5 6 6 6 6 6 6 6 6 6 6 6 5 6 6 6 5 5 6 6 6 5 6 6 6 6 6 6 6 6 5 6 6 6 6 6 6 6 6 5 6 5 6 5 6 6 6 6 6 6 6 6 6 6 6 6 6 6 6 6 6 6 6 6 7 6 6 6 6 7 6 7 6 6 6 7 6 6 6 6 6 6 6 6 6 6 6 6 6 6 7 7 6 7 7 7 6 7 7 6 6 7 6 6 7 6 7 6 7 7 7 7 7 7 7 7 7 7 6 6 6 7 7 6 7 7 6 7 7 7 6 7 6 6 7 7 7 7 7 7 7 7 6 7 7 6 7 7 7 7 7 7 7 7 7 6 7 7 7 7 7 7 7 7 7 7 8 8 7 7 7 8 8 7 7 7 7 7 6 7 7 8 7 7 8 7 7 7 8 7 7 7 7 7 7 7 7 7 8 7 7 7 7 8 8 7 8 7 7 8 7 8 7 7 8 8 7 8 8 8 7 7 8 8 8 7 8 8 8 8 8 8 8 8 8 8 8 8 9 8 7 8 8 7 8 8 8 8 7 8 8 8 8 8 7 8 8 8 9 8 8 8 8 8 8 7 8 7 8 9 9 9 8 8 8 8 8 9 8 8 8 8 8 8 9 9 9 8 8 9 8 8 8 8 8 9 8 8 9 8 8 8 8 8 8 9 8 8 8 9 8 9 8 8 8 8 8 9 8 9 8 9 8 9 9 8 8 9 8 8 8 8 8 8 8 9 9 9 9 8 9 8 8 8 8 8 9 8 8 8 8 8 8 8 9 8 8 8 8 8 8 8 8 8 9 8 9 8 8 8 8 8 9 8 9 8 8 8 8 8 8 8 8 9 8 8 8 8 8 8 8 8 8 8 8 7 8 8 8 8 9 8 8 8 8 8 7 7 8 8 8 8 7 7 8 7 8 8 7 7 7 7 8 7 7 8 8 7 7 7 7 7 7 8 7 8 7 8 8 8 6 7 8 7 7 7 7 7 7 7 7 7 7 7 7 7 7 7 7 6 7 7 7 7 7 7 7 7 7 7 6 7 7 7 7 7 7 6 7 7 7 7 7 7 6 7 7 7 6 6 6 7 6 7 7 6 6 6 6 6 7 6 7 7 7 6 6 6 6 6 6 6 6 6 7 6 6 6 6 6 6 7 6 6 6 6 6 6 6 6 6 6 6 6 6 7 6 6 6 5 6 6 7 6 6 5 6 6 6 6 6 6 7 6 6 6 6 6 6 6 6 6 6 0 
5 6 6 6 5 6 6 5 6 6 5 6 5 6 5 5 6 5 5 6 5 6 6 5 5 5 5 6 5 5 5 6 6 6 5 5 6 5 5 5 6 6 6 5 6 6 5 5 6 5 6 6 6 6 6 5 5 5 6 6 6 6 6 6 5 6 6 6 6 6 6 6 6 6 6 7 6 6 6 6 6 6 6 6 6 6 6 6 5 6 6 6 6 6 6 6 6 6 6 6 6 6 6 6 6 6 7 6 6 6 6 7 6 6 7 6 6 6 6 6 6 6 6 7 6 7 6 6 6 6 6 6 7 6 6 6 6 7 7 7 7 6 7 6 6 7 7 7 7 6 7 6 7 7 7 6 7 6 6 7 7 7 7 7 6 7 7 7 7 6 6 7 7 7 7 7 6 7 6 6 7 7 7 6 6 7 7 7 6 7 7 7 7 7 7 7 7 7 7 7 7 7 7 7 7 7 7 7 8 7 8 7 7 8 8 7 8 8 7 7 7 7 8 7 7 7 7 7 7 8 7 7 7 7 8 8 8 7 8 8 8 7 7 7 7 8 7 7 7 7 7 8 7 8 7 8 8 8 7 8 7 7 8 8 8 7 7 7 8 7 8 7 8 8 8 8 8 8 8 8 8 8 8 8 8 8 9 8 7 8 8 8 8 8 8 8 8 8 8 8 8 8 8 8 8 8 8 8 8 8 9 8 8 8 8 9 8 7 9 9 8 9 8 8 8 8 8 9 8 8 9 8 8 8 9 8 9 8 8 8 8 8 9 8 9 9 8 8 9 9 8 9 8 8 9 8 9 8 8 8 8 8 8 8 9 8 8 8 8 8 9 8 8 9 8 8 8 8 8 8 8 8 8 8 8 8 8 9 8 9 9 8 8 8 9 8 8 8 8 8 9 8 9 8 8 8 8 8 8 9 8 8 7 8 8 8 8 8 8 8 8 9 8 8 8 8 8 9 8 9 8 8 8 8 7 7 9 7 8 8 7 8 8 8 7 8 7 7 8 8 7 7 8 8 7 8 8 7 8 7 8 8 8 7 7 8 7 7 7 7 7 7 7 8 7 7 8 7 7 7 7 7 7 7 7 7 7 8 7 7 7 8 7 7 7 6 7 8 6 7 6 7 7 7 7 7 7 7 7 7 7 7 6 7 7 6 6 7 7 6 6 6 6 7 7 6 6 6 8 7 6 6 7 6 6 6 7 6 7 7 6 6 6 6 6 6 7 6 6 7 6 6 7 6 6 7 5 7 6 6 6 6 6 7 7 6 6 7 6 6 6 6 6 6 7 6 7 6 6 6 6 6 6 6 6 6 6 6 6 6 6 6 6 6 5 6 5 6 6 0 
5 5 5 6 5 6 5 6 6 5 6 6 6 5 6 5 5 5 6 6 5 6 5 6 5 5 5 6 6 6 5 6 6 6 6 6 6 6 6 6 6 6 6 6 6 5 6 6 6 5 6 5 6 6 6 6 6 6 6 6 6 5 6 5 6 5 6 6 6 6 6 6 6 6 7 5 6 6 6 6 6 6 6 6 6 6 6 6 6 6 6 6 6 6 6 6 6 6 6 6 6 6 6 6 6 6 6 6 6 6 6 7 7 6 6 7 6 7 6 7 6 7 6 6 6 6 6 6 6 6 6 6 6 6 7 6 6 6 6 6 6 7 7 6 7 7 7 7 7 7 7 6 6 7 6 7 6 7 6 6 7 6 7 7 7 7 7 6 6 7 6 7 6 7 7 7 7 7 7 7 7 6 7 7 7 7 7 7 7 6 7 8 7 7 7 7 7 7 7 7 7 7 8 7 7 6 7 7 7 7 7 7 8 7 7 7 8 8 7 7 7 7 8 7 8 7 7 7 7 7 8 7 8 7 7 7 7 7 7 7 7 8 8 7 8 7 7 7 7 7 8 8 7 7 7 8 7 8 7 7 7 8 8 8 8 7 8 7 8 8 8 7 8 8 7 7 8 8 7 8 8 8 8 8 8 8 8 8 8 8 8 8 7 8 8 8 8 8 7 8 8 8 8 8 8 7 8 8 9 8 9 8 8 8 8 8 8 8 8 8 9 8 8 8 8 7 8 8 8 8 9 8 8 9 8 8 9 9 8 9 8 8 8 9 8 8 8 8 8 8 8 8 8 8 9 8 8 8 8 8 9 8 8 8 9 9 8 8 8 8 8 8 8 8 9 8 8 8 8 8 8 9 9 8 8 8 9 8 8 8 8 8 8 8 8 8 8 8 8 8 8 8 8 8 8 8 8 7 8 9 8 9 8 8 8 8 8 8 7 8 8 8 7 8 7 8 8 8 8 7 8 7 8 8 8 8 8 8 8 8 7 7 8 8 7 8 8 8 7 8 8 7 8 8 8 7 8 8 7 7 7 7 7 7 7 8 7 7 7 7 8 7 7 7 7 8 7 7 7 7 7 7 7 7 7 7 7 7 7 7 7 7 7 7 7 7 7 7 6 7 7 6 7 7 7 7 7 6 7 7 7 7 6 6 7 7 6 7 7 7 7 6 6 7 6 6 7 7 7 7 7 6 6 6 6 7 6 7 7 6 6 7 7 6 7 6 7 7 7 6 6 6 7 6 6 6 7 6 6 6 6 6 6 6 6 7 6 7 6 6 7 6 6 6 6 6 6 6 6 6 6 6 6 6 5 6 6 6 6 6 6 6 6 6 6 6 6 6 6 0 
6 6 6 5 5 6 6 6 5 5 6 6 5 5 6 5 5 5 5 6 6 5 5 6 6 6 5 6 5 6 6 6 6 6 5 6 6 6 5 5 5 6 6 6 5 6 6 5 6 6 6 6 5 6 6 6 6 6 6 6 6 6 6 6 6 6 6 5 6 5 6 6 6 6 6 6 6 6 5 5 6 6 6 6 6 5 6 6 6 6 6 5 6 6 6 6 6 7 6 6 6 6 6 6 7 6 6 6 6 6 7 6 6 6 6 6 7 5 6 6 6 5 6 6 6 6 6 6 7 6 6 7 6 6 6 6 6 6 6 6 6 6 6 7 7 6 7 6 6 7 7 7 7 6 7 6 6 7 7 7 7 7 6 7 6 6 6 7 6 7 7 6 7 7 7 7 6 6 7 6 7 7 7 7 7 7 7 7 7 7 7 7 7 7 7 7 7 7 7 6 7 7 7 7 7 8 7 7 6 7 7 7 7 7 7 7 7 7 7 8 7 7 7 7 7 7 7 7 7 7 7 7 8 8 7 7 7 7 7 8 8 7 7 8 8 7 7 8 7 8 7 7 7 7 8 7 8 8 8 7 8 8 8 8 8 8 8 8 7 8 8 8 8 8 8 8 8 7 8 8 8 8 7 8 8 9 8 8 8 8 8 8 8 8 8 8 8 8 8 8 8 8 8 8 8 7 8 8 8 8 7 8 9 8 8 8 8 8 8 8 8 8 8 9 8 8 8 8 8 8 8 8 8 8 8 8 8 8 8 9 9 8 9 9 8 8 8 8 8 7 8 8 8 8 8 9 8 8 8 8 9 8 8 8 8 8 9 8 8 9 8 8 8 8 8 8 8 8 9 8 8 9 8 8 8 8 7 8 8 8 8 8 8 8 8 8 8 9 7 8 9 8 8 8 8 9 8 8 8 8 8 8 8 8 8 8 8 9 8 8 8 8 8 8 8 8 8 8 7 8 7 8 8 8 8 7 8 8 8 8 9 8 7 7 8 7 8 7 7 7 8 8 8 7 7 8 7 8 7 7 7 8 7 7 8 7 7 7 7 8 7 7 7 7 7 7 7 7 7 8 7 6 6 7 7 7 7 7 7 8 7 7 7 7 7 7 7 7 7 7 7 7 7 6 7 7 7 7 6 7 7 6 7 6 7 7 6 6 6 7 6 7 7 6 6 7 7 6 7 6 7 7 6 6 7 6 6 6 7 6 7 6 6 7 6 6 7 6 5 6 6 6 7 6 6 6 6 7 6 6 6 6 7 6 7 6 7 6 6 6 6 5 6 6 6 6 6 6 6 6 6 6 6 6 6 6 7 6 6 5 6 6 6 5 6 6 6 6 6 0 
6 6 5 5 5 6 6 6 5 6 5 6 5 5 5 5 6 5 5 5 6 5 6 5 5 5 5 5 5 6 6 6 5 6 6 6 6 6 5 6 6 6 5 6 6 6 6 6 6 5 5 5 6 6 6 6 6 6 6 6 6 6 6 5 6 6 5 6 6 6 6 6 6 6 5 6 6 6 6 6 6 6 6 6 5 6 5 5 6 6 6 6 6 6 6 6 6 6 6 6 6 6 6 6 7 6 6 6 6 6 6 6 6 6 6 6 6 6 6 7 6 6 6 6 7 6 6 6 6 6 5 6 7 7 6 6 6 6 6 6 6 6 6 6 7 6 6 7 6 7 7 7 6 6 7 7 6 7 7 7 6 7 7 6 7 6 7 7 6 7 6 7 6 7 7 6 6 7 7 7 7 7 7 7 7 7 7 7 7 7 7 7 7 7 8 7 7 7 7 6 7 7 7 7 7 7 7 7 6 7 7 7 7 7 6 7 7 7 7 7 7 7 8 7 7 7 7 7 8 7 7 8 7 7 7 8 7 7 7 7 8 7 7 7 7 8 8 8 8 7 7 8 8 7 8 8 8 8 8 8 7 8 7 7 8 8 8 8 7 8 8 8 8 8 8 7 8 7 8 8 7 8 8 7 8 8 8 8 7 8 9 8 8 8 8 8 8 8 8 8 8 7 8 9 8 8 8 8 8 8 8 8 8 8 8 8 8 8 8 7 8 8 8 8 8 9 8 8 7 9 8 8 8 8 9 8 8 8 9 8 9 8 8 8 7 8 8 8 8 8 8 9 8 8 8 8 9 9 8 8 8 8 7 8 8 8 8 8 8 8 8 8 9 9 8 8 8 8 8 8 8 8 7 8 8 8 9 8 8 8 8 8 8 8 8 7 8 8 8 8 8 8 8 8 8 8 8 8 8 8 8 8 8 7 9 7 8 8 8 8 8 8 8 8 8 8 8 8 7 8 8 8 7 8 8 7 8 7 8 7 7 8 8 7 8 8 7 8 7 8 8 7 7 7 7 7 7 7 7 7 7 7 7 7 8 7 7 8 7 7 8 7 7 7 7 7 7 7 7 8 7 7 7 7 7 7 7 7 8 7 7 7 6 7 7 6 7 7 7 7 6 6 6 7 7 7 7 7 7 7 6 7 7 7 7 6 6 7 6 7 6 7 7 7 7 7 7 6 6 6 6 7 6 6 7 7 7 6 7 6 6 6 6 6 6 6 7 6 6 6 6 7 6 6 7 7 6 6 6 6 6 7 6 6 6 7 6 6 6 6 7 6 6 6 6 6 6 6 6 6 6 6 6 6 6 6 6 6 6 6 6 6 6 6 6 6 6 6 6 0 
5 6 6 6 6 5 6 5 5 6 5 6 6 6 6 6 6 6 6 5 6 5 5 5 5 6 5 6 5 5 5 6 5 6 6 6 6 5 5 6 5 5 6 6 6 6 6 6 6 5 5 6 6 6 6 6 5 6 6 6 6 6 6 6 6 6 6 5 6 6 6 6 5 6 6 6 6 6 6 6 6 6 6 6 6 6 6 6 5 6 6 6 6 7 6 6 6 6 6 6 6 6 6 7 6 6 6 6 6 6 7 6 7 6 6 6 6 6 6 6 7 6 6 7 7 6 7 6 6 6 6 7 6 7 6 7 6 6 7 6 6 6 6 6 6 7 7 6 7 7 7 7 7 6 7 6 6 6 6 6 7 6 7 7 6 7 7 7 7 6 6 7 7 7 7 7 6 7 7 7 7 7 6 7 7 7 6 7 7 7 8 7 7 7 7 7 7 7 7 7 7 7 7 7 7 7 7 7 6 6 7 7 7 7 7 7 7 7 7 7 7 6 7 7 7 8 7 8 7 7 7 8 7 7 7 7 7 8 7 7 7 8 7 7 7 7 8 7 7 7 7 8 7 7 8 7 7 8 7 7 8 8 7 7 8 8 8 8 7 8 7 8 7 7 8 7 8 7 8 8 8 8 7 7 8 8 8 8 7 8 7 8 8 8 8 8 8 8 8 8 8 9 8 8 8 8 9 8 8 8 8 8 7 8 7 8 8 8 8 8 8 8 8 8 8 8 8 8 8 9 8 8 8 7 8 8 9 8 7 8 8 8 8 9 8 8 8 8 8 7 8 8 8 8 8 8 8 9 8 8 9 8 8 8 8 8 8 9 8 9 8 8 8 8 8 8 8 8 8 9 8 8 8 8 8 9 8 8 8 8 8 9 8 8 8 8 8 8 8 8 8 8 8 8 8 8 8 8 7 8 8 8 8 7 8 8 8 8 9 8 8 8 8 8 8 8 8 8 8 8 8 8 8 8 8 8 8 7 7 7 7 7 7 8 7 7 8 7 8 7 7 7 8 7 7 9 7 8 8 7 7 8 7 7 7 7 7 8 7 7 7 7 7 7 7 7 7 7 7 7 7 7 7 7 7 7 7 7 8 8 7 7 7 7 7 7 7 7 7 7 7 7 7 7 7 7 6 7 7 7 7 6 7 7 7 7 6 7 7 7 6 7 6 6 6 6 6 6 6 6 6 6 7 6 7 7 6 6 7 7 7 6 7 7 7 7 6 6 6 6 7 7 6 6 6 6 6 6 6 6 6 6 6 6 6 6 6 6 6 6 6 6 6 6 6 6 5 6 6 6 6 6 6 6 6 6 6 6 7 6 7 6 6 6 5 6 6 6 6 0 
5 5 5 5 6 6 5 5 5 5 5 6 5 6 6 5 5 5 6 5 6 5 5 5 6 6 6 6 6 5 6 6 5 5 6 6 5 6 6 5 6 6 6 6 5 5 6 6 6 5 6 6 5 6 6 6 6 6 5 6 6 6 6 5 6 6 5 6 6 6 6 6 6 6 6 6 6 6 6 6 6 6 5 6 6 6 6 6 6 6 6 6 6 6 6 6 6 6 6 6 6 6 6 6 6 6 6 6 6 6 6 6 6 6 6 6 7 6 6 6 6 6 6 6 6 6 6 6 6 6 6 6 6 6 6 6 6 6 6 6 6 6 6 7 6 6 7 7 6 7 7 6 7 7 7 6 6 6 6 6 7 6 7 7 7 6 6 6 7 7 7 7 7 7 6 6 7 6 6 7 6 7 7 7 7 7 7 6 7 7 7 7 7 7 7 7 7 7 7 6 7 6 7 7 7 7 7 6 7 7 8 7 6 8 7 7 7 7 7 8 7 7 8 7 7 7 7 8 7 7 7 7 7 7 7 7 7 7 8 7 8 8 7 7 8 7 8 8 8 7 7 7 7 7 7 7 7 7 7 8 7 7 8 7 7 7 8 7 8 7 7 8 8 8 7 8 7 7 8 7 7 7 8 8 8 8 8 8 7 7 8 8 8 8 8 8 8 8 8 8 8 7 8 8 8 8 9 8 8 8 8 7 8 8 7 8 8 9 8 8 8 8 8 8 8 8 8 8 8 8 8 8 7 8 8 8 8 8 9 8 8 8 8 8 8 8 8 8 8 8 8 8 8 8 8 8 7 8 8 8 8 8 8 9 9 8 8 8 8 8 8 8 8 8 8 7 8 8 9 8 8 7 7 8 8 8 8 8 8 8 8 8 8 8 8 8 8 9 8 8 8 8 7 8 8 8 8 8 7 8 8 8 8 8 9 8 8 8 8 7 7 8 7 7 8 8 8 7 7 8 8 8 7 7 7 8 7 7 8 8 8 8 8 8 7 7 7 8 7 8 7 8 7 7 8 8 7 7 8 8 8 7 8 8 7 7 7 8 7 7 8 7 7 7 7 7 7 7 6 8 7 7 7 7 7 8 7 7 7 7 7 7 6 7 7 7 7 7 7 7 6 7 6 7 7 7 7 6 7 7 6 7 7 7 6 6 7 7 7 7 6 7 7 6 7 7 6 7 7 6 7 6 6 7 6 7 6 6 7 7 6 7 7 7 6 6 6 6 6 6 6 6 6 7 6 6 6 6 6 6 6 6 6 6 6 6 6 6 6 6 6 6 6 6 6 6 6 6 6 6 6 6 6 5 6 6 6 6 6 6 6 6 6 5 6 6 6 6 6 0 
5 5 6 5 5 6 6 5 6 5 5 6 5 6 5 5 5 6 6 5 6 5 5 5 6 6 5 6 6 5 5 5 5 5 5 6 5 6 5 5 5 6 5 5 6 6 5 5 6 6 6 6 6 6 6 6 6 5 6 6 5 5 6 6 5 6 6 5 5 6 6 5 6 6 6 6 6 5 6 6 6 6 6 6 6 6 6 6 6 6 6 6 6 6 6 6 6 6 6 6 6 6 6 6 6 6 6 6 6 6 6 6 6 6 6 6 6 6 6 6 6 6 6 6 6 7 6 7 7 6 6 6 6 6 6 6 6 6 6 7 7 6 6 6 6 7 7 6 6 7 6 6 6 7 7 7 7 7 6 7 7 7 6 6 6 7 7 7 7 7 7 6 5 7 6 7 7 6 7 7 6 7 7 7 7 6 7 6 7 7 7 6 7 7 7 7 7 7 6 7 7 7 7 7 7 7 7 7 7 7 7 7 8 6 7 7 7 7 7 7 7 7 7 7 7 7 7 7 7 8 7 7 7 7 7 8 7 7 8 7 7 8 7 7 8 7 7 8 8 8 8 7 7 7 7 8 7 8 7 8 7 7 8 8 8 7 7 8 8 8 7 7 8 8 8 8 7 8 8 8 8 8 7 8 8 8 8 8 8 7 8 8 8 8 7 8 7 8 8 8 8 8 8 8 7 7 8 8 8 8 8 8 8 8 9 8 8 8 8 8 8 8 8 8 8 8 8 8 8 8 8 8 8 8 8 9 8 8 7 8 8 8 8 8 8 8 8 8 8 8 8 8 8 8 8 8 8 9 8 8 8 8 8 8 8 8 8 9 8 8 8 7 8 9 8 8 8 8 8 8 8 8 8 8 8 9 7 8 7 8 8 8 8 8 8 8 7 7 8 8 8 8 8 8 8 7 8 8 8 7 8 8 8 8 8 8 8 8 8 7 8 7 8 8 7 8 7 8 8 8 7 8 7 8 8 8 7 7 8 7 8 8 8 7 8 8 7 8 7 8 7 7 7 8 7 7 7 7 7 8 7 7 7 7 7 7 7 8 8 7 7 7 8 7 7 7 7 7 7 7 6 7 7 7 7 7 7 6 7 7 7 7 6 7 7 7 6 7 7 7 7 7 7 6 7 7 7 7 7 7 7 6 7 7 6 7 6 7 7 7 6 7 6 7 6 6 7 6 7 6 7 6 6 6 6 6 6 7 7 6 6 7 6 6 6 7 7 6 6 6 6 6 7 7 6 6 6 6 6 7 6 6 6 6 6 6 6 6 6 7 6 6 6 6 6 6 6 5 6 6 7 6 6 6 6 6 6 6 6 6 6 6 5 6 6 6 6 6 6 0 
5 5 6 6 6 6 6 5 6 6 6 5 6 5 6 5 5 6 6 6 5 6 6 5 6 6 6 6 5 6 6 6 6 5 6 6 6 6 6 6 6 6 6 6 5 6 6 6 6 6 6 6 5 5 6 6 6 5 6 6 6 6 6 6 6 6 6 6 6 6 6 6 6 7 6 6 5 6 6 6 6 6 5 6 6 6 7 5 6 6 6 6 6 6 6 6 6 6 6 6 6 6 6 7 6 6 6 6 6 6 6 6 6 6 6 6 6 6 6 6 6 7 6 6 6 6 6 6 6 6 7 6 6 6 6 7 7 6 6 7 6 7 7 6 7 6 7 6 6 7 6 7 6 6 6 6 6 7 6 7 7 7 6 6 6 6 6 7 6 7 6 6 7 7 7 7 7 7 7 7 6 7 7 7 7 6 7 7 7 7 7 7 7 6 7 7 7 7 7 6 7 6 7 7 7 7 6 7 7 6 7 7 7 7 7 7 7 7 7 7 7 7 7 7 7 7 6 8 7 7 8 8 7 7 7 7 7 7 7 7 8 7 7 7 7 7 8 7 7 7 8 8 8 8 7 7 7 8 7 7 7 8 8 7 7 8 8 7 8 8 7 8 8 7 8 8 8 8 8 7 8 7 8 8 7 8 7 7 8 8 8 8 8 8 8 7 8 8 7 8 7 7 8 8 8 8 9 8 8 8 8 8 8 8 8 8 8 8 8 8 8 8 8 8 8 8 8 8 8 8 8 8 8 8 8 8 8 8 8 8 8 8 8 8 9 8 7 8 8 8 8 8 8 9 8 7 8 8 8 8 8 8 8 8 8 8 8 9 8 8 8 8 8 7 8 8 8 8 8 9 8 8 8 8 9 8 8 7 8 8 8 9 8 8 8 8 8 8 8 8 8 8 8 8 8 8 8 8 8 8 8 8 8 8 8 8 8 8 8 8 7 8 8 8 8 8 8 8 8 8 8 7 8 7 8 8 7 8 8 7 8 7 8 8 7 8 8 7 7 7 7 7 7 7 7 7 6 7 7 7 8 7 7 7 7 7 7 7 7 7 7 7 7 7 7 7 8 7 7 7 6 7 6 7 7 7 7 7 7 7 6 7 7 7 7 7 7 7 6 7 7 7 7 7 7 7 7 7 7 7 7 7 6 7 7 6 7 6 6 6 7 6 6 7 6 6 6 6 6 7 7 6 6 7 6 6 6 6 7 6 6 7 6 6 6 6 6 6 6 6 6 6 7 7 6 6 6 6 6 7 6 7 6 6 6 6 6 7 6 6 6 6 6 6 6 6 6 6 6 6 6 6 6 6 6 6 6 6 5 6 6 6 6 6 6 6 6 6 6 0 
5 6 6 5 6 6 6 6 5 5 5 5 5 6 5 6 5 6 6 6 5 6 6 6 6 6 6 5 6 5 5 5 6 6 6 5 6 6 5 6 6 6 6 5 5 5 5 6 5 6 5 6 6 5 6 6 6 6 6 6 6 6 6 6 6 6 5 5 6 5 5 6 5 6 6 6 6 6 6 6 6 6 6 6 6 6 6 6 6 6 6 6 7 6 6 7 6 6 6 6 6 6 6 6 6 6 6 6 5 7 5 6 6 6 6 7 6 6 6 6 6 6 6 6 6 6 6 6 6 6 6 7 6 6 7 6 6 7 6 6 6 7 8 6 6 6 7 7 6 7 6 6 6 7 7 6 6 7 7 7 6 7 6 6 7 7 7 7 7 7 6 6 6 7 6 7 7 7 6 7 7 6 7 7 6 7 6 7 7 7 7 7 7 7 7 6 7 7 7 6 7 7 6 7 7 7 7 7 7 7 7 7 7 7 7 7 6 7 6 7 7 7 7 7 7 7 7 7 7 7 7 7 7 7 7 7 7 7 7 8 7 7 8 8 7 8 7 7 7 7 7 7 7 7 7 8 7 7 8 7 7 7 8 7 7 7 7 8 7 8 7 7 8 8 7 8 8 8 8 7 8 7 7 8 7 7 8 8 7 8 8 8 7 7 8 8 7 7 8 8 8 8 7 7 8 8 8 8 8 7 8 8 7 8 8 7 8 8 8 8 8 8 8 7 7 8 7 7 7 8 7 8 8 8 9 8 8 8 8 7 7 9 8 8 8 7 8 8 8 8 8 8 8 8 8 8 8 8 8 8 8 8 8 8 8 8 8 9 8 8 8 8 8 8 8 8 8 9 7 8 7 8 8 8 8 7 8 8 9 8 8 7 8 8 8 8 8 8 8 8 8 7 8 7 7 8 8 8 8 8 8 8 8 8 8 7 8 7 8 9 8 8 7 7 8 7 8 8 7 8 8 7 8 7 7 7 8 7 7 7 8 8 7 8 7 7 8 8 7 7 7 8 7 7 7 7 8 7 7 7 7 7 8 7 7 7 7 7 7 7 7 8 7 7 7 7 7 7 7 7 6 7 6 8 7 7 7 7 7 7 7 7 7 6 7 7 7 7 6 7 7 7 7 6 6 7 7 7 7 7 7 7 6 6 6 7 7 6 6 7 6 7 7 6 6 6 7 6 6 7 7 6 6 7 7 6 6 7 6 6 6 7 6 6 6 6 6 6 6 6 6 6 6 6 6 6 6 6 6 6 6 6 6 6 6 6 5 6 6 6 6 6 6 6 6 6 6 6 6 6 6 6 6 6 6 6 6 6 6 6 6 6 6 6 6 5 6 6 6 0 
6 6 6 5 5 5 5 5 5 6 6 6 5 5 5 6 5 5 6 6 6 6 6 5 6 6 6 5 5 5 5 6 5 6 5 5 6 5 5 6 6 6 6 5 5 5 5 5 5 5 6 6 6 6 5 6 6 6 5 6 5 5 5 6 5 5 6 6 6 6 6 6 6 6 6 6 6 6 6 5 6 6 6 6 6 6 6 6 6 6 6 6 5 6 6 6 6 6 6 6 6 6 6 6 6 6 6 5 6 6 6 6 6 6 6 7 6 6 6 6 6 6 6 6 6 6 6 7 6 6 6 6 7 6 6 6 7 6 6 6 6 6 6 6 6 6 6 6 6 7 6 7 7 6 6 7 6 6 7 6 6 7 7 7 6 6 7 7 6 6 6 6 7 7 7 7 7 7 7 6 7 6 6 7 7 7 7 7 7 7 7 6 7 7 7 7 7 7 6 7 7 7 7 7 7 7 7 7 7 7 7 8 7 7 7 7 7 6 6 7 7 7 7 7 7 7 7 7 7 8 7 7 7 7 7 7 7 7 7 8 6 7 8 7 7 7 7 7 8 8 7 7 7 8 7 7 7 8 7 7 7 8 8 7 7 7 7 8 8 7 7 8 7 8 8 8 7 8 8 8 8 8 7 8 8 8 7 8 8 8 8 8 8 7 8 8 8 7 8 7 8 8 8 8 8 8 8 8 8 8 8 8 8 8 8 8 8 8 8 8 8 8 8 8 8 8 8 9 8 7 8 9 8 7 8 8 7 7 8 8 8 8 8 8 8 8 7 8 8 8 8 8 8 8 7 8 8 8 8 8 8 8 8 8 8 8 8 9 8 8 8 8 8 8 8 8 8 8 8 8 8 8 8 8 8 7 9 8 8 8 7 7 8 8 8 8 8 8 8 8 8 7 8 8 8 8 8 8 7 8 8 8 8 8 7 7 8 7 8 7 8 7 8 7 8 8 8 8 8 8 7 7 8 7 8 8 8 8 8 7 7 7 7 6 8 7 8 7 7 8 8 7 7 7 7 7 7 7 7 7 8 7 7 7 7 7 7 7 7 7 7 7 7 7 7 7 7 6 7 7 7 6 7 7 7 7 6 7 7 7 7 7 6 7 7 7 7 7 7 7 7 7 7 7 7 7 6 7 7 7 7 7 7 7 6 6 6 6 7 7 7 7 7 6 7 7 7 6 6 6 6 6 6 6 6 7 6 6 7 7 6 6 6 7 7 6 6 7 6 6 6 6 6 6 7 6 6 6 7 6 6 6 7 6 6 6 6 6 6 6 6 6 6 6 6 5 6 6 6 6 6 6 6 6 6 6 6 6 6 6 6 6 5 6 6 6 6 6 6 0 
6 5 5 5 5 5 6 5 5 5 5 5 5 5 6 6 6 5 5 6 5 6 5 5 6 6 6 6 6 6 5 5 6 5 5 5 5 6 5 6 6 6 6 6 6 6 6 6 6 6 6 6 5 5 6 5 6 6 5 5 6 6 6 6 6 6 6 6 6 6 5 6 6 6 5 6 6 6 6 6 6 6 6 6 6 5 6 6 6 6 6 6 5 6 6 6 6 6 6 6 6 6 6 6 6 6 6 6 6 6 6 6 6 6 6 6 6 6 6 6 6 7 6 6 6 6 6 6 6 6 6 6 6 6 6 6 7 6 6 6 6 6 6 6 6 6 6 6 7 6 7 6 6 6 7 6 6 6 6 6 6 6 6 7 6 7 6 7 7 6 6 6 6 6 7 6 7 7 7 6 7 6 6 6 6 7 7 7 8 7 7 7 6 7 6 7 6 7 7 7 6 7 7 7 7 6 7 6 7 7 7 7 7 7 7 7 7 7 7 7 8 7 7 8 7 7 7 7 7 8 6 8 7 7 7 8 7 8 8 7 7 6 7 8 7 7 7 7 7 7 7 7 7 7 7 7 7 7 8 7 7 7 7 7 7 8 8 8 7 8 8 7 8 7 7 8 8 8 7 8 8 8 8 8 8 7 7 8 7 8 8 7 7 8 7 8 8 8 8 8 7 7 8 8 8 8 8 8 8 8 8 8 8 8 8 7 7 7 8 7 8 8 8 8 8 8 8 8 8 8 8 8 8 8 8 8 7 8 8 8 8 9 7 8 8 8 8 7 8 8 8 8 8 8 8 9 8 8 8 7 8 8 8 8 8 8 8 8 8 8 8 7 8 8 8 8 8 8 8 8 8 8 9 8 7 8 7 8 9 8 7 8 7 8 8 8 8 8 8 8 8 8 7 8 7 8 7 8 7 8 7 8 8 8 8 7 7 7 8 7 7 7 7 8 7 8 8 7 8 8 7 7 8 7 7 8 7 7 7 7 7 7 7 7 8 8 7 7 7 8 8 7 7 7 7 7 8 7 7 7 7 7 8 7 8 7 8 7 7 6 7 7 7 7 7 7 7 6 7 7 7 6 7 7 8 7 7 7 7 7 7 7 7 6 7 6 7 7 7 6 7 7 6 7 7 7 7 6 6 7 7 6 7 6 7 7 6 6 7 7 7 7 6 7 7 6 7 6 7 6 6 7 7 6 7 6 6 6 6 6 6 7 6 6 6 6 6 6 6 6 7 7 6 6 6 6 6 6 6 6 6 6 6 6 6 6 6 6 6 6 6 6 6 7 6 6 6 6 6 6 6 6 6 6 6 5 6 5 6 6 6 6 6 6 6 6 6 6 6 0 
5 5 6 6 5 6 5 5 6 5 5 6 6 5 6 5 6 5 5 5 6 5 5 6 6 5 6 5 5 5 5 6 6 6 5 6 5 5 6 5 5 6 6 6 5 6 6 6 6 6 6 5 6 6 5 5 6 6 6 6 6 6 6 6 6 6 5 6 6 6 6 6 6 6 5 6 5 6 6 6 6 6 6 5 6 6 6 6 6 7 6 6 6 7 6 6 6 6 6 6 6 6 6 6 6 6 6 6 6 6 6 6 6 6 6 7 6 6 6 6 7 6 6 6 6 6 6 7 6 6 6 6 6 6 6 6 6 6 6 7 7 7 6 6 6 6 6 6 6 6 6 7 6 6 6 6 6 6 7 6 6 6 6 7 6 7 6 7 7 7 7 6 6 7 7 7 7 6 7 7 7 7 6 7 7 7 6 7 7 6 7 6 6 7 7 7 7 7 7 7 7 6 7 7 7 7 7 7 7 7 7 7 7 7 7 7 7 7 7 7 7 7 7 7 7 7 7 7 7 7 7 7 7 8 7 8 7 7 7 7 7 7 7 8 7 7 7 7 7 7 7 7 8 8 7 8 7 7 7 7 7 7 7 7 7 7 8 8 7 7 7 7 7 8 7 8 8 8 8 7 8 7 8 8 8 8 8 7 8 7 7 7 7 7 7 7 8 8 7 8 8 8 8 8 8 8 7 7 8 8 7 7 8 7 7 7 8 8 8 8 7 7 8 8 8 7 8 8 8 8 7 8 8 8 8 8 8 8 8 7 8 7 8 8 8 8 8 8 8 8 8 7 8 8 8 8 8 8 8 8 7 8 8 8 8 8 8 8 8 8 8 9 8 8 7 8 8 8 7 8 8 8 8 8 9 8 8 8 8 7 8 7 8 8 8 8 8 8 8 8 8 7 8 7 8 7 7 8 7 7 8 8 7 8 7 7 7 7 7 7 8 7 8 7 8 8 8 7 7 7 7 7 7 7 7 8 7 7 7 7 8 7 8 7 7 7 8 8 8 7 7 7 7 7 8 8 7 8 7 7 7 7 8 7 7 7 7 7 7 7 7 7 7 7 7 7 7 7 6 7 6 7 7 7 7 7 7 7 7 7 7 7 7 7 7 7 7 7 6 6 7 7 6 7 7 6 6 7 6 6 7 7 7 7 7 6 7 7 7 7 7 7 6 6 7 6 6 6 6 7 6 7 6 7 6 6 6 6 6 6 6 6 6 6 6 6 7 7 7 6 6 5 6 6 6 6 6 6 6 6 6 6 6 6 7 6 6 6 6 6 6 6 6 6 6 6 6 6 6 6 6 6 6 7 6 6 6 6 6 6 6 5 6 6 6 6 6 6 5 0 
5 6 5 5 5 5 5 5 6 5 5 6 5 5 5 5 5 6 6 5 6 5 5 6 5 6 5 6 6 5 5 5 6 6 5 6 5 6 6 5 5 5 5 6 6 6 6 6 6 5 6 6 5 6 6 5 5 6 5 6 6 6 6 6 6 5 6 6 6 7 5 6 5 6 6 6 6 6 6 6 5 6 6 6 6 6 6 6 6 6 6 6 6 6 6 6 6 6 6 6 7 6 6 6 6 7 6 6 6 6 6 6 6 6 6 6 6 6 6 6 6 6 6 6 6 6 6 6 6 6 6 7 6 6 6 7 6 6 5 6 6 6 6 7 6 6 6 6 6 7 6 6 7 6 7 6 6 6 6 6 6 6 6 6 6 7 7 6 7 6 6 7 7 6 6 7 7 6 7 7 6 6 6 6 7 7 7 7 7 7 7 7 7 6 7 7 7 7 7 7 7 7 7 7 7 7 6 7 7 7 7 7 7 7 7 7 7 7 7 7 7 6 7 7 7 7 7 7 7 7 7 7 7 7 7 7 7 7 7 7 7 7 6 7 7 7 7 7 7 8 8 7 7 7 7 8 8 8 8 7 8 7 7 7 7 7 7 8 7 8 8 8 8 8 7 8 7 7 8 7 7 8 8 7 7 7 8 8 7 7 7 8 8 8 8 8 8 8 7 7 8 8 8 8 8 7 8 8 8 8 8 8 7 8 8 8 7 8 8 8 7 7 8 8 8 7 8 8 7 8 8 8 8 8 8 8 8 8 8 8 8 7 8 8 8 8 8 8 8 7 7 8 8 8 8 8 8 7 9 8 8 8 8 8 8 7 8 8 8 8 8 8 8 8 8 8 7 8 8 8 8 8 8 8 7 8 8 7 8 7 8 7 7 8 8 7 8 7 8 8 7 7 8 8 8 8 8 8 7 8 8 7 7 8 8 7 7 8 8 7 7 7 7 8 7 8 8 7 8 7 8 7 8 7 8 8 7 8 8 7 7 8 7 8 8 7 7 7 8 7 7 8 7 8 7 7 7 8 8 7 8 7 7 7 6 7 8 7 7 7 7 7 7 7 7 8 7 7 7 7 7 7 7 7 7 7 7 7 7 7 7 7 7 7 7 7 7 7 6 6 6 7 7 7 7 7 7 7 6 6 7 6 6 6 6 6 6 6 7 6 6 6 7 6 6 7 7 7 7 6 6 6 6 7 7 6 6 7 6 6 6 6 6 7 6 6 6 6 6 6 6 7 6 6 6 6 6 6 6 7 6 7 6 6 6 6 6 6 6 5 6 6 6 6 6 6 6 6 7 6 6 6 6 6 6 6 6 6 6 5 6 6 6 6 6 6 5 6 6 0 
5 6 5 5 6 5 5 5 5 5 6 6 5 6 5 5 6 5 5 6 6 6 6 6 5 5 5 6 5 6 6 5 5 5 6 5 5 6 6 5 6 5 6 6 5 5 6 5 6 6 6 6 6 6 5 6 6 6 6 5 6 6 5 5 5 5 6 5 6 5 5 6 6 6 6 6 6 6 6 6 6 6 5 6 6 6 6 6 6 5 5 6 5 6 6 5 6 6 6 6 6 6 6 6 6 6 6 6 6 6 6 6 6 7 6 6 6 6 6 6 6 7 6 6 6 6 6 6 6 6 6 6 6 6 6 6 6 6 6 6 6 6 6 7 6 6 6 6 6 6 6 7 6 6 6 7 6 6 7 6 7 7 6 6 6 7 7 6 7 6 6 7 6 7 6 6 6 7 6 7 6 6 7 6 7 7 7 7 7 6 7 7 7 7 7 7 7 7 7 6 7 7 7 6 7 6 6 7 7 7 7 7 7 7 7 7 7 7 7 7 7 7 7 7 7 7 7 6 7 7 7 7 7 7 7 7 8 7 6 7 7 7 7 7 7 7 7 7 8 7 7 8 8 8 7 7 7 7 7 7 7 7 8 8 7 7 7 7 7 8 7 8 7 8 7 7 7 7 7 8 8 7 8 7 8 7 8 8 7 8 7 8 8 7 8 8 8 8 8 8 8 7 8 8 7 7 8 8 7 8 8 7 8 8 8 7 8 8 8 7 8 8 7 8 7 8 7 8 8 7 8 7 8 8 8 7 8 8 7 8 8 8 8 8 8 8 8 8 8 8 8 8 8 8 7 8 8 8 8 7 8 8 8 8 8 7 8 8 8 8 8 7 8 7 8 8 8 8 8 8 8 8 7 7 8 8 8 8 8 8 7 7 8 7 8 8 7 7 8 7 8 7 7 8 8 8 7 7 7 7 8 7 8 7 7 8 8 7 7 8 8 7 7 7 7 7 8 7 7 7 7 7 8 8 7 8 7 7 7 7 8 8 7 7 7 7 7 7 7 7 7 7 7 7 7 7 7 7 7 7 7 7 7 7 7 7 7 7 7 7 7 7 7 7 6 7 7 6 7 7 7 6 7 7 7 7 6 7 7 7 6 6 7 6 6 7 6 7 7 7 7 7 6 7 7 7 6 6 6 7 6 7 6 7 7 6 7 6 6 7 6 7 7 7 7 6 6 6 7 6 6 6 6 6 7 6 6 6 7 7 6 6 7 6 6 6 6 7 6 6 6 6 6 6 6 7 6 6 6 6 6 6 6 7 6 6 6 6 6 6 6 6 6 6 6 6 6 7 6 6 6 6 6 6 6 6 5 6 5 6 6 6 6 5 6 6 6 5 6 0 
5 5 5 5 5 5 6 6 6 5 5 5 5 5 5 5 5 6 5 6 5 5 5 5 5 6 5 5 5 5 6 5 6 5 6 5 6 6 5 5 6 5 6 5 6 6 5 5 5 5 6 6 5 6 6 6 6 6 6 6 6 6 6 6 6 6 5 5 5 6 5 6 6 6 6 6 6 6 6 6 6 6 6 6 6 6 6 6 6 6 6 6 6 6 6 6 6 6 5 6 6 6 6 6 7 6 6 6 6 6 6 6 6 6 6 6 6 6 6 7 6 6 6 6 6 7 6 6 7 6 6 6 6 6 7 6 7 6 7 6 6 6 6 7 6 7 6 7 7 6 6 6 6 6 6 7 6 6 7 6 7 7 7 6 6 6 7 7 6 7 6 7 6 7 6 7 7 6 6 7 6 6 7 7 7 7 7 7 8 7 7 6 7 6 7 7 7 6 7 7 7 7 7 6 7 6 6 6 7 7 7 7 7 7 7 7 7 7 7 7 8 7 7 7 7 7 7 7 7 7 7 7 7 7 8 7 6 7 7 6 7 8 8 7 7 7 7 7 7 8 7 7 8 8 7 7 7 7 7 7 7 7 8 8 7 7 8 7 7 7 8 7 8 8 7 7 7 8 8 8 8 8 7 7 7 7 7 7 7 8 7 8 7 8 7 8 7 7 7 7 7 7 8 8 8 7 7 7 8 8 8 8 8 8 8 8 7 7 7 7 8 8 8 7 8 8 7 7 8 8 8 8 8 7 7 8 8 8 7 7 8 8 8 8 8 8 8 8 7 8 8 8 8 8 7 8 8 8 8 8 8 8 8 8 8 8 8 8 8 7 8 8 8 8 8 8 8 8 8 8 8 8 8 8 8 7 8 8 7 8 8 8 8 8 8 8 8 8 7 7 8 8 7 8 8 7 8 8 8 8 7 7 8 8 8 7 7 8 8 7 8 7 8 8 7 8 7 8 7 7 6 7 8 8 7 7 7 8 8 8 8 8 7 7 7 7 7 7 7 7 7 7 7 7 7 8 8 8 7 7 7 7 8 7 7 7 7 7 7 7 7 7 7 6 7 7 8 7 7 7 6 7 7 7 6 6 7 7 7 7 6 7 7 6 7 8 6 7 6 7 7 6 6 7 6 7 7 6 7 7 7 7 7 7 6 6 7 7 7 6 6 7 6 6 6 6 7 6 7 7 7 6 6 6 7 6 7 6 6 6 6 6 6 6 6 6 6 6 6 6 7 6 6 6 7 6 6 6 6 5 6 6 6 6 6 6 6 5 6 6 6 6 6 6 6 6 6 6 6 6 6 6 6 6 5 6 6 5 6 6 6 6 6 6 6 6 6 6 6 0 
5 5 5 5 6 6 5 6 5 5 6 5 6 5 5 5 5 6 5 5 5 5 6 5 6 5 5 6 5 5 5 5 6 6 6 5 6 6 6 6 6 5 6 6 5 6 5 5 5 5 5 6 6 6 5 5 6 5 6 6 6 6 6 6 6 6 6 6 6 6 6 6 5 6 6 5 6 6 5 5 6 5 6 6 6 6 6 5 6 6 6 6 6 6 6 5 5 6 6 6 6 6 6 6 6 6 6 7 6 7 6 6 6 6 5 6 6 6 6 6 6 6 6 6 6 6 6 6 6 7 6 6 6 6 6 6 6 6 6 6 6 7 6 6 6 6 6 6 6 6 6 6 6 6 6 7 6 6 6 6 6 6 6 7 6 6 7 6 7 6 7 6 6 7 7 6 7 7 7 6 7 7 7 7 6 6 7 6 7 7 6 7 7 6 7 7 7 7 6 6 7 7 7 7 7 7 7 7 6 7 7 7 7 7 7 7 7 6 7 7 6 7 7 7 7 6 7 7 7 7 7 8 7 7 7 7 7 7 7 7 7 8 7 7 8 6 7 7 7 8 8 7 7 8 7 7 7 7 7 7 7 8 8 7 8 7 7 7 7 8 7 7 7 7 8 7 8 7 8 7 7 8 8 7 8 7 7 8 7 7 8 7 7 7 7 8 8 8 8 8 7 8 7 8 8 8 8 7 8 7 8 8 8 8 8 8 7 7 8 8 8 7 8 7 7 8 8 7 8 8 8 8 8 8 8 7 7 8 7 8 8 8 7 8 7 8 7 8 8 8 7 8 8 8 8 7 8 8 8 8 8 8 8 8 8 8 8 8 8 8 8 7 7 7 8 8 8 8 8 8 8 7 8 8 7 7 7 7 8 7 8 8 7 8 8 7 8 7 8 8 8 7 8 8 7 8 8 8 7 8 8 8 8 8 8 8 7 8 7 7 8 7 7 8 8 6 8 8 8 8 7 7 8 7 7 7 7 7 7 7 7 7 7 7 8 7 7 7 7 7 7 7 7 8 7 7 8 7 6 7 7 8 7 8 6 7 7 7 7 7 7 7 7 7 7 7 6 7 7 7 7 7 7 7 7 6 7 7 7 7 7 7 7 7 7 7 6 7 7 7 7 6 7 7 7 6 7 7 7 6 6 6 7 7 7 7 7 7 6 7 7 7 7 6 7 6 6 6 7 6 6 7 6 6 6 6 7 6 6 6 5 6 6 6 6 6 6 7 6 6 6 6 6 6 6 6 7 6 7 6 6 7 5 6 6 6 6 6 6 6 6 6 6 6 6 6 6 6 6 6 6 6 6 5 6 6 5 6 5 6 6 5 6 6 6 6 6 6 6 0 
5 5 5 5 6 6 5 5 5 6 6 5 6 5 5 5 5 6 5 6 6 5 6 5 5 5 6 5 6 5 6 6 6 6 6 5 6 5 6 5 5 6 5 6 6 6 6 6 5 6 5 5 6 6 5 5 6 5 6 6 6 6 6 6 6 6 6 6 6 5 6 6 6 6 6 6 6 6 6 6 5 6 6 6 6 6 6 6 6 6 6 6 7 6 6 6 6 5 6 6 5 6 6 6 6 6 6 7 6 6 7 6 5 6 6 6 5 6 6 7 7 6 6 6 6 6 6 6 6 6 6 6 6 6 6 6 6 6 7 6 6 7 6 7 6 6 6 6 6 6 6 6 7 6 7 7 7 6 6 6 6 7 6 6 7 7 7 6 6 6 7 6 6 6 6 6 6 7 7 7 7 7 6 7 6 6 6 6 6 6 7 7 7 7 7 7 7 7 6 7 6 6 7 7 7 6 7 7 7 7 7 7 7 7 7 7 7 7 7 6 6 7 7 7 7 7 6 7 7 7 7 8 7 7 7 8 7 7 7 7 6 7 7 7 8 7 7 7 7 7 7 7 7 8 7 7 7 7 8 7 7 7 7 7 7 7 7 7 8 7 7 8 7 7 7 8 8 7 7 7 8 7 8 7 7 7 7 8 7 7 8 7 8 7 7 8 7 8 7 7 7 7 8 8 8 8 8 8 8 8 8 7 7 8 7 8 7 8 8 8 8 8 8 7 8 7 7 8 8 8 8 7 8 8 8 8 7 8 7 7 8 7 8 8 8 8 7 8 7 8 7 7 8 7 7 7 8 8 7 8 8 8 8 7 8 7 8 8 7 8 8 8 8 8 8 8 8 7 7 8 8 8 9 8 8 7 8 7 8 7 8 8 7 7 8 8 8 8 7 8 8 8 7 7 7 8 8 8 7 7 7 7 8 8 8 8 8 7 7 8 8 8 8 7 8 7 8 7 8 7 7 8 8 8 7 7 8 7 7 7 7 7 7 8 7 8 7 8 8 7 7 7 7 7 7 7 7 7 7 7 7 7 7 7 7 7 7 7 7 7 7 7 7 7 7 7 7 7 6 7 6 7 7 7 6 7 7 8 6 7 7 7 7 7 6 7 7 7 6 7 7 7 6 6 7 7 7 7 6 6 7 6 6 6 7 6 6 7 6 6 7 7 6 7 6 6 6 7 6 6 6 6 6 6 6 7 7 7 6 6 6 7 6 6 6 6 6 5 6 7 6 6 6 6 6 6 6 6 7 6 6 5 6 6 6 5 6 5 6 6 6 6 6 6 6 6 6 5 6 6 6 6 5 6 5 6 5 6 6 6 5 6 6 6 5 6 6 6 6 0 
5 5 5 6 6 6 5 5 5 6 5 5 5 6 6 5 5 5 5 5 5 5 5 5 5 5 6 6 5 5 5 6 5 5 5 6 5 6 6 5 5 6 6 5 6 5 6 5 6 6 6 5 6 6 6 6 6 6 6 5 6 6 6 6 5 6 6 6 6 6 6 6 6 5 6 6 6 6 6 5 5 6 6 7 6 6 6 6 6 6 6 6 6 6 6 6 6 6 6 6 6 6 5 6 6 6 6 6 5 6 6 6 7 6 6 6 6 6 6 6 6 6 6 6 6 6 6 6 7 6 6 6 6 7 6 6 6 7 7 6 7 6 6 7 6 6 7 7 7 6 6 6 6 6 6 7 6 7 6 6 6 6 6 6 6 6 7 6 6 7 7 6 6 7 6 6 7 6 6 6 6 7 7 7 6 7 7 7 6 7 6 7 6 7 7 7 6 7 7 7 7 6 7 7 7 6 6 7 6 7 7 7 7 7 7 7 7 7 8 7 7 7 7 7 6 6 7 7 6 8 7 7 7 7 7 7 7 7 7 7 7 8 7 7 7 8 7 7 7 7 7 7 7 7 7 7 7 7 7 7 7 8 7 7 7 7 8 8 7 7 7 8 7 7 7 7 7 7 7 8 7 7 7 8 8 8 8 8 8 7 7 7 7 7 7 7 7 8 8 8 8 8 8 7 7 7 8 8 7 7 7 8 7 7 8 7 7 7 7 7 7 8 7 8 7 8 7 7 7 8 8 8 8 7 8 8 8 8 8 8 7 8 8 8 8 7 8 8 7 8 8 8 7 8 8 8 8 7 7 8 8 8 8 8 8 8 7 8 7 7 7 8 8 8 8 8 7 7 8 7 8 7 8 7 8 8 8 8 7 7 8 8 7 7 8 8 8 8 8 7 7 7 8 8 7 8 8 7 8 8 7 7 7 8 8 7 7 8 7 7 8 7 8 8 8 8 7 8 7 7 8 7 7 7 7 7 8 7 7 7 7 7 7 7 7 7 7 7 7 6 7 7 8 8 7 7 7 7 7 7 7 7 7 7 7 7 7 7 7 7 7 7 7 7 7 6 6 6 7 7 6 6 7 7 7 7 7 7 7 7 7 6 6 7 7 6 6 7 7 6 6 7 6 7 6 7 7 6 7 6 7 7 6 7 7 6 7 7 7 6 7 7 6 6 6 6 6 6 6 7 6 6 6 6 6 5 6 6 7 6 6 6 6 7 6 6 6 6 6 6 6 7 6 6 6 6 6 6 6 6 6 6 6 6 6 6 6 6 6 6 6 6 6 6 6 6 6 7 6 6 6 6 6 6 6 6 6 6 6 6 6 7 6 6 6 6 6 6 5 0 
5 6 5 5 6 5 5 5 5 5 5 6 6 5 5 6 6 5 5 5 5 5 6 5 6 6 5 6 5 6 6 5 5 5 5 5 6 6 5 5 6 6 6 6 6 6 7 5 5 6 5 6 5 6 6 6 5 5 6 6 6 6 6 6 5 5 5 6 5 6 6 6 5 6 6 6 6 6 6 6 6 6 7 6 7 6 6 6 6 5 6 6 6 6 6 6 6 6 6 6 6 6 6 5 6 6 6 6 6 6 5 5 5 6 6 6 6 6 6 6 6 6 6 6 6 6 6 6 6 6 6 6 7 6 6 6 6 6 6 6 6 6 6 6 6 6 6 6 6 6 7 6 6 6 6 6 6 6 6 6 6 6 6 6 6 7 6 7 6 6 6 6 6 6 7 6 7 6 6 7 6 7 7 7 7 7 7 7 7 6 6 7 7 7 7 6 6 6 7 6 7 6 7 7 7 7 7 7 6 7 7 7 7 7 7 7 7 7 7 7 7 7 7 6 6 7 7 7 7 7 7 7 7 7 7 7 7 7 7 6 7 7 7 7 7 8 7 7 7 8 7 7 7 7 7 7 7 7 7 7 7 7 7 7 7 7 8 7 7 8 8 7 7 7 7 7 7 7 7 7 7 7 7 8 7 8 7 7 7 8 7 8 7 8 7 7 7 7 8 7 8 8 8 7 7 8 7 8 7 8 8 7 8 8 8 8 7 8 8 7 7 7 7 8 8 8 8 8 8 7 8 7 7 8 8 8 8 7 7 7 8 8 7 8 8 8 7 8 8 8 8 8 7 8 8 8 8 8 8 8 8 7 8 8 8 8 8 7 7 8 7 8 8 7 8 8 8 8 8 7 8 8 7 7 8 8 7 8 8 8 7 8 8 8 7 8 7 7 7 7 8 7 7 8 8 7 8 7 8 7 8 7 8 8 7 7 8 8 7 7 7 8 7 7 8 7 7 7 7 7 8 7 7 7 7 7 7 7 8 7 7 8 7 7 7 7 7 7 8 7 7 7 7 8 8 7 7 8 7 7 7 7 7 7 7 7 7 7 6 7 7 7 7 7 7 7 7 7 7 7 6 6 7 7 7 7 6 7 7 7 7 7 6 6 7 6 6 7 7 6 6 7 7 7 6 6 7 7 6 7 6 6 6 6 6 6 7 6 7 6 6 7 7 6 6 7 6 6 7 7 6 7 6 6 7 6 6 6 6 7 6 6 7 7 6 6 6 6 6 6 5 6 6 6 6 7 6 7 6 6 6 6 6 6 6 6 6 6 6 6 6 6 6 6 6 7 6 6 6 6 6 6 6 5 6 6 6 6 6 6 6 5 6 6 6 5 6 6 6 0 
5 6 5 6 5 6 5 5 5 5 6 6 6 5 6 5 5 5 5 5 5 6 6 5 5 6 5 6 5 6 5 6 6 5 5 5 6 6 5 6 6 5 6 6 6 6 6 6 5 5 6 6 5 6 5 6 5 5 6 5 5 6 6 6 6 5 6 6 6 6 6 6 6 6 6 6 6 6 5 6 6 6 6 6 5 6 6 6 6 5 6 6 6 6 6 6 6 6 5 6 6 6 6 6 6 6 6 6 6 6 6 6 6 6 6 6 6 6 6 6 6 6 6 6 6 6 6 7 6 6 7 6 6 6 6 6 6 6 6 6 6 6 7 6 6 6 6 6 6 6 6 7 6 6 6 6 6 6 6 6 7 7 7 6 6 6 6 6 7 6 6 6 7 6 7 7 6 7 7 7 7 6 7 6 7 7 7 6 6 6 7 7 7 7 7 7 7 7 7 6 6 6 6 7 6 6 7 7 7 7 7 6 7 7 7 7 7 7 6 7 7 7 7 7 7 8 6 7 7 7 6 7 7 7 7 7 7 7 7 7 7 8 7 8 7 7 7 6 7 7 7 7 7 7 7 7 7 7 7 7 7 8 7 7 7 7 7 8 7 7 7 7 7 7 7 7 7 7 7 8 7 7 7 8 7 7 7 7 7 8 7 8 7 7 8 7 8 7 8 7 7 7 8 7 7 8 8 7 8 7 8 7 7 8 7 8 8 7 7 7 7 8 7 7 7 7 8 8 8 7 7 7 7 7 7 8 8 7 7 8 8 7 8 7 8 8 8 8 8 8 8 8 7 7 8 7 7 8 8 8 7 8 8 8 8 8 8 7 8 8 7 7 8 8 7 7 7 8 8 8 8 8 8 7 8 8 8 7 8 7 8 8 8 8 7 7 7 8 7 8 7 8 7 8 8 7 8 7 7 8 8 7 7 8 7 7 7 8 8 8 7 7 7 7 7 7 7 7 7 7 7 8 7 7 7 7 7 7 7 7 7 7 8 7 7 7 7 8 8 7 7 7 7 7 7 7 7 7 7 7 7 7 7 7 7 7 7 7 7 7 7 7 7 7 7 7 7 6 7 6 7 7 7 7 6 6 7 6 7 6 7 6 6 6 7 7 7 6 6 6 6 7 6 7 6 7 6 6 7 7 6 7 7 7 7 6 6 6 7 6 7 7 6 6 7 6 6 6 6 6 6 6 6 6 6 6 6 6 6 7 6 6 6 7 6 6 6 6 6 6 6 6 6 6 6 6 6 6 6 6 7 6 6 6 6 6 6 6 6 6 6 5 6 6 6 6 6 6 6 6 6 6 6 6 6 5 6 6 6 6 5 6 6 6 5 6 6 6 6 0 
5 5 5 6 5 6 5 5 5 5 5 6 5 6 6 6 5 6 6 5 5 6 5 5 5 6 6 6 6 6 5 6 5 6 6 6 5 5 6 5 5 6 5 6 5 6 6 6 6 6 6 6 6 6 6 6 6 6 6 6 6 5 5 6 6 6 6 6 6 6 6 5 6 6 6 6 6 6 5 6 6 6 6 6 6 7 6 6 6 6 5 6 6 5 5 5 5 6 6 6 6 6 6 6 6 6 6 6 7 6 6 6 6 6 6 6 6 6 7 6 6 6 7 6 6 6 7 6 6 6 6 6 6 6 7 5 7 6 6 6 7 6 6 6 6 7 6 6 6 6 6 6 7 6 7 6 6 7 7 6 6 6 6 7 6 6 7 6 6 7 6 6 6 7 6 7 7 7 7 7 7 6 7 6 7 7 7 6 6 7 6 7 6 6 7 7 6 7 7 6 6 6 6 7 7 7 7 7 7 7 7 7 6 7 7 7 7 7 6 6 7 7 7 7 7 7 7 7 7 7 7 7 7 6 7 7 7 7 7 7 6 7 7 7 7 7 7 7 7 8 7 8 7 7 8 8 8 7 7 7 7 7 7 7 7 7 7 7 7 7 7 7 7 7 8 7 7 7 7 8 7 8 8 8 8 7 8 7 8 7 7 7 7 7 7 8 7 8 8 7 7 7 8 8 7 7 7 7 8 7 7 7 8 8 8 8 7 7 8 8 8 8 7 8 7 7 7 7 8 8 7 8 8 8 7 7 8 8 7 7 7 7 7 8 8 7 8 8 8 8 8 7 8 7 8 7 7 8 7 8 8 8 8 8 7 7 7 8 7 8 7 8 8 7 8 8 8 7 7 7 7 7 8 7 7 8 8 7 7 7 7 8 8 8 7 8 8 8 8 8 8 8 8 7 8 7 7 8 7 7 8 8 7 7 7 7 7 7 8 7 7 8 7 6 7 7 7 8 7 7 7 7 8 7 7 7 7 7 7 6 7 7 7 7 7 7 7 7 7 8 7 7 7 7 7 7 6 7 7 7 7 7 7 7 6 8 6 7 7 7 7 6 6 7 7 6 8 7 6 6 7 7 7 6 6 7 7 6 7 7 7 7 7 6 6 6 6 6 6 7 7 7 7 6 7 7 7 6 6 7 7 6 7 7 6 6 7 6 6 6 7 7 7 6 6 6 6 6 6 7 7 6 7 6 6 6 7 6 6 6 6 7 6 6 6 6 6 6 6 6 6 6 6 6 6 6 6 6 6 6 6 6 6 6 6 6 6 6 6 7 6 6 6 6 6 6 6 6 6 6 6 5 6 6 6 6 6 5 6 6 6 6 6 6 5 6 6 6 6 0 
5 5 5 6 5 5 6 5 5 5 5 5 6 5 5 6 6 6 5 6 5 6 6 6 5 5 5 5 5 6 5 5 5 5 5 6 6 6 6 5 6 6 6 5 6 6 6 6 6 6 5 6 5 6 6 5 6 5 6 6 6 5 6 6 6 6 6 6 6 6 6 5 6 6 6 5 6 6 6 6 6 5 6 6 6 6 6 6 6 6 6 6 6 5 6 6 6 6 6 6 6 6 6 6 6 6 6 6 6 6 6 5 6 6 6 6 6 6 6 6 6 6 6 6 5 6 6 6 6 6 6 6 7 6 5 6 6 6 6 6 6 6 6 6 6 6 6 6 6 6 6 6 6 6 6 6 6 7 6 6 6 6 6 7 6 7 7 6 7 6 6 6 6 6 7 6 7 7 6 7 7 7 6 7 7 6 7 6 6 6 7 6 6 7 7 7 7 7 7 7 7 6 7 7 6 6 6 7 7 7 7 7 6 7 7 7 7 7 7 7 6 7 7 7 7 7 6 7 7 7 7 8 7 6 7 7 7 6 7 7 7 7 7 7 7 7 7 7 7 7 7 7 7 8 7 7 7 7 7 7 7 7 7 7 7 7 7 7 8 7 7 8 7 7 8 8 7 7 7 7 7 8 8 7 8 7 7 7 8 7 7 7 7 7 7 8 8 7 7 8 7 8 8 8 7 8 7 8 7 7 7 7 7 7 8 7 7 7 8 7 8 7 8 8 8 8 8 8 7 8 8 8 7 8 7 7 7 7 7 8 8 8 7 8 7 8 8 8 8 8 7 7 7 7 7 8 7 7 8 8 8 7 8 8 7 7 8 8 7 7 8 8 8 8 7 7 7 8 8 7 7 7 8 7 7 7 8 7 8 7 7 7 8 8 8 8 7 8 8 7 7 7 7 7 8 8 7 8 7 7 7 7 7 7 7 7 8 8 7 7 7 8 7 8 7 7 7 7 7 7 7 7 7 8 7 7 7 7 7 7 7 6 7 7 8 7 8 7 7 8 7 7 6 7 7 7 7 7 6 7 7 7 7 7 7 7 7 7 7 6 7 7 6 6 7 6 6 6 7 7 6 6 7 6 7 7 7 7 6 7 6 7 7 7 6 7 7 7 7 7 7 7 7 6 6 7 7 6 6 6 7 6 7 7 7 6 6 6 6 7 7 6 7 7 6 7 6 6 6 6 7 6 6 6 7 6 6 6 6 6 6 7 6 7 6 6 6 6 6 7 6 6 6 6 6 7 6 6 6 6 6 6 6 6 6 6 7 6 6 6 6 6 6 6 7 6 6 6 6 6 6 6 6 6 6 6 6 6 5 6 6 6 5 6 6 6 6 6 6 0 
5 6 5 5 6 5 5 6 5 5 5 6 5 6 5 5 5 6 5 5 5 6 5 6 6 5 6 6 6 6 5 6 5 5 6 5 5 6 5 5 5 5 6 6 5 6 5 5 6 5 6 5 5 6 6 5 6 5 6 6 5 5 5 6 6 6 6 5 5 6 6 6 6 6 6 6 6 5 6 6 6 6 6 6 6 5 5 6 5 6 6 6 6 5 6 6 6 6 6 6 6 5 6 6 6 6 6 6 6 6 5 6 6 6 6 6 6 6 7 6 6 6 6 6 6 6 6 6 6 6 6 6 5 6 6 6 6 6 6 7 7 6 6 6 6 6 6 6 6 6 6 6 6 6 7 7 6 6 6 7 6 7 6 6 6 6 6 6 7 6 6 7 6 6 7 6 7 7 6 6 7 6 6 7 7 7 6 7 6 6 7 7 7 7 7 7 6 7 7 7 6 6 7 7 7 6 7 7 7 7 7 6 7 7 7 7 7 7 7 7 7 7 7 7 7 7 7 7 7 7 6 7 8 6 6 7 7 7 7 6 7 7 7 7 7 7 7 7 7 7 6 7 7 7 7 7 7 7 8 7 7 7 7 7 7 7 7 7 7 8 6 7 7 7 6 7 7 7 7 7 7 7 7 8 7 7 7 7 8 7 7 8 7 7 7 7 8 7 7 7 7 7 7 7 7 7 8 8 8 7 7 8 8 8 8 7 7 7 8 8 8 7 7 7 8 8 7 7 8 7 8 8 8 8 8 8 8 7 7 7 7 7 7 7 7 7 7 7 8 8 7 7 8 7 8 8 7 8 7 8 8 7 7 7 8 8 7 8 7 7 8 7 8 7 7 8 8 7 8 8 8 7 7 8 8 7 8 7 7 7 7 7 7 8 7 7 8 7 8 8 7 7 7 7 7 7 7 7 7 7 8 7 7 8 6 7 7 7 8 8 7 7 8 7 7 7 7 7 7 7 7 7 7 7 7 7 8 7 8 7 8 7 7 8 7 7 7 7 7 6 7 7 7 6 7 7 7 7 7 7 6 7 7 6 6 7 7 6 7 7 7 7 6 7 6 7 7 7 7 6 7 7 7 7 6 7 6 7 7 7 7 6 7 7 6 7 6 6 7 7 7 6 7 6 6 6 7 7 7 6 6 6 7 6 6 6 7 6 6 6 6 6 6 7 6 7 6 6 6 7 6 6 6 6 6 6 6 6 6 6 6 6 6 6 6 7 6 6 6 6 6 6 6 6 6 6 6 5 6 7 6 6 6 6 6 5 6 6 6 5 6 6 6 6 6 6 6 6 6 6 6 6 6 6 6 5 6 5 6 6 6 6 6 6 6 6 6 5 6 0 
6 6 5 6 5 5 5 5 5 5 5 5 6 5 6 5 5 6 5 5 5 6 6 5 6 6 6 5 5 6 6 5 5 6 6 6 6 5 6 5 5 5 6 6 5 5 6 6 5 5 6 5 6 5 6 5 5 6 6 5 6 5 6 6 6 5 6 5 6 6 6 6 6 5 6 6 5 6 5 6 6 6 6 6 5 5 6 6 6 6 6 5 5 6 6 6 6 5 6 6 6 6 6 6 6 6 6 6 6 6 6 6 6 6 6 6 6 6 6 6 6 6 6 7 6 6 6 6 6 6 7 6 6 6 6 6 6 6 6 6 6 6 6 7 6 6 6 6 6 7 6 7 6 6 6 6 7 6 6 7 6 6 6 6 5 6 6 7 7 7 7 7 6 6 6 6 6 7 6 7 6 6 6 6 7 6 6 6 7 6 6 7 6 7 6 7 7 6 6 7 7 7 6 7 7 7 7 7 6 7 7 7 6 6 7 6 7 6 7 6 7 7 7 7 7 7 7 6 7 7 7 7 7 6 7 7 7 7 7 6 7 6 7 6 7 7 7 6 8 7 8 7 7 8 7 7 7 7 7 8 7 7 7 7 7 7 7 8 7 7 7 8 7 7 7 7 7 7 7 7 7 7 6 7 7 8 7 7 8 7 7 8 8 7 7 7 7 7 8 7 7 7 7 7 7 7 7 8 7 7 7 8 7 7 8 7 7 7 7 7 8 7 7 8 7 8 8 7 7 8 8 7 7 8 8 8 8 8 7 8 7 8 7 8 7 8 7 7 7 7 7 7 7 7 7 8 8 8 7 7 8 7 7 7 8 8 7 7 8 7 7 7 8 8 7 7 7 7 7 7 7 7 7 8 8 7 8 8 7 7 7 7 7 8 8 7 7 7 7 7 7 7 7 8 7 7 8 7 7 8 7 7 8 8 8 8 7 7 7 7 8 7 7 8 8 7 7 7 7 7 7 7 8 7 7 7 7 7 7 7 7 7 7 7 7 7 7 7 7 7 7 7 7 7 6 6 7 6 7 7 7 6 6 7 7 7 7 7 6 7 7 7 6 7 7 7 7 7 7 7 6 7 7 7 7 6 7 7 6 7 7 7 6 7 6 7 7 6 6 6 7 7 6 6 7 6 7 6 6 6 6 6 7 6 6 6 7 6 6 6 6 6 6 6 7 6 6 6 6 6 6 6 7 6 7 6 6 6 6 6 6 7 6 6 7 6 6 6 6 6 6 6 6 6 5 6 6 6 6 6 6 6 6 6 6 6 7 6 6 6 6 6 6 6 6 6 6 6 6 6 6 6 6 6 7 6 6 6 6 6 6 6 6 6 6 5 6 6 6 0 
5 5 5 5 5 5 5 5 5 6 6 5 5 5 5 5 5 6 5 6 6 5 5 6 5 5 6 6 6 5 6 5 6 5 6 6 5 5 6 5 5 6 6 6 6 6 5 6 5 6 6 5 6 6 6 5 5 5 6 6 5 6 5 6 6 5 6 6 6 6 6 6 6 6 6 6 6 6 6 6 6 5 6 6 6 6 5 6 6 6 6 6 6 6 6 6 6 6 6 6 6 6 7 6 6 6 6 6 6 6 6 6 6 6 6 6 6 6 6 6 5 6 6 6 6 6 6 6 6 6 6 6 6 6 6 6 6 6 7 6 6 7 6 6 6 6 7 6 6 6 6 6 6 6 6 6 6 6 6 6 6 7 6 6 6 6 7 6 6 6 7 7 7 6 6 7 6 7 6 6 7 6 7 6 7 6 7 7 6 6 6 6 6 7 6 6 6 6 6 7 7 7 6 6 7 7 6 7 7 7 7 7 6 6 6 6 7 7 7 7 7 7 7 7 7 7 6 7 7 7 7 7 7 7 7 7 6 7 7 7 7 7 6 7 7 7 7 7 7 7 7 7 7 6 7 7 7 7 7 7 7 7 8 7 8 7 7 7 7 7 7 7 7 8 7 7 7 7 8 7 7 7 7 7 7 7 7 7 7 7 7 7 8 7 7 7 7 7 7 7 7 7 8 7 7 7 7 7 7 7 7 8 7 7 8 7 8 8 8 7 7 7 8 8 7 7 7 7 7 7 7 7 8 8 8 8 7 7 8 7 7 8 7 8 7 8 7 8 7 7 7 7 8 8 8 7 7 7 7 8 7 7 7 8 8 8 7 8 7 7 8 7 7 7 7 8 8 7 7 8 8 7 8 7 7 8 7 8 7 7 8 8 8 8 7 7 7 7 7 7 8 7 7 7 8 7 7 7 7 7 8 8 7 7 7 7 7 7 7 7 7 8 8 7 7 7 7 8 8 7 7 7 7 8 7 7 7 7 7 6 7 7 7 7 8 7 7 7 7 7 7 7 6 7 7 7 6 7 6 7 6 6 6 7 6 6 7 7 6 6 7 7 7 7 7 7 7 7 7 7 6 7 6 7 7 7 6 6 7 7 6 7 7 7 6 7 7 6 6 7 6 7 6 7 7 6 7 7 6 6 7 7 6 6 6 6 6 6 6 7 6 6 6 6 6 7 6 6 6 6 6 6 6 6 6 6 6 6 6 6 6 6 6 6 6 6 6 7 6 6 6 6 6 6 6 6 6 6 6 6 6 6 6 6 6 6 6 6 6 6 6 6 6 6 6 5 6 6 6 6 6 6 6 6 6 5 6 6 6 6 6 6 6 6 6 5 6 6 6 0 
6 5 5 6 5 5 5 6 5 5 5 6 5 5 6 5 6 6 6 5 5 5 5 5 6 5 6 5 6 5 5 5 6 5 5 5 6 5 5 6 5 6 6 5 5 5 6 6 5 5 5 6 6 6 5 6 6 5 6 6 5 6 5 6 6 5 6 6 6 6 6 5 6 5 5 6 6 6 5 6 6 5 5 6 6 6 6 6 6 6 5 6 6 6 6 5 6 5 6 6 6 6 6 6 6 6 6 6 6 6 6 6 6 6 6 6 6 6 6 6 7 6 5 6 6 6 6 6 7 6 6 6 6 6 6 6 6 6 7 6 6 6 6 6 6 6 6 6 7 6 6 6 6 6 6 7 6 6 6 6 6 6 6 7 6 6 7 7 6 7 7 7 6 6 7 6 6 6 7 7 7 6 7 6 6 6 6 6 6 7 6 7 7 7 6 7 6 7 7 7 6 7 6 7 7 7 7 6 7 7 7 7 6 7 7 7 7 6 7 7 7 7 7 7 7 7 7 6 7 7 7 7 6 7 7 7 6 7 7 7 7 7 7 7 7 7 7 7 8 7 6 7 7 7 7 7 7 7 7 7 7 6 7 7 7 7 7 7 7 7 7 7 7 7 7 7 7 7 6 7 7 7 7 8 7 7 7 7 7 8 8 7 7 7 8 7 7 7 7 7 7 8 7 7 7 7 7 7 7 7 8 7 7 7 7 7 8 7 7 8 7 6 7 8 8 7 7 7 7 8 8 7 7 7 7 7 7 7 7 8 7 7 7 8 7 7 7 8 7 8 8 7 7 8 8 7 8 8 7 8 8 8 8 7 7 8 7 7 7 8 8 8 7 7 7 7 7 7 8 7 7 7 7 7 7 7 7 7 7 8 8 8 8 7 7 7 7 7 7 7 8 7 7 7 7 7 7 7 7 8 7 7 7 7 7 7 7 7 7 8 7 7 8 7 7 7 7 7 7 7 6 7 8 7 7 7 7 8 7 7 7 7 7 7 7 8 7 7 7 7 7 7 7 7 7 7 7 7 7 6 7 7 6 7 7 7 7 7 6 6 7 6 6 7 7 7 7 7 7 6 7 7 6 7 7 7 7 7 7 7 7 7 6 7 6 7 6 7 6 6 7 6 7 7 7 6 7 7 7 7 6 7 7 6 6 6 6 6 6 6 7 6 6 6 6 7 6 6 6 6 6 6 7 6 6 6 6 6 6 6 6 6 6 6 6 6 6 6 6 6 6 6 6 6 6 6 6 6 6 6 6 5 6 6 6 6 6 6 6 6 6 6 6 5 5 6 6 6 6 5 6 5 6 6 6 6 6 6 6 6 6 6 6 6 6 6 5 6 6 0 
5 5 5 6 6 6 5 5 5 5 5 5 6 5 6 5 5 5 6 5 5 6 6 5 5 5 5 5 5 6 5 6 6 6 6 5 6 6 5 6 5 6 5 5 5 6 5 5 5 6 6 6 5 5 5 6 6 6 5 6 5 6 6 6 6 6 6 6 5 6 6 5 6 6 6 6 6 5 5 6 6 6 6 6 5 6 6 6 6 6 6 6 6 5 6 6 6 6 6 6 6 6 6 6 6 6 6 6 6 6 6 6 6 6 6 6 6 6 6 6 6 6 5 6 6 6 5 6 7 6 6 6 6 6 6 6 6 6 6 6 6 6 6 6 6 6 6 6 7 6 7 6 6 7 6 7 6 6 6 6 6 6 6 6 6 6 6 6 6 6 7 6 6 6 6 6 6 7 6 7 6 6 6 7 6 6 7 7 6 7 6 7 7 7 6 7 7 7 7 7 7 6 6 7 6 6 7 7 7 6 7 7 7 7 6 7 6 7 7 7 6 7 7 6 6 7 7 7 7 7 7 7 6 6 7 7 7 7 7 7 7 8 7 7 6 7 7 7 7 7 7 7 6 7 7 7 7 7 7 8 7 7 7 7 7 7 7 7 7 6 7 7 7 7 7 7 7 7 8 8 7 7 7 7 7 7 7 7 7 7 7 7 8 7 7 7 7 7 7 7 7 7 8 7 7 7 7 7 8 7 8 7 7 7 7 8 7 7 8 7 7 7 7 7 8 7 8 7 8 8 8 7 7 7 7 7 7 7 7 8 8 7 7 7 7 8 8 7 7 8 8 8 8 7 7 7 8 7 8 7 8 7 8 7 7 7 7 8 7 7 8 7 8 8 7 7 8 8 7 7 8 7 7 7 7 8 8 7 7 8 7 7 7 7 7 7 7 7 7 7 7 8 7 7 7 7 7 7 7 8 7 7 7 7 6 7 7 7 8 8 7 7 7 7 7 7 7 7 7 7 7 7 8 7 7 7 7 7 7 7 7 7 7 7 7 7 7 7 7 7 7 7 7 7 7 7 7 7 7 7 6 7 7 6 7 7 7 7 7 7 7 6 6 7 7 7 6 7 6 7 6 6 7 7 6 6 6 6 6 7 6 7 7 7 6 6 7 7 6 7 7 6 7 6 7 6 7 6 6 6 6 6 7 6 6 6 6 6 6 7 6 6 6 6 6 6 7 7 6 6 7 6 6 6 6 6 6 6 6 7 6 6 6 6 7 6 6 6 5 6 6 6 6 6 6 6 6 6 6 5 6 6 6 7 7 6 6 6 6 6 5 6 6 6 5 5 6 6 6 6 6 6 5 6 5 5 5 5 6 5 6 6 6 6 6 6 6 6 6 0 
6 5 5 5 5 5 5 5 6 4 5 6 6 5 5 6 5 5 5 5 5 5 5 6 5 5 6 5 5 5 5 5 5 5 6 5 6 5 6 5 6 5 6 6 6 5 5 5 5 5 6 5 6 5 6 5 6 6 6 6 6 6 6 6 5 5 6 6 5 6 6 6 6 6 6 6 6 5 6 5 6 6 6 6 6 6 6 5 6 6 6 6 5 6 6 6 6 6 6 6 6 6 6 6 6 6 6 6 6 6 6 6 6 6 6 6 6 6 6 6 6 6 6 6 6 6 6 6 6 6 6 6 6 6 6 6 6 7 6 6 6 6 6 6 6 6 6 6 6 6 7 6 6 6 7 6 6 6 7 6 6 6 6 6 7 6 7 7 6 7 6 6 7 6 6 7 6 6 6 6 7 6 6 7 7 7 6 7 7 6 7 7 7 6 7 6 7 6 6 7 6 6 7 7 6 6 7 6 7 6 6 7 7 7 7 6 6 7 6 7 7 7 7 7 7 7 6 6 6 6 6 7 7 6 7 7 6 6 8 7 7 7 8 7 8 7 6 7 6 7 6 7 6 6 7 7 7 7 8 6 7 7 7 7 7 7 7 7 7 7 7 7 7 7 7 7 7 7 7 7 7 7 7 7 7 7 6 7 8 7 7 7 8 7 7 7 8 8 7 7 7 7 7 7 7 8 7 7 7 8 7 7 7 7 7 7 8 7 8 8 7 7 7 7 8 7 8 7 8 8 7 8 8 7 7 7 7 7 7 7 7 9 7 7 8 7 8 7 7 8 7 7 7 7 7 8 7 7 7 8 7 7 7 7 7 8 8 7 7 7 7 7 7 8 8 7 7 8 8 7 7 7 7 7 8 7 7 7 7 8 8 7 7 7 7 7 8 8 6 7 8 7 8 7 7 8 7 7 7 7 7 7 7 7 7 7 6 7 7 6 7 8 7 7 7 7 7 7 6 7 7 7 7 6 7 7 7 7 7 6 7 7 7 7 6 7 6 7 7 7 7 7 7 7 7 7 7 7 7 7 7 7 7 7 7 6 6 7 7 6 7 7 7 7 7 6 7 7 6 7 6 7 7 6 7 7 7 6 6 6 7 7 7 6 6 6 7 6 6 6 7 7 7 6 6 6 6 6 7 6 6 5 6 6 6 6 6 6 6 6 7 6 7 6 6 7 6 7 6 6 6 6 6 6 6 6 7 7 6 7 6 6 6 6 5 6 6 6 6 6 6 6 6 6 6 6 6 6 7 6 6 6 6 6 6 5 6 6 6 5 6 6 6 5 6 6 6 6 6 6 6 6 6 6 6 5 6 5 6 6 6 5 6 5 5 6 5 5 6 0 
5 6 5 5 5 5 5 6 5 6 6 5 6 6 5 5 6 5 5 5 5 6 6 6 6 5 6 5 5 5 6 5 6 5 6 6 6 5 6 5 6 5 5 6 6 6 5 6 5 6 6 5 5 5 6 5 6 6 6 6 6 5 6 6 6 5 6 6 5 6 6 7 5 5 6 6 6 5 6 6 6 5 6 6 6 5 6 6 6 6 6 6 6 6 6 6 6 6 6 6 6 5 6 6 6 6 6 6 6 6 6 6 6 6 6 6 6 6 6 6 6 6 7 6 6 6 6 7 6 6 6 6 6 6 6 6 6 6 6 6 6 6 6 6 6 6 6 6 6 6 6 6 6 7 7 7 6 6 6 6 6 6 6 6 6 6 6 7 6 6 6 6 6 6 6 6 6 6 7 6 6 6 6 6 6 6 6 7 7 6 7 7 6 6 7 6 7 7 7 7 7 6 7 7 7 7 7 7 7 6 6 7 7 6 8 7 7 7 7 7 6 7 7 6 6 7 7 7 7 7 7 7 7 6 7 7 6 6 6 7 6 7 7 7 7 7 7 7 7 7 7 7 7 7 7 7 7 7 7 7 7 8 7 7 7 7 7 7 8 7 6 7 7 7 7 7 7 7 8 7 7 7 6 7 7 8 7 8 7 7 7 7 7 8 7 7 7 7 7 8 8 8 7 7 7 7 8 7 7 7 7 7 7 8 8 7 8 8 7 7 7 7 7 7 7 7 8 6 7 7 7 8 7 7 7 7 7 8 7 8 7 7 7 6 8 7 7 7 7 7 7 7 7 7 7 7 7 7 7 7 7 7 7 7 8 8 7 8 7 7 8 7 7 7 6 7 8 8 7 8 7 7 6 7 8 7 7 8 7 7 7 8 8 7 7 7 7 7 7 8 8 7 7 7 7 7 8 7 7 7 7 7 8 7 7 7 7 7 7 7 8 7 7 7 7 7 7 7 6 7 7 7 7 7 7 7 7 7 7 7 7 7 7 7 7 7 7 6 6 7 7 7 7 7 7 7 7 7 7 7 6 6 7 7 7 7 7 7 6 7 7 7 7 6 7 7 7 6 7 7 6 7 7 7 6 6 7 6 7 6 7 6 7 7 6 6 6 7 7 6 6 7 6 7 6 7 6 7 6 6 7 7 6 7 6 6 6 6 6 7 7 6 7 6 6 6 6 6 6 6 6 6 6 6 6 6 6 6 6 6 6 6 6 6 6 6 7 6 7 6 5 6 7 6 6 6 6 6 6 6 6 6 6 5 5 6 6 6 6 6 6 6 6 6 6 7 6 6 7 6 6 6 6 6 6 6 6 6 6 5 5 6 6 5 6 6 6 6 6 0 
5 5 5 5 6 6 6 5 5 6 6 5 5 5 6 6 5 5 5 5 5 5 5 6 5 5 5 6 5 5 5 5 6 5 5 5 6 6 6 6 6 5 5 5 5 6 5 6 6 6 5 6 6 6 5 6 6 6 6 5 6 5 6 5 6 6 6 5 6 5 6 5 6 6 5 6 5 6 6 5 6 6 6 6 6 6 6 5 6 6 6 5 6 6 6 6 6 6 6 6 6 6 5 6 6 6 6 6 6 6 6 6 5 6 6 6 6 6 6 6 6 6 6 6 6 6 6 6 6 6 6 6 6 6 6 5 6 7 6 6 6 6 6 6 5 6 6 6 6 6 6 6 7 6 7 6 6 6 6 6 7 6 6 6 7 7 6 6 6 6 6 6 7 6 6 6 6 6 6 7 7 7 6 6 7 6 7 7 6 7 7 7 6 6 7 6 6 7 6 6 7 7 6 7 6 6 7 7 7 7 7 6 6 7 7 6 7 7 6 7 6 7 7 7 6 7 7 7 6 6 7 7 7 7 7 7 7 6 7 7 6 7 7 7 7 7 7 7 7 7 7 7 7 7 7 7 7 7 7 7 7 7 6 7 7 7 7 6 6 7 7 7 7 7 7 8 7 7 7 7 7 7 7 7 7 7 7 7 7 7 7 7 7 7 7 7 7 7 7 7 7 8 7 7 7 7 8 8 8 7 7 8 7 8 7 7 7 7 7 7 7 7 7 7 8 7 7 7 7 7 7 8 7 7 7 6 7 7 7 7 7 7 7 7 7 8 7 8 7 7 8 8 7 7 7 7 8 7 7 7 8 8 7 8 8 7 7 7 7 7 7 8 7 7 7 7 7 7 8 7 7 7 7 7 8 7 7 7 8 7 7 7 7 8 7 7 7 7 7 7 7 7 7 7 7 7 7 7 7 7 7 6 7 8 7 7 7 7 7 7 7 7 7 7 7 7 7 7 7 7 7 7 7 7 7 7 7 7 7 7 7 7 6 7 7 7 7 7 7 7 6 7 7 7 7 7 7 7 7 7 7 7 7 6 7 7 6 7 7 6 7 7 7 7 7 6 7 6 7 7 6 7 7 7 7 7 6 7 6 7 7 7 7 6 7 6 6 7 6 6 7 6 7 6 6 6 7 6 6 6 6 6 6 6 6 6 7 6 6 6 6 6 6 7 6 6 7 7 6 6 6 6 6 6 6 6 6 6 6 5 6 6 6 6 6 6 6 6 6 6 6 6 6 6 6 5 6 6 6 6 6 6 7 6 6 6 6 6 6 6 6 5 5 6 6 6 6 6 6 6 5 6 5 6 5 6 6 6 5 6 5 6 6 6 5 6 6 6 6 0 
5 5 5 6 5 5 5 6 5 5 5 5 6 5 5 6 5 6 5 6 5 5 5 6 6 6 5 5 6 6 6 5 5 5 5 6 6 6 6 5 6 5 5 5 6 6 6 5 5 6 6 6 6 6 6 6 6 5 6 6 6 5 5 6 6 5 5 6 6 6 5 5 6 5 6 5 6 6 5 6 6 5 6 6 6 6 6 6 6 6 6 6 6 5 6 6 5 6 6 5 6 6 6 5 5 6 6 6 6 5 6 6 6 5 5 6 6 6 6 6 6 6 6 6 6 7 6 6 6 6 6 6 7 6 6 6 6 6 6 6 6 6 6 6 6 6 6 6 6 6 6 6 6 6 6 6 7 6 6 6 6 6 6 6 6 6 6 6 6 6 6 6 6 7 6 6 7 6 7 6 6 6 7 6 7 6 7 7 7 6 6 6 6 7 6 7 6 7 6 6 7 7 7 7 6 7 7 6 6 7 7 7 6 6 7 6 6 7 6 7 6 6 7 6 7 7 7 7 7 6 7 7 6 6 7 7 7 7 7 7 7 7 7 7 7 7 7 7 7 7 7 7 7 7 7 7 6 7 7 7 7 7 7 6 7 7 8 6 7 7 7 7 7 7 7 6 7 7 6 7 7 7 7 7 7 7 7 7 7 7 7 7 7 7 7 7 7 7 7 7 7 7 7 8 7 7 8 7 7 7 7 8 7 7 8 7 8 7 7 8 7 8 8 7 7 7 7 7 7 7 7 8 7 7 7 7 8 7 7 7 7 8 7 8 7 7 8 7 7 7 7 7 7 7 7 6 7 7 8 7 7 7 7 7 7 8 7 7 8 8 7 7 7 7 7 7 8 7 7 7 8 7 7 8 7 8 8 7 7 7 7 8 6 7 6 7 7 7 7 7 7 7 7 7 7 7 7 7 7 8 7 7 7 7 7 7 7 7 7 7 7 7 6 7 7 7 7 7 7 7 7 7 7 7 7 7 7 7 7 7 7 7 7 6 6 7 7 6 7 7 7 7 7 7 7 7 7 7 7 6 7 7 6 6 7 6 7 7 7 7 7 6 7 7 6 7 7 6 7 7 6 7 7 6 6 6 7 7 7 7 6 6 6 7 6 7 6 6 7 6 7 6 7 7 7 6 6 7 6 6 7 7 6 6 6 6 6 6 6 6 6 6 6 7 6 7 6 6 6 6 6 7 6 6 6 6 6 6 6 6 6 6 6 6 5 6 5 6 7 6 6 6 6 6 6 6 6 6 6 6 5 6 6 5 6 6 6 6 6 6 6 6 6 6 5 6 7 6 5 6 6 5 6 6 6 5 6 6 6 6 6 6 6 6 6 6 6 6 6 0 
5 6 5 5 6 5 5 5 5 5 5 5 5 5 5 5 5 6 6 5 5 5 5 5 6 5 5 5 6 5 5 6 5 6 5 5 6 6 5 6 6 5 6 6 6 5 5 6 5 6 5 5 6 6 6 6 5 5 6 5 6 6 5 6 6 5 5 6 6 6 6 6 6 6 6 6 6 6 6 6 6 6 6 6 6 6 6 6 6 6 6 5 6 6 6 6 6 6 5 5 5 6 6 6 6 7 6 5 6 6 6 6 6 6 6 6 6 6 6 6 6 6 6 6 7 6 6 6 6 6 6 6 6 5 6 6 6 6 6 6 7 5 6 6 6 6 6 6 6 6 7 6 5 6 6 6 7 6 6 6 6 6 6 6 7 7 7 6 6 6 6 6 6 6 6 6 7 7 6 6 6 6 6 6 6 6 7 7 6 6 7 6 6 6 7 6 7 6 7 7 6 6 7 7 6 6 7 7 7 6 6 6 7 6 7 7 7 7 7 7 7 6 7 6 7 7 6 7 6 6 7 7 6 7 7 7 7 7 6 6 7 7 8 7 7 7 7 7 7 7 7 7 7 7 7 7 6 7 7 7 7 7 7 7 7 7 7 7 7 7 7 7 7 7 7 7 7 7 7 7 7 7 7 7 7 7 7 7 7 7 7 7 7 7 6 7 7 7 7 6 7 7 7 7 8 7 7 7 7 7 7 7 7 7 7 7 7 7 7 7 7 7 7 8 7 7 7 7 7 7 7 7 6 7 7 7 7 7 7 7 7 7 8 7 7 8 7 6 7 8 7 7 8 7 8 7 7 7 7 7 7 7 7 7 7 7 7 7 7 7 8 7 7 7 7 7 7 8 7 7 8 7 7 8 8 7 7 8 7 7 8 7 7 7 7 8 8 7 7 7 7 7 7 7 7 7 8 7 7 7 7 7 7 7 7 7 7 7 7 7 7 7 7 7 7 7 7 7 6 6 7 7 7 7 6 7 7 6 6 7 7 7 6 6 7 7 7 6 6 7 7 7 7 6 7 7 7 7 7 7 7 7 6 7 6 7 7 7 7 7 7 6 7 7 6 6 6 6 7 6 7 7 7 7 6 6 6 6 6 7 7 6 6 7 7 7 6 6 7 6 6 7 6 6 6 7 6 6 7 6 6 6 6 7 6 6 6 7 6 6 6 6 6 6 6 6 6 7 6 6 6 6 6 6 6 6 6 6 6 6 6 6 6 6 6 6 6 6 6 6 6 7 6 6 6 5 6 6 6 6 6 6 6 6 6 6 6 6 6 6 5 5 6 6 6 6 6 6 6 6 6 6 6 6 6 6 6 6 6 6 6 6 5 6 6 6 6 5 6 0 
5 5 5 5 6 6 5 6 5 5 5 5 5 5 6 5 5 5 5 6 5 5 5 5 5 6 6 5 5 6 5 6 6 5 5 5 6 5 5 5 6 5 6 5 5 5 6 5 6 6 5 5 6 6 6 5 6 5 6 5 6 6 6 6 6 6 5 6 6 6 6 6 6 6 6 6 5 6 5 6 6 6 5 6 6 6 6 5 6 6 5 5 7 5 6 6 5 5 5 5 6 6 6 6 6 6 6 6 6 6 6 6 6 5 5 6 6 6 6 6 6 6 6 6 5 6 6 6 6 7 6 6 6 6 6 6 5 6 6 6 6 7 6 6 6 6 6 7 5 6 7 6 6 6 6 6 6 6 6 6 6 7 7 6 6 7 6 7 6 6 7 6 6 7 7 6 6 6 6 7 6 6 6 6 6 7 7 6 6 7 7 6 6 6 6 6 6 7 6 6 6 7 6 6 6 6 7 6 7 6 7 6 6 7 6 7 6 7 6 7 6 7 6 6 6 6 6 7 7 6 6 7 7 7 7 7 7 7 7 7 7 7 8 7 7 7 7 7 7 7 7 7 6 7 7 7 7 6 7 7 6 7 6 7 7 6 7 7 8 7 7 7 7 6 6 7 7 7 7 7 7 6 7 7 7 7 7 7 7 7 7 7 7 7 7 7 7 8 7 7 7 7 7 7 7 7 7 7 7 7 7 7 7 7 7 7 7 8 7 7 8 7 7 7 7 7 7 7 7 7 7 8 7 7 7 6 7 7 7 7 7 7 7 8 7 7 7 8 7 7 7 7 7 7 7 7 7 7 7 7 7 7 8 7 7 7 7 7 7 7 7 7 7 7 6 7 7 8 7 7 7 7 7 7 7 7 7 7 8 7 7 8 7 7 7 7 8 7 7 7 7 7 7 7 7 7 7 7 7 8 7 7 7 7 7 7 7 7 7 8 7 7 7 7 7 7 7 7 6 7 7 7 7 6 7 7 7 7 7 7 6 7 7 7 6 7 7 7 7 6 7 6 7 7 7 7 7 7 7 7 7 7 7 7 7 7 7 7 7 6 7 6 6 7 6 7 6 7 7 7 7 7 7 6 6 7 7 6 6 7 6 7 7 6 7 7 6 6 7 7 6 6 6 6 6 7 6 6 6 6 6 7 6 6 6 6 6 7 6 6 7 7 6 6 6 6 5 5 6 6 6 6 6 6 7 6 6 6 6 6 6 7 6 6 6 6 6 6 6 6 6 5 6 6 6 6 6 6 6 6 6 6 6 6 6 6 6 6 6 6 6 6 6 6 6 6 6 6 5 6 6 6 6 5 6 5 6 5 6 6 5 5 6 6 5 5 6 5 6 0 
6 5 5 5 6 5 6 5 5 6 6 5 5 6 5 5 6 6 5 5 6 6 5 5 6 5 5 5 5 5 6 6 5 5 5 6 5 5 6 5 5 5 5 6 5 6 5 6 5 6 5 5 5 6 6 5 6 5 5 6 5 6 5 5 6 5 6 5 6 5 6 6 6 5 6 6 5 6 5 6 6 6 6 6 6 6 5 6 6 6 5 5 6 6 6 6 5 5 6 6 6 6 6 5 6 6 6 6 6 6 6 6 5 6 6 6 6 6 6 6 6 6 6 6 6 6 6 6 6 6 6 6 6 5 6 7 6 6 6 6 6 6 7 7 6 6 7 6 5 7 6 6 6 6 6 6 6 6 6 6 6 6 6 6 7 7 7 6 6 6 6 6 6 6 6 6 6 6 6 6 7 7 6 6 7 6 6 6 6 6 7 7 7 7 7 7 7 6 7 6 6 7 7 6 7 6 6 6 6 6 6 7 7 6 7 6 7 6 6 7 6 6 6 7 7 6 7 6 6 7 7 7 6 7 7 6 6 7 6 7 7 7 6 7 6 7 6 7 7 7 7 7 7 7 7 6 7 7 7 7 7 7 7 8 6 7 7 7 7 6 7 7 7 7 7 7 7 7 7 7 7 7 7 7 7 7 6 7 7 7 7 7 7 7 8 7 7 7 7 7 7 7 7 7 7 6 7 7 6 7 8 7 7 7 7 7 7 7 7 7 7 7 7 7 7 7 7 7 7 7 7 7 8 7 8 7 7 7 7 7 7 7 7 7 7 7 7 7 7 7 7 7 7 7 7 7 7 7 7 7 7 7 7 7 7 7 7 8 7 7 8 7 7 7 7 7 7 7 7 7 7 7 7 6 7 7 8 7 7 7 7 7 8 7 7 8 7 7 7 7 7 7 7 7 7 7 7 7 7 7 7 7 7 6 7 7 7 6 7 6 7 7 7 7 7 7 7 7 7 7 7 7 7 7 7 7 7 7 7 8 7 7 6 7 7 7 7 6 7 6 7 7 7 7 7 6 6 7 7 6 7 7 7 7 6 7 6 6 7 7 6 6 6 7 7 7 6 6 7 6 6 7 6 6 6 7 6 6 6 7 6 7 6 6 7 6 7 7 7 6 6 6 7 6 6 6 6 6 7 6 6 7 7 6 7 6 6 7 6 7 6 6 6 6 6 7 7 6 6 6 7 6 6 6 6 6 6 6 6 6 6 6 6 6 6 6 6 6 6 6 6 6 6 7 6 6 7 6 5 5 6 7 5 6 6 6 6 6 5 6 6 6 6 6 6 6 6 5 6 6 6 6 6 6 6 6 6 6 6 5 6 6 6 5 6 6 5 6 5 0 
6 5 6 6 5 5 5 5 5 5 6 6 5 5 6 6 6 6 5 6 6 5 6 6 6 6 5 6 6 5 6 6 6 5 5 5 5 5 5 5 5 5 6 6 5 6 5 5 5 5 5 6 6 5 6 6 6 6 6 6 6 6 5 5 6 6 5 6 6 5 6 5 5 6 5 6 6 5 6 5 6 5 5 6 5 6 6 5 6 6 6 6 6 6 6 5 5 7 6 6 6 6 6 6 6 6 6 5 6 6 5 5 6 6 6 7 6 6 5 6 6 6 6 6 6 5 6 6 6 7 6 6 6 6 6 6 6 6 6 6 6 6 6 5 6 6 5 6 6 6 6 6 6 7 6 6 6 6 6 6 6 6 6 6 6 6 6 6 7 6 6 7 6 6 6 7 6 6 6 6 6 6 6 6 6 6 7 6 7 6 6 7 7 6 6 6 7 6 6 7 6 6 7 6 7 7 7 7 6 7 7 6 7 7 7 7 6 6 7 6 6 6 6 7 7 7 7 6 6 6 6 7 7 7 7 7 7 7 7 7 7 7 7 6 7 7 7 7 7 7 7 7 7 7 7 7 7 7 7 6 7 7 7 7 7 7 7 7 7 7 7 7 6 7 7 7 7 7 7 7 7 7 7 7 7 7 7 7 7 8 7 7 7 7 7 7 7 7 7 7 7 7 7 7 7 7 8 7 7 6 7 7 7 7 7 7 7 7 7 8 7 7 7 7 7 7 7 7 7 7 7 8 7 7 7 7 7 7 7 7 7 7 7 6 7 7 8 7 7 7 7 7 7 7 7 7 8 7 7 7 7 7 7 8 7 7 7 8 7 7 7 7 8 7 7 8 7 8 8 7 7 8 7 7 7 7 7 7 7 7 7 6 7 7 7 7 7 7 7 7 7 7 7 7 7 7 7 7 7 7 7 7 7 7 7 7 7 7 7 7 7 7 7 7 7 7 7 6 7 7 7 7 6 8 7 7 7 6 6 7 6 7 7 7 7 7 7 6 7 7 7 7 7 7 7 6 6 7 7 7 6 7 6 7 7 7 7 6 7 7 7 6 7 6 7 7 6 7 6 6 6 6 6 6 7 6 7 6 7 7 6 6 7 7 7 6 7 6 6 6 6 6 6 6 7 7 7 6 6 6 6 7 6 6 7 6 6 6 7 6 7 5 6 6 6 6 6 7 7 6 6 6 6 6 6 6 6 6 6 6 6 6 6 6 6 6 6 6 6 6 6 6 6 6 6 6 6 6 6 6 6 6 5 6 6 6 5 6 6 6 6 6 6 7 5 6 6 6 6 6 5 5 6 6 6 6 6 6 6 6 6 5 5 5 6 5 6 5 5 0 
5 5 5 5 5 5 5 5 5 5 5 5 6 6 5 6 6 6 6 5 5 6 5 5 5 6 6 6 5 5 6 5 6 6 5 5 5 5 6 6 5 6 5 6 5 6 6 6 5 6 5 6 6 5 5 6 5 5 6 6 6 6 5 5 5 6 5 5 5 6 5 6 5 6 5 5 5 6 6 5 5 5 5 6 5 5 5 5 5 6 6 6 6 6 6 6 6 5 6 6 6 5 6 6 6 6 5 6 6 6 6 6 6 6 6 6 6 6 6 6 6 5 6 6 6 5 6 6 6 6 6 6 6 6 6 6 6 6 6 6 6 6 6 6 6 6 6 6 6 6 6 6 6 6 6 7 6 6 6 5 6 6 6 6 6 6 6 6 6 6 6 6 6 6 6 6 6 6 6 6 6 7 7 7 6 6 6 6 6 7 6 6 7 6 6 7 7 7 6 7 6 6 6 7 6 7 7 6 7 7 7 6 7 7 7 6 6 6 6 7 6 6 7 7 7 7 7 7 7 7 6 7 7 6 6 7 7 7 6 7 7 7 6 7 7 7 7 6 7 7 7 7 6 7 7 7 7 7 7 7 7 7 7 6 7 7 7 7 7 6 7 7 7 7 7 7 7 7 7 7 7 7 7 6 8 7 7 8 7 7 7 7 7 7 8 6 7 7 7 7 7 7 7 7 7 7 7 7 6 7 7 7 7 7 7 7 7 7 7 7 7 7 7 7 7 7 7 7 7 7 7 7 7 7 7 7 7 7 7 7 7 7 7 7 7 7 7 7 8 7 7 7 7 7 7 7 8 7 7 8 7 7 7 7 7 7 7 8 7 7 7 7 6 7 7 7 7 6 8 7 7 7 7 7 7 7 7 7 8 7 7 7 7 7 7 7 7 7 7 7 7 6 7 7 7 7 7 7 7 7 7 7 7 7 7 7 7 7 7 6 6 7 6 7 7 7 7 7 7 7 7 7 7 6 6 6 7 7 6 6 7 7 7 7 7 7 7 7 7 7 7 6 6 7 7 6 7 7 7 6 7 7 6 6 7 7 6 7 7 7 7 7 6 6 6 7 7 6 6 6 7 7 7 6 6 6 6 7 7 6 6 7 6 6 6 7 7 6 6 6 6 6 6 6 7 6 7 7 6 7 6 6 6 6 6 6 7 6 6 6 6 6 6 7 7 6 6 6 6 6 6 6 6 6 6 6 6 5 6 6 6 6 6 6 6 6 5 6 6 6 6 6 6 6 6 6 6 6 6 6 6 6 6 7 5 6 6 6 6 6 6 6 6 6 6 6 6 6 6 5 6 6 6 6 5 6 6 6 6 5 6 5 6 6 5 5 6 6 6 0 
6 6 5 6 5 5 5 5 6 6 5 5 5 6 5 6 5 5 6 5 5 5 5 6 5 5 6 5 6 5 6 6 5 5 6 6 5 6 6 6 6 6 5 5 5 5 5 6 5 5 5 5 6 6 6 5 6 6 5 6 6 6 6 6 5 5 5 6 6 6 5 5 5 6 6 6 6 5 6 6 6 6 6 6 5 6 6 6 6 6 6 6 6 6 6 6 6 6 5 5 5 6 6 6 6 6 6 6 6 6 6 6 6 6 6 6 6 6 6 6 6 6 6 6 6 5 6 6 6 6 6 6 6 6 6 6 6 6 6 6 6 6 6 7 6 6 6 7 6 7 6 7 6 6 6 6 6 6 6 6 6 6 6 6 6 6 6 7 6 6 6 6 6 6 6 5 6 6 6 6 6 6 7 6 6 6 6 7 6 6 6 7 6 6 6 7 7 6 6 6 6 6 6 6 7 6 6 7 6 6 6 7 6 7 7 7 6 6 8 6 7 7 6 7 7 7 6 7 7 6 7 7 6 6 7 6 7 7 7 7 6 7 7 7 7 7 7 7 7 7 7 7 6 6 7 7 7 7 7 6 6 7 6 7 6 7 7 7 7 7 7 7 6 6 7 6 7 6 7 7 7 6 6 7 7 7 7 7 7 7 7 7 7 6 7 7 7 6 7 7 8 7 7 7 7 7 6 7 8 7 7 7 7 6 7 7 7 6 7 7 7 7 7 8 7 7 7 7 8 7 7 7 7 7 7 7 7 7 7 7 8 8 7 8 7 7 7 7 7 7 7 7 8 7 7 7 7 7 7 7 7 7 7 7 7 7 7 7 7 7 7 7 7 8 7 7 7 7 7 7 7 8 7 7 8 7 7 8 7 7 8 7 7 7 7 7 7 7 7 7 8 7 6 7 7 8 7 7 8 6 7 7 7 7 7 7 7 6 7 7 7 6 7 7 7 7 7 7 7 7 7 7 7 7 7 7 7 7 6 7 6 7 6 6 7 7 6 7 7 7 7 6 7 7 7 6 6 7 7 7 7 7 7 7 6 7 6 7 7 7 7 7 6 6 7 6 7 6 6 7 6 6 7 6 6 7 7 6 7 6 6 7 6 7 7 6 6 6 6 6 6 6 6 6 7 6 6 6 6 6 6 6 6 6 6 6 6 6 6 6 7 6 6 6 6 7 6 6 6 6 6 6 6 6 6 6 6 6 6 6 6 6 6 5 6 6 6 6 6 7 5 6 6 6 6 6 6 6 6 6 6 6 6 6 6 6 6 6 6 6 6 5 6 6 6 6 6 6 5 6 5 6 5 6 6 6 6 6 6 6 5 6 6 5 6 6 6 5 6 0 
5 5 6 5 5 5 5 6 6 5 5 5 5 5 5 5 5 5 5 6 5 5 6 6 5 6 5 5 6 5 6 5 5 5 6 5 5 6 5 5 5 6 5 6 6 5 6 5 5 6 6 6 6 5 6 6 5 6 6 5 5 6 5 6 5 5 6 6 6 6 6 6 6 6 5 5 6 6 5 6 6 6 6 6 6 6 6 6 6 5 5 5 5 5 5 6 6 6 6 6 6 6 5 6 6 6 6 6 6 6 6 6 6 6 6 6 6 6 6 6 6 6 6 6 6 6 6 6 6 6 6 6 6 6 5 7 7 6 7 6 6 6 6 6 6 6 6 6 6 7 7 6 6 6 7 6 6 6 5 6 6 6 6 6 7 6 6 6 6 6 6 7 6 6 7 6 7 7 6 6 6 6 6 5 6 7 6 6 6 6 6 7 7 7 6 6 7 7 7 6 7 7 6 6 6 7 7 6 6 6 7 7 7 6 7 6 6 7 7 6 7 6 6 7 6 7 7 7 7 7 7 7 7 6 7 6 7 7 7 6 6 7 6 7 7 7 7 7 6 6 7 7 7 7 7 7 7 6 7 7 6 6 7 7 7 6 7 7 6 7 7 7 7 7 7 7 7 7 7 7 7 7 7 7 7 7 7 7 7 7 7 7 7 7 7 7 7 7 7 7 7 7 7 7 7 6 7 7 6 7 6 7 7 7 7 7 7 7 7 7 7 7 7 7 7 7 7 7 7 8 7 7 7 7 7 7 7 7 7 7 7 7 6 7 7 7 7 7 7 8 7 7 7 7 7 7 7 7 7 7 7 7 7 7 7 8 7 7 7 7 7 7 7 7 7 7 7 7 7 7 7 7 7 7 7 7 7 7 8 8 7 7 7 7 7 7 7 7 7 7 8 6 6 7 7 7 7 7 6 7 8 7 6 7 6 7 7 7 7 7 7 7 7 7 7 7 7 7 7 7 7 7 7 7 6 7 7 7 7 6 7 6 7 7 7 7 7 7 7 7 7 6 7 7 7 7 6 7 7 7 7 7 7 6 6 7 7 6 7 7 7 7 6 7 6 7 7 7 7 6 7 7 6 7 7 7 7 7 7 6 6 6 6 6 7 6 6 6 6 6 7 7 7 6 6 6 6 6 6 6 6 7 6 6 6 6 6 6 6 6 6 6 7 6 7 7 6 6 6 6 6 6 6 6 6 6 6 6 6 6 6 6 6 6 6 6 6 5 6 6 6 6 5 5 6 6 6 6 6 6 5 5 5 7 6 5 6 6 5 6 6 6 6 6 5 6 6 6 6 6 6 6 6 6 5 6 6 6 6 6 6 6 6 5 6 7 5 6 5 0 
5 5 5 5 5 5 5 5 5 5 6 5 5 6 5 5 5 6 5 5 6 5 6 5 5 6 5 5 6 5 6 6 5 6 5 5 5 6 5 5 6 5 6 5 5 6 6 5 6 6 6 5 5 5 5 5 6 6 6 6 5 6 5 5 6 6 5 6 6 5 5 6 6 6 5 6 6 6 6 6 6 6 6 5 6 6 6 6 5 6 6 6 6 6 5 6 6 5 6 6 6 5 6 6 6 6 6 6 6 6 6 6 6 5 6 6 6 6 6 6 5 6 5 6 6 6 6 6 6 6 6 6 6 6 7 6 6 6 6 5 6 6 6 6 6 6 6 6 6 6 6 6 6 6 6 7 6 6 6 6 6 6 6 6 6 6 6 6 6 6 6 6 6 6 6 6 7 7 7 6 6 6 6 6 6 6 6 7 7 6 6 7 6 6 6 6 6 6 7 6 6 6 6 7 6 7 6 7 7 7 6 6 6 7 7 7 7 7 7 6 6 6 6 7 7 6 6 6 7 7 6 7 6 6 7 6 7 6 6 7 7 6 7 7 6 7 6 7 7 7 6 7 6 7 7 7 7 7 6 7 7 7 7 7 7 7 7 7 7 6 7 7 7 7 7 7 7 7 7 7 7 7 7 7 6 7 7 7 6 7 7 6 7 7 7 6 6 7 7 6 8 7 7 7 7 7 7 7 7 7 7 7 7 7 7 7 7 6 7 6 7 7 7 7 7 7 7 7 7 7 7 8 7 7 7 7 7 7 7 8 7 7 8 7 7 7 7 7 7 7 7 6 7 7 7 7 7 7 7 7 8 6 7 7 7 7 7 7 7 7 7 6 7 7 7 7 8 7 7 7 7 7 7 7 7 7 7 7 7 7 7 7 7 7 7 7 6 7 7 7 7 6 7 7 7 7 7 7 7 7 7 6 7 7 7 6 7 7 6 7 7 7 6 6 7 7 7 7 7 6 6 7 7 7 7 7 7 7 7 6 7 7 7 6 7 7 6 7 7 7 6 8 7 6 7 6 6 6 7 7 7 6 7 7 7 7 7 7 7 6 7 7 7 6 6 6 7 7 7 7 6 7 7 6 7 6 7 6 6 6 6 7 7 6 6 6 7 6 6 6 6 6 6 6 7 7 7 7 6 7 6 6 6 6 6 6 6 6 6 6 6 6 7 6 6 6 6 6 6 6 6 6 6 7 6 6 6 5 6 7 6 6 6 6 6 6 6 6 6 6 5 6 6 6 6 6 6 6 6 6 6 6 5 6 6 6 6 6 6 6 6 6 6 6 6 6 6 6 5 6 5 5 5 5 6 6 6 6 5 6 6 6 6 6 6 6 5 6 6 0 
5 5 6 5 5 5 5 5 5 6 5 5 5 5 5 5 5 5 5 5 5 5 6 6 5 5 6 6 5 6 5 5 5 6 5 5 5 5 6 6 6 5 6 5 5 6 5 5 6 6 6 6 5 6 6 6 5 5 6 6 6 5 5 6 5 5 5 6 6 6 6 6 5 6 6 6 6 6 6 5 6 6 6 6 6 6 6 5 6 6 6 6 6 5 5 6 6 6 6 6 6 6 5 6 6 6 6 6 6 6 6 6 6 6 6 6 6 6 5 6 6 6 6 5 6 6 6 6 6 6 5 6 6 6 6 6 6 6 6 6 6 6 6 6 6 6 6 6 6 6 6 7 6 6 6 6 6 6 7 6 6 6 6 6 6 6 5 6 6 7 6 6 6 6 6 6 7 6 6 6 6 6 6 6 6 7 6 6 6 7 7 6 7 6 7 6 6 7 6 6 7 6 7 7 6 6 7 7 6 7 6 7 7 6 6 7 6 6 7 6 7 6 6 6 6 6 7 7 6 6 6 6 7 6 7 6 7 7 6 7 7 7 7 7 7 7 7 7 7 6 7 6 7 7 7 7 7 7 7 7 6 7 7 6 7 7 7 7 7 7 7 6 7 6 7 6 6 7 7 7 7 7 7 7 7 7 7 7 7 7 7 7 6 7 7 7 7 7 7 7 7 7 7 7 7 7 7 7 7 8 7 7 7 7 8 7 7 7 7 8 7 7 7 7 7 7 7 7 7 8 7 7 7 7 7 7 8 7 7 7 7 7 7 7 7 7 7 7 7 7 7 7 7 7 7 7 7 7 7 7 7 7 8 7 6 7 7 7 7 7 7 7 7 7 7 7 7 7 7 7 7 7 7 7 7 7 6 7 7 7 7 7 7 7 7 8 7 7 7 7 6 7 7 7 7 7 7 6 7 7 7 7 7 7 7 7 7 7 6 7 7 6 7 7 6 7 7 6 7 7 7 7 7 6 6 7 7 7 7 7 7 7 6 7 7 7 7 7 7 6 7 7 7 6 6 6 7 7 6 7 7 6 7 6 6 7 6 7 6 7 6 6 7 6 7 7 6 6 6 6 7 6 7 6 6 6 7 7 7 6 7 6 6 6 6 6 6 7 7 6 6 5 6 7 6 6 6 6 6 6 5 6 6 7 7 6 6 6 6 6 6 6 6 7 5 7 6 6 6 7 6 6 6 6 7 6 6 6 6 6 6 6 6 6 6 5 5 6 6 6 6 6 6 5 6 6 6 6 6 6 6 6 5 6 6 6 5 5 6 6 6 6 6 6 6 6 6 6 5 6 6 6 6 6 6 5 5 5 6 6 6 6 6 6 5 6 6 5 5 0 
5 6 5 5 5 5 5 5 5 5 5 5 5 5 5 6 6 6 6 6 6 5 5 6 6 5 5 6 6 5 5 5 5 5 5 5 6 5 6 5 5 6 5 5 6 5 5 5 5 6 5 6 5 6 5 6 6 6 5 6 6 6 5 5 6 6 5 6 5 6 5 5 6 6 6 6 6 6 5 5 5 5 5 6 6 5 6 6 6 6 6 5 6 6 5 6 6 5 5 6 6 5 6 5 6 6 6 6 6 6 6 6 6 6 6 6 6 6 5 5 6 6 6 6 6 6 5 6 6 6 5 6 6 6 6 6 6 6 6 5 6 6 6 6 6 6 6 6 6 6 6 6 6 6 6 6 6 6 6 6 7 6 6 7 6 6 6 6 6 6 6 6 6 6 6 6 7 7 7 6 6 6 6 6 6 7 6 6 6 6 6 7 6 6 6 6 6 6 6 7 6 7 7 6 6 6 6 6 6 6 7 6 6 6 6 7 6 7 7 7 7 7 7 7 7 6 7 7 6 7 7 6 6 7 7 7 7 7 6 7 6 6 6 7 7 6 6 7 6 6 6 7 7 7 7 6 6 7 7 6 7 7 7 6 7 7 6 7 7 7 6 7 7 7 7 7 7 7 7 7 8 6 7 6 7 7 7 6 7 7 6 7 7 6 8 6 7 7 7 7 7 7 7 7 7 7 6 7 7 7 7 7 7 7 6 7 8 7 7 7 8 7 7 7 6 8 7 7 7 8 7 7 7 7 7 7 7 7 7 6 7 7 7 7 7 7 7 7 7 7 7 7 7 7 7 7 7 7 7 7 7 7 8 7 7 7 7 7 7 7 6 7 7 7 7 7 7 7 7 7 7 6 7 7 7 7 7 7 7 7 7 7 7 7 7 7 7 7 7 6 7 7 7 6 7 7 7 7 7 7 7 6 7 7 6 6 7 7 7 6 7 7 6 6 7 7 7 7 7 7 7 7 7 7 6 7 7 6 7 6 6 7 7 6 7 7 6 7 7 6 7 7 7 7 7 6 7 6 6 7 7 6 7 6 7 6 7 7 6 7 7 6 6 7 6 6 7 7 6 7 6 6 6 6 7 6 6 6 7 6 6 7 6 7 7 6 6 6 6 7 6 6 6 6 6 7 7 6 6 6 6 6 7 6 6 6 6 6 6 6 6 6 6 6 6 7 7 6 6 6 6 7 6 6 6 7 6 6 6 6 6 6 6 6 6 6 7 6 6 7 6 6 6 6 5 6 6 6 6 6 6 6 5 6 6 6 5 6 5 6 6 5 6 6 6 5 6 6 6 5 6 6 5 5 6 6 6 6 5 6 5 6 6 6 6 6 5 5 6 0 
5 5 5 5 6 5 5 5 5 5 5 5 5 5 6 5 5 5 6 5 6 6 6 5 5 5 6 5 6 5 6 5 5 5 6 5 5 6 6 6 5 6 6 6 5 6 5 5 5 5 5 6 5 5 5 6 6 6 6 6 5 5 6 5 5 5 6 5 6 6 5 6 6 5 6 6 6 6 7 6 6 6 6 6 5 6 5 5 6 6 6 6 6 6 6 6 6 6 6 6 5 6 6 6 6 6 6 6 6 6 6 6 6 6 6 6 6 6 6 6 6 6 6 6 6 6 6 6 6 6 6 6 5 6 6 6 6 6 7 6 6 6 7 6 6 6 6 6 6 6 6 6 6 6 6 6 6 6 6 6 6 6 6 6 6 7 6 6 7 6 7 6 6 6 7 6 7 6 6 7 6 6 6 6 6 6 6 7 7 6 7 6 6 6 7 6 7 5 6 6 6 6 6 6 6 7 6 6 6 7 8 6 7 7 7 6 6 6 6 7 6 6 7 6 6 6 7 7 7 7 7 7 6 7 7 7 6 7 6 7 7 6 6 6 6 7 6 7 7 6 7 7 7 7 7 6 7 7 7 7 6 6 7 7 7 7 7 6 7 6 7 6 6 7 6 7 6 7 7 7 7 7 6 7 7 7 7 7 7 6 7 7 7 6 8 7 7 7 7 7 7 7 7 7 6 7 7 7 7 7 7 7 8 8 7 7 7 7 7 7 6 6 7 7 7 7 7 6 7 7 8 7 7 6 7 7 7 7 7 6 7 7 7 7 7 8 7 7 7 6 7 7 7 7 7 7 7 7 7 7 7 7 7 6 8 7 6 6 7 6 7 7 7 8 7 7 7 7 7 7 7 6 7 7 7 6 7 6 7 7 7 7 7 7 7 7 6 7 7 7 7 7 8 7 7 6 7 6 6 7 6 7 7 7 6 6 7 6 6 7 7 7 7 6 7 7 7 8 7 7 7 7 7 6 7 6 7 7 7 7 7 7 7 6 7 7 7 7 7 6 7 6 7 6 7 7 7 7 7 6 7 6 7 7 7 6 6 6 7 7 6 7 6 7 6 7 6 6 6 7 6 6 6 6 6 7 6 6 7 6 6 7 6 6 7 5 6 6 6 7 6 6 7 6 6 6 6 7 6 6 6 5 6 6 6 6 6 6 6 6 6 6 6 6 6 6 6 6 6 6 6 6 6 5 6 6 6 7 6 6 6 6 6 6 6 6 5 6 6 6 6 6 6 6 6 6 6 5 6 6 6 6 6 5 6 6 6 6 5 5 5 5 6 6 5 6 6 6 6 6 6 6 6 6 6 6 6 5 6 6 5 5 6 6 6 5 5 5 6 0 
5 5 5 5 5 5 6 6 5 5 5 5 5 6 5 6 6 5 5 5 5 6 5 6 6 5 5 5 5 5 5 5 6 5 6 6 5 6 5 5 5 5 5 5 6 6 5 5 5 6 6 5 5 5 5 6 5 5 6 6 5 5 5 6 6 5 5 6 6 6 5 5 5 6 6 6 5 6 5 5 6 5 5 6 6 6 6 6 6 6 6 5 5 6 6 6 6 5 6 6 6 6 6 6 5 6 6 6 6 5 5 6 5 6 6 5 6 6 7 6 5 6 6 6 6 6 5 6 6 6 6 6 6 6 6 6 6 7 6 6 6 6 6 6 6 6 6 6 7 6 6 6 6 6 6 7 6 6 6 6 6 6 6 6 6 6 6 6 6 6 7 6 6 6 6 6 6 6 6 7 6 6 7 6 6 6 6 7 6 6 6 6 6 6 6 6 6 6 6 6 7 6 7 6 6 7 6 7 7 6 6 6 7 6 6 6 6 6 7 6 6 6 6 7 6 6 6 7 7 6 7 7 6 6 6 7 6 6 7 7 7 7 7 7 7 6 6 6 6 7 7 6 7 7 7 7 7 7 7 6 7 7 7 7 7 7 7 7 6 7 7 7 6 7 7 7 7 7 8 7 7 6 7 7 7 7 7 6 8 7 6 6 6 7 7 7 7 7 7 7 7 7 7 7 7 7 6 7 7 7 7 7 7 7 6 7 7 8 7 7 6 7 7 7 7 6 6 7 8 7 7 7 6 8 7 7 7 7 7 7 7 7 7 7 7 6 7 7 7 7 7 7 7 7 6 7 7 7 7 7 7 7 7 7 6 7 7 7 7 8 7 7 7 7 6 7 7 7 7 7 7 7 7 7 7 7 8 7 7 7 7 7 7 7 7 7 7 7 7 8 7 7 7 7 7 7 6 7 6 7 7 7 7 7 6 7 6 7 6 7 7 7 7 6 6 7 7 6 7 7 7 6 6 6 7 7 7 6 7 7 6 7 6 7 7 7 7 7 7 7 7 6 6 7 7 7 6 7 7 6 7 6 6 6 7 6 7 7 7 7 7 6 6 6 6 6 6 6 7 6 6 7 6 6 6 7 7 7 6 7 6 7 6 6 6 7 6 6 6 7 7 6 6 6 6 6 6 6 6 6 7 6 7 6 7 6 6 6 6 6 6 7 6 6 6 6 6 6 6 6 6 6 6 6 6 6 6 6 6 6 6 6 6 6 6 6 5 6 6 6 6 6 6 6 6 6 6 6 6 6 6 5 6 6 6 6 6 6 5 6 6 6 6 6 6 5 5 6 6 6 6 6 6 5 5 6 6 6 6 5 6 5 6 5 5 6 6 6 6 0 
5 5 6 6 5 5 5 6 5 5 5 6 5 5 5 5 5 5 5 6 6 5 5 5 5 5 6 6 5 5 6 5 5 6 6 5 5 6 5 5 5 5 6 6 5 6 5 5 5 6 6 6 5 5 6 6 6 5 6 5 6 6 6 5 5 6 6 6 5 5 6 6 6 5 6 6 6 6 6 6 5 5 6 6 6 6 6 6 6 6 6 6 6 6 6 6 6 6 5 6 6 6 6 6 6 6 6 6 6 6 5 5 6 6 6 5 6 6 6 6 6 6 6 6 6 6 6 6 6 6 7 6 6 6 6 6 6 5 6 6 6 6 7 6 6 6 6 6 5 7 6 6 6 6 7 6 6 7 6 6 6 6 6 6 6 6 6 6 6 6 6 6 6 7 6 6 6 7 6 7 6 6 6 6 7 6 7 6 6 6 6 6 6 6 6 6 6 6 6 6 6 6 6 7 7 6 6 6 6 6 7 6 7 7 6 7 6 6 6 7 7 6 6 6 7 6 7 7 6 7 7 6 7 7 7 7 6 7 7 7 6 6 7 6 7 7 7 6 6 6 7 6 6 6 6 7 7 7 6 7 7 7 7 7 6 7 7 7 6 7 6 7 7 6 7 7 6 7 6 7 7 7 7 7 7 7 6 7 6 7 7 6 7 7 6 7 7 7 6 7 7 7 7 6 6 7 6 6 7 7 7 7 7 7 7 7 7 7 7 7 7 7 7 7 7 7 7 8 7 7 7 6 7 7 7 6 7 7 7 7 7 7 7 7 7 7 7 7 7 7 6 7 7 7 7 6 7 7 7 7 7 7 7 7 6 7 7 7 7 7 6 7 7 7 7 7 6 7 7 7 7 7 7 7 7 7 7 7 7 7 7 7 7 7 6 7 7 7 7 7 7 7 7 7 7 7 7 7 6 7 7 7 7 7 7 7 7 7 6 7 7 7 7 6 7 7 7 6 7 6 6 7 6 7 7 6 7 7 6 7 6 7 6 7 7 7 6 7 7 7 7 7 6 7 7 6 6 7 6 7 6 6 6 6 6 6 6 7 6 6 6 6 6 6 7 7 6 6 6 7 7 6 7 6 7 6 6 6 6 6 6 7 7 6 6 6 6 6 6 6 7 6 6 6 6 6 6 6 6 6 6 7 7 6 7 6 6 6 6 6 6 6 6 6 6 6 6 6 6 6 6 6 6 6 6 6 6 6 6 6 6 6 6 6 6 6 6 7 6 6 6 5 6 6 6 6 5 6 6 6 6 5 6 6 5 6 6 5 6 6 6 6 5 6 6 5 6 6 6 5 6 6 6 6 5 6 5 6 6 5 6 5 6 6 6 6 6 6 6 0 
5 6 5 5 5 5 5 5 5 5 6 5 5 5 5 6 5 6 6 5 5 5 5 5 5 6 6 6 5 5 5 5 5 5 6 5 6 5 5 5 5 6 5 5 5 5 5 5 6 5 6 5 5 5 6 6 6 5 5 5 5 5 6 6 5 6 5 5 5 5 5 5 5 5 6 6 6 6 5 6 5 6 5 6 6 6 6 6 6 6 5 5 6 6 5 6 5 6 6 6 6 5 6 6 6 6 6 5 5 5 6 6 6 6 5 6 6 6 6 5 6 6 6 6 6 6 6 6 6 6 6 6 5 6 6 6 6 6 6 6 6 6 6 5 5 6 6 6 6 6 7 6 6 6 6 6 6 6 6 6 6 6 6 6 6 6 6 6 6 6 6 6 6 6 6 6 6 6 6 6 6 6 6 6 7 6 6 6 6 7 7 6 6 7 6 6 7 6 6 6 6 6 6 7 6 7 6 6 6 7 6 6 7 6 7 6 6 6 6 6 6 7 6 6 6 6 6 7 6 7 6 6 7 6 6 6 7 6 7 6 7 7 7 6 7 7 7 7 7 6 6 6 6 7 6 6 6 6 7 7 6 7 7 7 7 7 7 7 7 7 7 6 6 6 6 8 7 6 7 7 7 7 7 6 7 6 7 7 7 6 7 7 7 6 7 7 6 7 7 7 7 7 7 7 7 7 7 7 6 7 7 7 7 7 7 7 7 7 7 7 6 7 6 7 6 7 7 7 7 7 7 7 7 7 7 6 7 7 6 7 7 7 7 7 7 7 7 7 7 7 7 7 7 7 7 8 7 8 7 7 7 7 7 7 7 7 7 6 7 7 7 7 7 6 6 7 7 7 7 7 6 7 7 7 7 6 7 7 7 7 7 6 7 7 7 7 7 7 7 7 7 7 6 7 6 7 7 7 7 7 7 7 7 7 6 7 6 7 7 6 7 7 7 6 7 6 7 6 7 7 6 6 7 7 7 6 7 7 7 6 7 7 7 6 7 6 7 7 6 7 6 7 7 6 7 6 6 7 6 6 7 7 6 6 7 6 6 6 7 6 6 6 6 6 6 6 6 6 7 7 6 7 6 6 6 6 6 6 6 6 6 6 6 6 6 6 7 6 6 6 5 6 6 7 6 6 6 6 6 6 6 6 7 6 6 6 7 6 6 6 6 6 6 6 6 6 6 6 6 6 6 6 6 6 6 5 6 7 7 6 6 6 5 6 6 6 5 5 6 6 6 6 7 6 6 6 6 6 6 6 6 5 6 6 6 5 6 6 5 6 6 6 5 6 6 6 6 6 5 6 6 6 5 6 6 5 6 5 6 6 6 5 6 6 6 6 6 5 6 0 
5 6 6 5 5 5 6 5 5 6 5 5 5 5 6 6 5 5 5 6 5 5 5 6 5 5 5 5 6 5 6 5 5 6 5 6 6 6 6 6 6 5 6 5 5 5 6 6 5 6 6 6 6 6 5 5 5 6 5 6 5 5 6 6 6 6 6 6 5 5 5 5 5 5 5 5 6 6 6 5 5 5 5 6 5 6 5 6 6 6 6 5 6 5 6 6 6 6 5 6 6 6 6 6 6 6 6 6 6 6 5 6 6 6 6 6 6 5 6 5 6 6 6 6 5 6 6 7 6 6 5 6 6 6 7 6 6 6 6 6 6 6 6 6 6 6 6 6 6 6 6 6 6 6 6 6 6 6 6 6 6 6 7 6 6 6 6 6 6 6 6 6 6 6 7 6 6 6 6 6 7 6 6 7 6 6 6 6 6 6 6 7 6 6 6 6 7 6 6 6 7 6 6 6 6 6 7 6 6 7 6 6 6 7 6 7 6 6 7 6 6 7 7 6 6 7 7 6 7 7 6 6 7 7 7 7 6 6 7 6 7 7 6 7 6 7 7 7 7 7 7 7 6 6 7 6 6 7 7 7 7 6 7 6 7 7 6 7 7 7 7 7 7 6 7 7 6 7 7 7 6 7 7 7 7 7 8 7 6 6 7 6 7 7 7 7 6 6 7 7 7 6 7 7 7 6 7 7 7 7 7 7 7 7 7 7 7 7 7 7 6 7 7 7 7 7 7 7 7 7 7 7 7 7 7 7 7 6 7 7 7 7 7 7 7 7 7 6 7 7 7 7 7 7 6 8 8 7 7 7 7 7 7 7 7 7 7 7 7 7 7 7 7 6 7 7 8 6 7 7 7 7 7 7 7 6 7 7 6 7 7 7 7 7 7 6 7 7 7 7 6 6 7 6 6 7 7 7 7 7 6 7 7 6 6 7 7 7 7 7 7 7 7 6 7 7 7 6 6 7 7 7 7 7 7 7 7 6 7 7 7 7 7 6 6 7 7 6 6 6 7 7 6 7 6 6 6 6 7 7 6 7 7 6 6 6 6 7 6 7 7 6 6 6 6 7 6 6 6 6 6 6 6 6 6 7 6 6 6 6 7 6 6 6 6 6 7 6 7 6 6 6 6 6 6 6 7 6 6 6 6 6 6 6 6 6 6 6 6 6 6 6 6 6 6 6 6 6 6 6 6 6 6 5 6 6 6 6 6 5 6 6 6 6 6 6 6 6 6 6 6 6 6 6 6 6 6 5 6 6 6 6 6 6 6 6 6 6 6 6 6 5 6 5 6 5 6 6 5 6 6 6 5 5 6 6 6 5 6 6 5 6 6 5 6 5 6 6 5 0 
5 6 5 5 6 5 5 6 5 5 6 5 5 5 5 5 6 5 5 6 5 5 6 5 5 5 6 5 6 5 6 5 5 5 5 5 5 6 5 5 5 5 5 6 5 6 5 5 5 5 5 6 6 6 6 5 6 5 5 5 6 5 6 6 6 6 5 5 6 6 6 6 6 5 6 6 5 6 6 6 5 6 5 6 6 5 5 5 5 6 5 6 6 6 5 6 6 5 6 5 6 6 6 5 6 6 5 6 6 6 6 6 5 6 6 6 6 6 5 6 5 6 6 6 6 6 6 6 6 6 5 6 6 6 6 6 7 6 6 6 6 6 6 6 6 6 6 6 6 6 6 6 6 6 6 6 6 6 6 6 6 6 6 6 6 6 6 6 5 6 6 6 6 6 6 7 6 6 6 6 6 6 7 7 6 6 6 6 7 7 6 6 6 7 6 6 6 6 7 6 7 6 6 6 6 6 6 6 6 6 6 7 6 7 7 6 7 6 6 6 6 6 7 7 7 7 6 7 6 7 6 7 6 7 6 6 7 6 6 7 7 6 6 7 6 6 7 6 7 6 7 6 7 7 7 7 6 6 6 7 6 7 6 7 7 7 7 7 7 6 6 7 7 7 7 6 7 6 6 7 7 6 6 7 6 7 7 7 7 7 7 7 7 7 7 7 7 7 6 7 7 7 8 7 7 7 7 7 6 7 7 7 7 7 7 7 7 8 7 7 7 7 7 7 6 7 7 7 7 7 7 7 7 7 7 7 7 7 7 7 7 7 7 7 7 7 7 7 7 7 7 7 7 7 7 7 7 6 7 7 7 7 7 7 7 6 7 7 7 7 8 7 7 7 7 6 7 7 7 6 7 6 7 7 7 7 7 7 6 7 7 7 7 6 7 7 7 7 7 7 7 6 6 6 7 6 6 7 7 7 7 6 7 7 7 7 7 6 7 7 7 7 7 7 7 7 6 6 6 7 7 7 6 7 7 7 7 7 7 7 6 7 7 6 6 7 7 7 7 6 7 7 6 6 6 7 6 6 6 6 7 6 7 6 6 7 7 6 7 7 6 7 6 6 6 6 6 6 7 7 6 7 6 6 6 6 7 7 7 6 6 6 6 6 6 6 7 6 6 6 6 6 6 7 6 6 6 6 7 6 6 6 6 6 6 6 6 6 6 6 6 7 6 6 5 6 6 6 6 6 6 6 6 6 6 6 6 6 6 6 5 6 6 6 6 6 6 6 6 6 6 6 6 6 6 6 5 6 6 6 6 6 6 6 6 6 6 6 6 6 6 5 6 6 6 6 5 6 5 6 6 5 5 5 6 6 6 5 6 6 6 5 6 5 5 6 5 6 6 0 
2 2 2 2 2 2 3 2 3 2 3 3 2 3 2 2 3 2 3 2 2 2 3 3 3 3 3 3 2 2 3 2 3 2 2 3 2 2 2 3 2 3 3 3 2 2 2 3 2 2 3 2 3 3 2 3 3 3 3 2 3 2 2 2 2 3 3 3 3 3 3 2 2 3 2 3 2 2 3 2 2 2 2 3 3 3 3 2 3 3 3 3 3 3 3 3 2 3 2 3 3 3 2 3 3 3 3 3 3 3 3 3 3 3 3 3 3 3 3 2 2 3 3 3 3 3 3 3 3 3 3 2 3 3 3 2 3 3 2 3 3 3 3 2 2 3 3 3 2 3 3 3 3 2 3 3 3 3 3 3 3 3 3 3 3 3 3 3 3 3 3 3 3 3 2 3 3 3 3 3 3 3 3 3 3 3 3 3 3 3 3 3 3 3 3 3 3 3 3 3 3 3 3 3 3 3 3 3 3 3 3 3 3 3 3 3 3 3 3 3 3 3 3 3 3 3 3 3 3 3 3 3 3 3 3 3 3 3 2 3 3 3 3 3 3 3 3 3 3 3 3 3 3 3 3 3 3 3 3 3 3 3 3 3 3 3 3 3 3 3 3 3 3 3 3 3 3 3 3 3 3 3 3 3 3 3 3 3 3 3 3 3 4 3 3 3 3 3 3 3 3 4 3 3 3 3 3 3 3 3 3 3 3 3 3 3 3 4 3 3 3 3 3 3 3 4 3 3 3 3 4 3 3 3 3 3 3 4 3 3 3 3 3 3 3 3 3 3 3 3 3 3 3 3 3 3 3 3 3 3 3 3 3 3 3 3 3 3 3 3 3 3 3 3 3 3 3 3 3 3 3 3 3 3 3 3 4 3 3 3 3 3 3 3 3 3 3 3 3 4 3 3 3 3 3 3 3 3 3 3 3 3 3 3 3 3 3 3 4 3 3 3 3 3 3 3 3 3 3 3 3 3 3 3 3 3 3 3 3 3 3 3 3 3 3 3 3 3 3 3 3 3 3 3 3 3 3 3 3 3 3 3 3 3 3 3 3 3 3 3 3 3 3 3 3 3 3 3 3 3 3 3 3 2 3 3 3 3 3 3 3 3 3 3 4 3 3 3 3 3 3 3 3 3 3 3 3 3 3 3 3 3 3 3 3 3 3 2 3 3 3 3 3 3 3 3 3 3 3 3 3 3 3 3 3 3 3 3 2 3 3 3 2 3 3 3 3 3 3 3 3 2 3 2 3 3 2 3 2 2 3 3 2 2 2 3 3 2 3 3 2 2 3 3 3 2 3 2 2 3 3 3 2 3 2 3 2 3 3 2 2 3 2 3 2 2 3 2 2 0 
